P3
10 10
255
0     0     0
63     63     63
127     127     127
63     63     63
0     0     0
0     0     0
63     63     63
127     127     127
63     63     63
0     0     0
63     63     63
111     111     111
159     159     159
111     111     111
63     63     63
63     63     63
111     111     111
159     159     159
111     111     111
63     63     63
127     127     127
159     159     159
191     191     191
159     159     159
127     127     127
127     127     127
159     159     159
191     191     191
159     159     159
127     127     127
63     63     63
111     111     111
159     159     159
127     111     111
95     79     63
79     95     79
111     127     143
159     159     175
111     111     111
63     63     63
0     0     0
63     63     63
127     127     127
95     79     63
79     63     15
63     95     63
79     127     143
127     143     159
63     63     63
0     0     0
0     0     0
63     63     63
127     127     127
79     95     79
63     95     63
95     127     95
127     159     127
143     159     143
63     63     63
0     0     0
63     63     63
111     111     111
159     159     159
111     127     143
79     127     143
127     159     127
191     175     127
191     175     159
111     111     111
63     63     63
127     127     127
159     159     159
191     191     191
159     159     175
127     143     159
143     159     143
191     175     159
207     191     191
159     159     159
127     127     127
63     63     63
111     111     111
159     159     159
111     111     111
63     63     63
63     63     63
111     111     111
159     159     159
111     111     111
63     63     63
0     0     0
63     63     63
127     127     127
63     63     63
0     0     0
0     0     0
63     63     63
127     127     127
63     63     63
0     0     0
