P3
# Created by GIMP version 3.0.8 PNM plug-in
225 225
255
253
253
253
253
253
253
253
253
253
253
253
253
253
253
253
253
253
253
253
253
253
253
253
253
252
252
252
252
252
252
252
252
252
252
252
252
252
252
252
252
252
252
252
252
252
252
252
252
251
251
251
251
251
251
251
251
251
251
251
251
251
251
251
251
251
251
251
251
251
251
251
251
251
251
251
251
251
251
251
251
251
252
252
252
252
252
252
252
252
252
253
253
253
253
253
253
252
252
252
252
252
252
252
252
252
252
252
252
252
252
252
252
252
252
252
252
252
252
252
252
252
252
252
252
252
252
251
251
251
251
251
251
250
250
250
250
250
250
250
250
250
250
250
250
250
250
250
250
250
250
250
250
250
250
250
250
250
250
250
250
250
250
250
250
250
250
250
250
249
249
249
249
249
249
249
249
249
249
249
249
248
248
248
248
248
248
247
247
247
247
247
247
249
249
249
249
249
249
249
249
249
249
249
249
248
248
248
248
248
248
247
247
247
247
247
247
248
248
248
248
248
248
248
248
248
248
248
248
248
248
248
248
248
248
248
248
248
248
248
248
247
247
247
247
247
247
247
247
247
247
247
247
247
247
247
247
247
247
247
247
247
247
247
247
249
249
249
249
249
249
249
249
249
249
249
249
250
250
250
250
250
250
250
250
250
251
251
251
248
248
248
249
249
249
249
249
249
249
249
249
250
250
250
250
250
250
250
250
250
251
251
251
247
247
247
247
247
247
247
247
247
247
247
247
247
247
247
247
247
247
247
247
247
247
247
247
248
248
248
248
248
248
248
248
248
248
248
248
248
248
248
248
248
248
248
248
248
248
248
248
248
248
248
248
248
248
248
248
248
247
247
247
247
247
247
247
247
247
246
246
246
246
246
246
246
246
246
246
246
246
247
247
247
247
247
247
247
247
247
248
248
248
248
248
248
248
248
248
247
247
247
247
247
247
247
247
247
247
247
247
247
247
247
247
247
247
247
247
247
247
247
247
247
247
247
247
247
247
247
247
247
247
247
247
247
247
247
247
247
247
247
247
247
247
247
247
250
250
250
249
249
249
249
249
249
249
249
249
248
248
248
248
248
248
248
248
248
247
247
247
246
246
246
246
246
246
246
246
246
246
246
246
246
246
246
246
246
246
246
246
246
246
246
246
246
246
246
246
246
246
246
246
246
246
246
246
246
246
246
246
246
246
246
246
246
246
246
246
245
245
245
245
245
245
245
245
245
245
245
245
245
245
245
245
245
245
245
245
245
245
245
245
246
246
246
246
246
246
246
246
246
246
246
246
246
246
246
246
246
246
246
246
246
246
246
246
246
246
246
246
246
246
245
245
245
244
244
244
243
243
243
243
243
243
242
242
242
242
242
242
240
240
240
240
240
240
240
240
240
240
240
240
240
240
240
240
240
240
240
240
240
240
240
240
240
240
240
240
240
240
240
240
240
240
240
240
240
240
240
240
240
240
240
240
240
240
240
240
240
240
240
240
240
240
240
240
240
240
240
240
240
240
240
240
240
240
240
240
240
240
240
240
240
240
240
253
253
253
253
253
253
253
253
253
253
253
253
253
253
253
253
253
253
253
253
253
253
253
253
252
252
252
252
252
252
252
252
252
252
252
252
252
252
252
252
252
252
252
252
252
252
252
252
251
251
251
251
251
251
251
251
251
251
251
251
251
251
251
251
251
251
251
251
251
251
251
251
251
251
251
251
251
251
251
251
251
252
252
252
252
252
252
252
252
252
253
253
253
253
253
253
252
252
252
252
252
252
252
252
252
252
252
252
252
252
252
252
252
252
252
252
252
252
252
252
252
252
252
252
252
252
251
251
251
251
251
251
250
250
250
250
250
250
250
250
250
250
250
250
250
250
250
250
250
250
250
250
250
250
250
250
250
250
250
250
250
250
250
250
250
250
250
250
249
249
249
249
249
249
249
249
249
249
249
249
248
248
248
248
248
248
247
247
247
247
247
247
249
249
249
249
249
249
249
249
249
249
249
249
248
248
248
248
248
248
247
247
247
247
247
247
248
248
248
248
248
248
248
248
248
248
248
248
248
248
248
248
248
248
248
248
248
248
248
248
247
247
247
247
247
247
247
247
247
247
247
247
247
247
247
247
247
247
247
247
247
247
247
247
248
248
248
249
249
249
249
249
249
249
249
249
250
250
250
250
250
250
250
250
250
250
250
250
248
248
248
249
249
249
249
249
249
249
249
249
250
250
250
250
250
250
250
250
250
251
251
251
247
247
247
247
247
247
247
247
247
247
247
247
247
247
247
247
247
247
247
247
247
247
247
247
248
248
248
248
248
248
248
248
248
248
248
248
248
248
248
248
248
248
248
248
248
248
248
248
248
248
248
248
248
248
248
248
248
247
247
247
247
247
247
247
247
247
246
246
246
246
246
246
246
246
246
246
246
246
247
247
247
247
247
247
247
247
247
248
248
248
248
248
248
248
248
248
247
247
247
247
247
247
247
247
247
247
247
247
247
247
247
247
247
247
247
247
247
247
247
247
247
247
247
247
247
247
247
247
247
247
247
247
247
247
247
247
247
247
247
247
247
247
247
247
249
249
249
249
249
249
249
249
249
248
248
248
248
248
248
248
248
248
247
247
247
247
247
247
246
246
246
246
246
246
246
246
246
246
246
246
246
246
246
246
246
246
246
246
246
246
246
246
246
246
246
246
246
246
246
246
246
246
246
246
246
246
246
246
246
246
246
246
246
246
246
246
245
245
245
245
245
245
245
245
245
245
245
245
245
245
245
245
245
245
245
245
245
245
245
245
246
246
246
246
246
246
246
246
246
246
246
246
246
246
246
246
246
246
246
246
246
246
246
246
246
246
246
246
246
246
245
245
245
244
244
244
243
243
243
243
243
243
242
242
242
242
242
242
240
240
240
240
240
240
240
240
240
240
240
240
240
240
240
240
240
240
240
240
240
240
240
240
240
240
240
240
240
240
240
240
240
240
240
240
240
240
240
240
240
240
240
240
240
240
240
240
240
240
240
240
240
240
240
240
240
240
240
240
240
240
240
240
240
240
240
240
240
240
240
240
240
240
240
252
252
252
252
252
252
252
252
252
252
252
252
252
252
252
252
252
252
252
252
252
252
252
252
252
252
252
252
252
252
252
252
252
252
252
252
252
252
252
252
252
252
252
252
252
252
252
252
251
251
251
251
251
251
251
251
251
251
251
251
251
251
251
251
251
251
251
251
251
251
251
251
251
251
251
251
251
251
251
251
251
252
252
252
252
252
252
252
252
252
253
253
253
253
253
253
252
252
252
252
252
252
252
252
252
252
252
252
252
252
252
252
252
252
252
252
252
252
252
252
252
252
252
252
252
252
251
251
251
251
251
251
250
250
250
250
250
250
250
250
250
250
250
250
250
250
250
250
250
250
250
250
250
250
250
250
250
250
250
250
250
250
250
250
250
250
250
250
249
249
249
249
249
249
249
249
249
249
249
249
248
248
248
248
248
248
247
247
247
247
247
247
249
249
249
249
249
249
249
249
249
249
249
249
248
248
248
248
248
248
247
247
247
247
247
247
248
248
248
248
248
248
248
248
248
248
248
248
248
248
248
248
248
248
248
248
248
248
248
248
247
247
247
247
247
247
247
247
247
247
247
247
247
247
247
247
247
247
247
247
247
247
247
247
248
248
248
248
248
248
248
248
248
249
249
249
249
249
249
250
250
250
250
250
250
250
250
250
248
248
248
249
249
249
249
249
249
249
249
249
250
250
250
250
250
250
250
250
250
251
251
251
247
247
247
247
247
247
247
247
247
247
247
247
247
247
247
247
247
247
247
247
247
247
247
247
248
248
248
248
248
248
248
248
248
248
248
248
248
248
248
248
248
248
248
248
248
248
248
248
248
248
248
248
248
248
248
248
248
247
247
247
247
247
247
247
247
247
246
246
246
246
246
246
246
246
246
246
246
246
247
247
247
247
247
247
247
247
247
248
248
248
248
248
248
248
248
248
247
247
247
247
247
247
247
247
247
247
247
247
247
247
247
247
247
247
247
247
247
247
247
247
247
247
247
247
247
247
247
247
247
247
247
247
247
247
247
247
247
247
247
247
247
247
247
247
249
249
249
249
249
249
249
249
249
248
248
248
248
248
248
247
247
247
247
247
247
247
247
247
246
246
246
246
246
246
246
246
246
246
246
246
246
246
246
246
246
246
246
246
246
246
246
246
246
246
246
246
246
246
246
246
246
246
246
246
246
246
246
246
246
246
246
246
246
246
246
246
245
245
245
245
245
245
245
245
245
245
245
245
245
245
245
245
245
245
245
245
245
245
245
245
246
246
246
246
246
246
246
246
246
246
246
246
246
246
246
246
246
246
246
246
246
246
246
246
246
246
246
246
246
246
245
245
245
244
244
244
243
243
243
243
243
243
242
242
242
242
242
242
240
240
240
240
240
240
240
240
240
240
240
240
240
240
240
240
240
240
240
240
240
240
240
240
240
240
240
240
240
240
240
240
240
240
240
240
240
240
240
240
240
240
240
240
240
240
240
240
240
240
240
240
240
240
240
240
240
240
240
240
240
240
240
240
240
240
240
240
240
240
240
240
240
240
240
252
252
252
252
252
252
252
252
252
252
252
252
252
252
252
252
252
252
252
252
252
252
252
252
252
252
252
252
252
252
252
252
252
252
252
252
252
252
252
252
252
252
252
252
252
252
252
252
252
252
252
252
252
252
252
252
252
252
252
252
252
252
252
252
252
252
252
252
252
252
252
252
251
251
251
251
251
251
251
251
251
252
252
252
252
252
252
252
252
252
253
253
253
253
253
253
252
252
252
252
252
252
252
252
252
252
252
252
252
252
252
252
252
252
252
252
252
252
252
252
252
252
252
252
252
252
251
251
251
251
251
251
250
250
250
250
250
250
250
250
250
250
250
250
250
250
250
250
250
250
250
250
250
250
250
250
250
250
250
250
250
250
250
250
250
250
250
250
249
249
249
249
249
249
249
249
249
249
249
249
248
248
248
248
248
248
247
247
247
247
247
247
249
249
249
249
249
249
249
249
249
249
249
249
248
248
248
248
248
248
247
247
247
247
247
247
248
248
248
248
248
248
248
248
248
248
248
248
248
248
248
248
248
248
248
248
248
248
248
248
247
247
247
247
247
247
247
247
247
247
247
247
247
247
247
247
247
247
247
247
247
247
247
247
248
248
248
248
248
248
248
248
248
248
248
248
249
249
249
249
249
249
249
249
249
250
250
250
248
248
248
249
249
249
249
249
249
249
249
249
250
250
250
250
250
250
250
250
250
251
251
251
247
247
247
247
247
247
247
247
247
247
247
247
247
247
247
247
247
247
247
247
247
247
247
247
248
248
248
248
248
248
248
248
248
248
248
248
248
248
248
248
248
248
248
248
248
248
248
248
248
248
248
248
248
248
248
248
248
247
247
247
247
247
247
247
247
247
246
246
246
246
246
246
246
246
246
246
246
246
247
247
247
247
247
247
247
247
247
248
248
248
248
248
248
248
248
248
247
247
247
247
247
247
247
247
247
247
247
247
247
247
247
247
247
247
247
247
247
247
247
247
247
247
247
247
247
247
247
247
247
247
247
247
247
247
247
247
247
247
247
247
247
247
247
247
249
249
249
248
248
248
248
248
248
248
248
248
247
247
247
247
247
247
247
247
247
246
246
246
246
246
246
246
246
246
246
246
246
246
246
246
246
246
246
246
246
246
246
246
246
246
246
246
246
246
246
246
246
246
246
246
246
246
246
246
246
246
246
246
246
246
246
246
246
246
246
246
246
246
246
246
246
246
246
246
246
246
246
246
246
246
246
246
246
246
246
246
246
246
246
246
246
246
246
246
246
246
246
246
246
246
246
246
246
246
246
246
246
246
246
246
246
246
246
246
246
246
246
246
246
246
245
245
245
244
244
244
243
243
243
243
243
243
242
242
242
242
242
242
240
240
240
240
240
240
240
240
240
240
240
240
240
240
240
240
240
240
240
240
240
240
240
240
240
240
240
240
240
240
240
240
240
240
240
240
240
240
240
240
240
240
240
240
240
240
240
240
240
240
240
240
240
240
240
240
240
240
240
240
240
240
240
240
240
240
240
240
240
240
240
240
240
240
240
252
252
252
252
252
252
252
252
252
252
252
252
252
252
252
252
252
252
252
252
252
252
252
252
252
252
252
252
252
252
252
252
252
252
252
252
252
252
252
252
252
252
252
252
252
252
252
252
252
252
252
252
252
252
252
252
252
252
252
252
252
252
252
252
252
252
252
252
252
252
252
252
251
251
251
251
251
251
251
251
251
252
252
252
252
252
252
252
252
252
253
253
253
253
253
253
252
252
252
252
252
252
252
252
252
252
252
252
252
252
252
252
252
252
252
252
252
252
252
252
252
252
252
252
252
252
251
251
251
251
251
251
250
250
250
250
250
250
250
250
250
250
250
250
250
250
250
250
250
250
250
250
250
250
250
250
250
250
250
250
250
250
250
250
250
250
250
250
249
249
249
249
249
249
249
249
249
249
249
249
248
248
248
248
248
248
247
247
247
247
247
247
249
249
249
249
249
249
249
249
249
249
249
249
248
248
248
248
248
248
247
247
247
247
247
247
248
248
248
248
248
248
248
248
248
248
248
248
248
248
248
248
248
248
248
248
248
248
248
248
247
247
247
247
247
247
247
247
247
247
247
247
247
247
247
247
247
247
247
247
247
247
247
247
247
247
247
247
247
247
248
248
248
248
248
248
248
248
248
249
249
249
249
249
249
249
249
249
248
248
248
249
249
249
249
249
249
249
249
249
250
250
250
250
250
250
250
250
250
251
251
251
247
247
247
247
247
247
247
247
247
247
247
247
247
247
247
247
247
247
247
247
247
247
247
247
248
248
248
248
248
248
248
248
248
248
248
248
248
248
248
248
248
248
248
248
248
248
248
248
248
248
248
248
248
248
248
248
248
247
247
247
247
247
247
247
247
247
246
246
246
246
246
246
246
246
246
246
246
246
247
247
247
247
247
247
247
247
247
248
248
248
248
248
248
248
248
248
247
247
247
247
247
247
247
247
247
247
247
247
247
247
247
247
247
247
247
247
247
247
247
247
247
247
247
247
247
247
247
247
247
247
247
247
247
247
247
247
247
247
247
247
247
247
247
247
248
248
248
248
248
248
248
248
248
247
247
247
247
247
247
246
246
246
246
246
246
246
246
246
246
246
246
246
246
246
246
246
246
246
246
246
246
246
246
246
246
246
246
246
246
246
246
246
246
246
246
246
246
246
246
246
246
246
246
246
246
246
246
246
246
246
246
246
246
246
246
246
246
246
246
246
246
246
246
246
246
246
246
246
246
246
246
246
246
246
246
246
246
246
246
246
246
246
246
246
246
246
246
246
246
246
246
246
246
246
246
246
246
246
246
246
246
246
246
246
246
246
246
246
246
246
245
245
245
244
244
244
243
243
243
243
243
243
242
242
242
242
242
242
240
240
240
240
240
240
240
240
240
240
240
240
240
240
240
240
240
240
240
240
240
240
240
240
240
240
240
240
240
240
240
240
240
240
240
240
240
240
240
240
240
240
240
240
240
240
240
240
240
240
240
240
240
240
240
240
240
240
240
240
240
240
240
240
240
240
240
240
240
240
240
240
240
240
240
251
251
251
251
251
251
251
251
251
251
251
251
251
251
251
251
251
251
251
251
251
251
251
251
252
252
252
252
252
252
252
252
252
252
252
252
252
252
252
252
252
252
252
252
252
252
252
252
252
252
252
252
252
252
252
252
252
252
252
252
252
252
252
252
252
252
252
252
252
252
252
252
251
251
251
251
251
251
251
251
251
252
252
252
252
252
252
252
252
252
253
253
253
253
253
253
252
252
252
252
252
252
252
252
252
252
252
252
252
252
252
252
252
252
252
252
252
252
252
252
252
252
252
252
252
252
251
251
251
251
251
251
250
250
250
250
250
250
250
250
250
250
250
250
250
250
250
250
250
250
250
250
250
250
250
250
250
250
250
250
250
250
250
250
250
250
250
250
249
249
249
249
249
249
249
249
249
249
249
249
248
248
248
248
248
248
247
247
247
247
247
247
249
249
249
249
249
249
249
249
249
249
249
249
248
248
248
248
248
248
247
247
247
247
247
247
248
248
248
248
248
248
248
248
248
248
248
248
248
248
248
248
248
248
248
248
248
248
248
248
247
247
247
247
247
247
247
247
247
247
247
247
247
247
247
247
247
247
247
247
247
247
247
247
247
247
247
247
247
247
247
247
247
247
247
247
248
248
248
248
248
248
249
249
249
249
249
249
248
248
248
249
249
249
249
249
249
249
249
249
250
250
250
250
250
250
250
250
250
251
251
251
247
247
247
247
247
247
247
247
247
247
247
247
247
247
247
247
247
247
247
247
247
247
247
247
248
248
248
248
248
248
248
248
248
248
248
248
248
248
248
248
248
248
248
248
248
248
248
248
248
248
248
248
248
248
248
248
248
247
247
247
247
247
247
247
247
247
246
246
246
246
246
246
246
246
246
246
246
246
247
247
247
247
247
247
247
247
247
248
248
248
248
248
248
248
248
248
247
247
247
247
247
247
247
247
247
247
247
247
247
247
247
247
247
247
247
247
247
247
247
247
247
247
247
247
247
247
247
247
247
247
247
247
247
247
247
247
247
247
247
247
247
247
247
247
248
248
248
247
247
247
247
247
247
247
247
247
246
246
246
246
246
246
246
246
246
246
246
246
246
246
246
246
246
246
246
246
246
246
246
246
246
246
246
246
246
246
246
246
246
246
246
246
246
246
246
246
246
246
246
246
246
246
246
246
246
246
246
246
246
246
246
246
246
246
246
246
247
247
247
247
247
247
247
247
247
247
247
247
247
247
247
247
247
247
247
247
247
247
247
247
246
246
246
246
246
246
246
246
246
246
246
246
246
246
246
246
246
246
246
246
246
246
246
246
246
246
246
246
246
246
245
245
245
244
244
244
243
243
243
243
243
243
242
242
242
242
242
242
240
240
240
240
240
240
240
240
240
240
240
240
240
240
240
240
240
240
240
240
240
240
240
240
240
240
240
240
240
240
240
240
240
240
240
240
240
240
240
240
240
240
240
240
240
240
240
240
240
240
240
240
240
240
240
240
240
240
240
240
240
240
240
240
240
240
240
240
240
240
240
240
240
240
240
251
251
251
251
251
251
251
251
251
251
251
251
251
251
251
251
251
251
251
251
251
251
251
251
252
252
252
252
252
252
252
252
252
252
252
252
252
252
252
252
252
252
252
252
252
252
252
252
253
253
253
253
253
253
253
253
253
253
253
253
253
253
253
253
253
253
253
253
253
253
253
253
251
251
251
251
251
251
251
251
251
252
252
252
252
252
252
252
252
252
253
253
253
253
253
253
252
252
252
252
252
252
252
252
252
252
252
252
252
252
252
252
252
252
252
252
252
252
252
252
252
252
252
252
252
252
251
251
251
251
251
251
250
250
250
250
250
250
250
250
250
250
250
250
250
250
250
250
250
250
250
250
250
250
250
250
250
250
250
250
250
250
250
250
250
250
250
250
249
249
249
249
249
249
249
249
249
249
249
249
248
248
248
248
248
248
247
247
247
247
247
247
249
249
249
249
249
249
249
249
249
249
249
249
248
248
248
248
248
248
247
247
247
247
247
247
248
248
248
248
248
248
248
248
248
248
248
248
248
248
248
248
248
248
248
248
248
248
248
248
247
247
247
247
247
247
247
247
247
247
247
247
247
247
247
247
247
247
247
247
247
247
247
247
246
246
246
246
246
246
247
247
247
247
247
247
248
248
248
248
248
248
248
248
248
248
248
248
248
248
248
249
249
249
249
249
249
249
249
249
250
250
250
250
250
250
250
250
250
251
251
251
247
247
247
247
247
247
247
247
247
247
247
247
247
247
247
247
247
247
247
247
247
247
247
247
248
248
248
248
248
248
248
248
248
248
248
248
248
248
248
248
248
248
248
248
248
248
248
248
248
248
248
248
248
248
248
248
248
247
247
247
247
247
247
247
247
247
246
246
246
246
246
246
246
246
246
246
246
246
247
247
247
247
247
247
247
247
247
248
248
248
248
248
248
248
248
248
247
247
247
247
247
247
247
247
247
247
247
247
247
247
247
247
247
247
247
247
247
247
247
247
247
247
247
247
247
247
247
247
247
247
247
247
247
247
247
247
247
247
247
247
247
247
247
247
247
247
247
247
247
247
247
247
247
246
246
246
246
246
246
246
246
246
245
245
245
245
245
245
246
246
246
246
246
246
246
246
246
246
246
246
246
246
246
246
246
246
246
246
246
246
246
246
246
246
246
246
246
246
246
246
246
246
246
246
246
246
246
246
246
246
246
246
246
246
246
246
247
247
247
247
247
247
247
247
247
247
247
247
247
247
247
247
247
247
247
247
247
247
247
247
246
246
246
246
246
246
246
246
246
246
246
246
246
246
246
246
246
246
246
246
246
246
246
246
246
246
246
246
246
246
245
245
245
244
244
244
243
243
243
243
243
243
242
242
242
242
242
242
240
240
240
240
240
240
240
240
240
240
240
240
240
240
240
240
240
240
240
240
240
240
240
240
240
240
240
240
240
240
240
240
240
240
240
240
240
240
240
240
240
240
240
240
240
240
240
240
240
240
240
240
240
240
240
240
240
240
240
240
240
240
240
240
240
240
240
240
240
240
240
240
240
240
240
251
251
251
251
251
251
251
251
251
251
251
251
251
251
251
251
251
251
251
251
251
251
251
251
252
252
252
252
252
252
252
252
252
252
252
252
252
252
252
252
252
252
252
252
252
252
252
252
253
253
253
253
253
253
253
253
253
253
253
253
253
253
253
253
253
253
253
253
253
253
253
253
251
251
251
251
251
251
251
251
251
252
252
252
252
252
252
252
252
252
253
253
253
253
253
253
252
252
252
252
252
252
252
252
252
252
252
252
252
252
252
252
252
252
252
252
252
252
252
252
252
252
252
252
252
252
251
251
251
251
251
251
250
250
250
250
250
250
250
250
250
250
250
250
250
250
250
250
250
250
250
250
250
250
250
250
250
250
250
250
250
250
250
250
250
250
250
250
249
249
249
249
249
249
249
249
249
249
249
249
248
248
248
248
248
248
247
247
247
247
247
247
249
249
249
249
249
249
249
249
249
249
249
249
248
248
248
248
248
248
247
247
247
247
247
247
248
248
248
248
248
248
248
248
248
248
248
248
248
248
248
248
248
248
248
248
248
248
248
248
247
247
247
247
247
247
247
247
247
247
247
247
247
247
247
247
247
247
247
247
247
247
247
247
246
246
246
246
246
246
247
247
247
247
247
247
247
247
247
248
248
248
248
248
248
248
248
248
248
248
248
249
249
249
249
249
249
249
249
249
250
250
250
250
250
250
250
250
250
251
251
251
247
247
247
247
247
247
247
247
247
247
247
247
247
247
247
247
247
247
247
247
247
247
247
247
248
248
248
248
248
248
248
248
248
248
248
248
248
248
248
248
248
248
248
248
248
248
248
248
248
248
248
248
248
248
248
248
248
247
247
247
247
247
247
247
247
247
246
246
246
246
246
246
246
246
246
246
246
246
247
247
247
247
247
247
247
247
247
248
248
248
248
248
248
248
248
248
247
247
247
247
247
247
247
247
247
247
247
247
247
247
247
247
247
247
247
247
247
247
247
247
247
247
247
247
247
247
247
247
247
247
247
247
247
247
247
247
247
247
247
247
247
247
247
247
247
247
247
247
247
247
247
247
247
246
246
246
246
246
246
245
245
245
245
245
245
245
245
245
246
246
246
246
246
246
246
246
246
246
246
246
246
246
246
246
246
246
246
246
246
246
246
246
246
246
246
246
246
246
246
246
246
246
246
246
246
246
246
246
246
246
246
246
246
246
246
246
247
247
247
247
247
247
247
247
247
247
247
247
247
247
247
247
247
247
247
247
247
247
247
247
246
246
246
246
246
246
246
246
246
246
246
246
246
246
246
246
246
246
246
246
246
246
246
246
246
246
246
246
246
246
245
245
245
244
244
244
243
243
243
243
243
243
242
242
242
242
242
242
240
240
240
240
240
240
240
240
240
240
240
240
240
240
240
240
240
240
240
240
240
240
240
240
240
240
240
240
240
240
240
240
240
240
240
240
240
240
240
240
240
240
240
240
240
240
240
240
240
240
240
240
240
240
240
240
240
240
240
240
240
240
240
240
240
240
240
240
240
240
240
240
240
240
240
249
249
249
250
250
250
250
250
250
251
251
251
252
252
252
253
253
253
253
253
253
253
253
253
250
250
250
250
250
250
250
250
250
251
251
251
251
251
251
251
251
251
252
252
252
252
252
252
255
255
255
255
255
255
255
255
255
255
255
255
255
255
255
254
254
254
254
254
254
254
254
254
250
250
250
250
250
250
250
250
250
250
250
250
250
250
250
250
250
250
250
250
250
250
250
250
251
251
251
251
251
251
251
251
251
252
252
252
252
252
252
252
252
252
253
253
253
253
253
253
250
250
250
250
250
250
250
250
250
250
250
250
250
250
250
250
250
250
250
250
250
250
250
250
250
250
250
250
250
250
250
250
250
250
250
250
250
250
250
250
250
250
250
250
250
250
250
250
249
249
249
249
249
249
249
249
249
249
249
249
248
248
248
248
248
248
247
247
247
247
247
247
247
247
247
247
247
247
247
247
247
247
247
247
247
247
247
247
247
247
247
247
247
247
247
247
247
247
247
248
248
248
248
248
248
248
248
248
249
249
249
249
249
249
249
249
249
250
250
250
248
248
248
248
248
248
248
248
248
247
247
247
247
247
247
247
247
247
246
246
246
246
246
246
247
247
247
247
247
247
247
247
247
247
247
247
247
247
247
247
247
247
247
247
247
247
247
247
248
248
248
248
248
248
248
248
248
248
248
248
248
248
248
248
248
248
248
248
248
248
248
248
248
248
248
248
248
248
248
248
248
248
248
248
248
248
248
248
248
248
248
248
248
248
248
248
248
248
248
248
248
248
248
248
248
248
248
248
248
248
248
248
248
248
248
248
248
248
248
248
247
247
247
247
247
247
247
247
247
247
247
247
247
247
247
247
247
247
247
247
247
247
247
247
246
246
246
246
246
246
246
246
246
246
246
246
246
246
246
246
246
246
246
246
246
246
246
246
247
247
247
247
247
247
247
247
247
247
247
247
247
247
247
247
247
247
247
247
247
247
247
247
246
246
246
246
246
246
246
246
246
246
246
246
246
246
246
246
246
246
246
246
246
246
246
246
247
247
247
247
247
247
247
247
247
246
246
246
246
246
246
246
246
246
245
245
245
245
245
245
244
244
244
244
244
244
244
244
244
245
245
245
245
245
245
246
246
246
246
246
246
246
246
246
245
245
245
245
245
245
246
246
246
246
246
246
246
246
246
247
247
247
247
247
247
247
247
247
248
248
248
248
248
248
248
248
248
247
247
247
247
247
247
247
247
247
246
246
246
246
246
246
250
250
250
249
249
249
249
249
249
249
249
249
248
248
248
248
248
248
248
248
248
247
247
247
248
248
248
248
248
248
247
247
247
247
247
247
246
246
246
245
245
245
244
244
244
244
244
244
243
243
243
242
242
242
242
242
242
242
242
242
241
241
241
241
241
241
241
241
241
240
240
240
240
240
240
240
240
240
240
240
240
240
240
240
240
240
240
240
240
240
240
240
240
240
240
240
240
240
240
240
240
240
240
240
240
240
240
240
240
240
240
240
240
240
240
240
240
240
240
240
240
240
240
247
247
247
248
248
248
248
248
248
249
249
249
250
250
250
251
251
251
251
251
251
252
252
252
249
249
249
250
250
250
250
250
250
250
250
250
251
251
251
251
251
251
251
251
251
252
252
252
254
254
254
254
254
254
253
253
253
253
253
253
253
253
253
252
252
252
252
252
252
252
252
252
250
250
250
250
250
250
250
250
250
250
250
250
250
250
250
250
250
250
250
250
250
250
250
250
251
251
251
251
251
251
251
251
251
252
252
252
252
252
252
252
252
252
253
253
253
253
253
253
250
250
250
250
250
250
250
250
250
250
250
250
250
250
250
250
250
250
250
250
250
250
250
250
250
250
250
250
250
250
250
250
250
250
250
250
250
250
250
250
250
250
250
250
250
250
250
250
249
249
249
249
249
249
249
249
249
249
249
249
248
248
248
248
248
248
247
247
247
247
247
247
247
247
247
247
247
247
247
247
247
247
247
247
247
247
247
247
247
247
247
247
247
247
247
247
247
247
247
247
247
247
248
248
248
248
248
248
248
248
248
249
249
249
249
249
249
249
249
249
248
248
248
248
248
248
248
248
248
247
247
247
247
247
247
247
247
247
246
246
246
246
246
246
247
247
247
247
247
247
247
247
247
247
247
247
247
247
247
247
247
247
247
247
247
247
247
247
248
248
248
248
248
248
248
248
248
248
248
248
248
248
248
248
248
248
248
248
248
248
248
248
248
248
248
248
248
248
248
248
248
248
248
248
248
248
248
248
248
248
248
248
248
248
248
248
248
248
248
248
248
248
248
248
248
248
248
248
248
248
248
248
248
248
248
248
248
248
248
248
247
247
247
247
247
247
247
247
247
247
247
247
247
247
247
247
247
247
247
247
247
247
247
247
246
246
246
246
246
246
246
246
246
246
246
246
246
246
246
246
246
246
246
246
246
246
246
246
247
247
247
247
247
247
247
247
247
247
247
247
247
247
247
247
247
247
247
247
247
247
247
247
246
246
246
246
246
246
246
246
246
246
246
246
246
246
246
246
246
246
246
246
246
246
246
246
247
247
247
247
247
247
247
247
247
246
246
246
246
246
246
246
246
246
245
245
245
245
245
245
244
244
244
244
244
244
244
244
244
245
245
245
245
245
245
246
246
246
246
246
246
246
246
246
245
245
245
245
245
245
246
246
246
246
246
246
246
246
246
247
247
247
247
247
247
247
247
247
248
248
248
248
248
248
248
248
248
247
247
247
247
247
247
247
247
247
246
246
246
246
246
246
249
249
249
249
249
249
249
249
249
248
248
248
248
248
248
248
248
248
247
247
247
247
247
247
248
248
248
248
248
248
247
247
247
247
247
247
246
246
246
245
245
245
244
244
244
244
244
244
243
243
243
243
243
243
242
242
242
242
242
242
242
242
242
241
241
241
241
241
241
241
241
241
240
240
240
240
240
240
240
240
240
240
240
240
240
240
240
240
240
240
240
240
240
240
240
240
240
240
240
240
240
240
240
240
240
240
240
240
240
240
240
240
240
240
240
240
240
240
240
240
240
240
240
245
245
245
245
245
245
246
246
246
246
246
246
247
247
247
248
248
248
248
248
248
249
249
249
249
249
249
249
249
249
250
250
250
250
250
250
250
250
250
251
251
251
251
251
251
251
251
251
251
251
251
251
251
251
251
251
251
250
250
250
250
250
250
250
250
250
249
249
249
249
249
249
250
250
250
250
250
250
250
250
250
250
250
250
250
250
250
250
250
250
250
250
250
250
250
250
251
251
251
251
251
251
251
251
251
252
252
252
252
252
252
252
252
252
253
253
253
253
253
253
250
250
250
250
250
250
250
250
250
250
250
250
250
250
250
250
250
250
250
250
250
250
250
250
250
250
250
250
250
250
250
250
250
250
250
250
250
250
250
250
250
250
250
250
250
250
250
250
249
249
249
249
249
249
249
249
249
249
249
249
248
248
248
248
248
248
247
247
247
247
247
247
247
247
247
247
247
247
247
247
247
247
247
247
247
247
247
247
247
247
247
247
247
247
247
247
247
247
247
247
247
247
247
247
247
248
248
248
248
248
248
249
249
249
249
249
249
249
249
249
248
248
248
248
248
248
248
248
248
247
247
247
247
247
247
247
247
247
246
246
246
246
246
246
247
247
247
247
247
247
247
247
247
247
247
247
247
247
247
247
247
247
247
247
247
247
247
247
248
248
248
248
248
248
248
248
248
248
248
248
248
248
248
248
248
248
248
248
248
248
248
248
248
248
248
248
248
248
248
248
248
248
248
248
248
248
248
248
248
248
248
248
248
248
248
248
248
248
248
248
248
248
248
248
248
248
248
248
248
248
248
248
248
248
248
248
248
248
248
248
247
247
247
247
247
247
247
247
247
247
247
247
247
247
247
247
247
247
247
247
247
247
247
247
246
246
246
246
246
246
246
246
246
246
246
246
246
246
246
246
246
246
246
246
246
246
246
246
247
247
247
247
247
247
247
247
247
247
247
247
247
247
247
247
247
247
247
247
247
247
247
247
247
247
247
247
247
247
247
247
247
247
247
247
247
247
247
247
247
247
247
247
247
247
247
247
247
247
247
247
247
247
247
247
247
246
246
246
246
246
246
246
246
246
245
245
245
245
245
245
244
244
244
244
244
244
244
244
244
245
245
245
245
245
245
246
246
246
246
246
246
246
246
246
245
245
245
245
245
245
246
246
246
246
246
246
246
246
246
247
247
247
247
247
247
247
247
247
248
248
248
248
248
248
248
248
248
247
247
247
247
247
247
247
247
247
246
246
246
246
246
246
249
249
249
249
249
249
249
249
249
248
248
248
248
248
248
247
247
247
247
247
247
247
247
247
248
248
248
248
248
248
247
247
247
247
247
247
246
246
246
245
245
245
244
244
244
244
244
244
243
243
243
243
243
243
243
243
243
242
242
242
242
242
242
241
241
241
241
241
241
241
241
241
240
240
240
240
240
240
240
240
240
240
240
240
240
240
240
240
240
240
240
240
240
240
240
240
240
240
240
240
240
240
240
240
240
240
240
240
240
240
240
240
240
240
240
240
240
240
240
240
240
240
240
242
242
242
243
243
243
243
243
243
244
244
244
245
245
245
246
246
246
246
246
246
247
247
247
249
249
249
249
249
249
249
249
249
250
250
250
250
250
250
250
250
250
251
251
251
251
251
251
249
249
249
249
249
249
249
249
249
248
248
248
248
248
248
247
247
247
247
247
247
247
247
247
250
250
250
250
250
250
250
250
250
250
250
250
250
250
250
250
250
250
250
250
250
250
250
250
251
251
251
251
251
251
251
251
251
252
252
252
252
252
252
252
252
252
253
253
253
253
253
253
250
250
250
250
250
250
250
250
250
250
250
250
250
250
250
250
250
250
250
250
250
250
250
250
250
250
250
250
250
250
250
250
250
250
250
250
250
250
250
250
250
250
250
250
250
250
250
250
249
249
249
249
249
249
249
249
249
249
249
249
248
248
248
248
248
248
247
247
247
247
247
247
247
247
247
247
247
247
247
247
247
247
247
247
247
247
247
247
247
247
247
247
247
247
247
247
246
246
246
247
247
247
247
247
247
247
247
247
248
248
248
248
248
248
248
248
248
249
249
249
248
248
248
248
248
248
248
248
248
247
247
247
247
247
247
247
247
247
246
246
246
246
246
246
247
247
247
247
247
247
247
247
247
247
247
247
247
247
247
247
247
247
247
247
247
247
247
247
248
248
248
248
248
248
248
248
248
248
248
248
248
248
248
248
248
248
248
248
248
248
248
248
247
247
247
247
247
247
247
247
247
247
247
247
247
247
247
247
247
247
247
247
247
247
247
247
247
247
247
247
247
247
247
247
247
247
247
247
247
247
247
247
247
247
247
247
247
247
247
247
247
247
247
247
247
247
247
247
247
247
247
247
247
247
247
247
247
247
247
247
247
247
247
247
246
246
246
246
246
246
246
246
246
246
246
246
246
246
246
246
246
246
246
246
246
246
246
246
247
247
247
247
247
247
247
247
247
247
247
247
247
247
247
247
247
247
247
247
247
247
247
247
247
247
247
247
247
247
247
247
247
247
247
247
247
247
247
247
247
247
247
247
247
247
247
247
247
247
247
247
247
247
247
247
247
246
246
246
246
246
246
246
246
246
245
245
245
245
245
245
244
244
244
244
244
244
244
244
244
245
245
245
245
245
245
246
246
246
246
246
246
246
246
246
245
245
245
245
245
245
246
246
246
246
246
246
246
246
246
247
247
247
247
247
247
247
247
247
248
248
248
248
248
248
248
248
248
247
247
247
247
247
247
247
247
247
246
246
246
246
246
246
249
249
249
248
248
248
248
248
248
248
248
248
247
247
247
247
247
247
247
247
247
246
246
246
248
248
248
248
248
248
247
247
247
247
247
247
246
246
246
245
245
245
244
244
244
244
244
244
244
244
244
243
243
243
243
243
243
243
243
243
242
242
242
242
242
242
242
242
242
241
241
241
240
240
240
240
240
240
240
240
240
240
240
240
240
240
240
240
240
240
240
240
240
240
240
240
240
240
240
240
240
240
240
240
240
240
240
240
240
240
240
240
240
240
240
240
240
240
240
240
240
240
240
242
242
242
242
242
242
243
243
243
244
244
244
244
244
244
245
245
245
246
246
246
246
246
246
248
248
248
248
248
248
249
249
249
249
249
249
249
249
249
250
250
250
250
250
250
250
250
250
248
248
248
248
248
248
248
248
248
248
248
248
247
247
247
247
247
247
247
247
247
246
246
246
250
250
250
250
250
250
250
250
250
250
250
250
250
250
250
250
250
250
250
250
250
250
250
250
251
251
251
251
251
251
251
251
251
252
252
252
252
252
252
252
252
252
253
253
253
253
253
253
250
250
250
250
250
250
250
250
250
250
250
250
250
250
250
250
250
250
250
250
250
250
250
250
250
250
250
250
250
250
250
250
250
250
250
250
250
250
250
250
250
250
250
250
250
250
250
250
249
249
249
249
249
249
249
249
249
249
249
249
248
248
248
248
248
248
247
247
247
247
247
247
247
247
247
247
247
247
247
247
247
247
247
247
247
247
247
247
247
247
247
247
247
247
247
247
246
246
246
246
246
246
246
246
246
247
247
247
247
247
247
248
248
248
248
248
248
248
248
248
248
248
248
248
248
248
248
248
248
247
247
247
247
247
247
247
247
247
246
246
246
246
246
246
247
247
247
247
247
247
247
247
247
247
247
247
247
247
247
247
247
247
247
247
247
247
247
247
248
248
248
248
248
248
248
248
248
248
248
248
248
248
248
248
248
248
248
248
248
248
248
248
247
247
247
247
247
247
247
247
247
247
247
247
247
247
247
247
247
247
247
247
247
247
247
247
247
247
247
247
247
247
247
247
247
247
247
247
247
247
247
247
247
247
247
247
247
247
247
247
247
247
247
247
247
247
247
247
247
247
247
247
247
247
247
247
247
247
247
247
247
247
247
247
246
246
246
246
246
246
246
246
246
246
246
246
246
246
246
246
246
246
246
246
246
246
246
246
247
247
247
247
247
247
247
247
247
247
247
247
247
247
247
247
247
247
247
247
247
247
247
247
247
247
247
247
247
247
247
247
247
247
247
247
247
247
247
247
247
247
247
247
247
247
247
247
247
247
247
247
247
247
247
247
247
246
246
246
246
246
246
246
246
246
245
245
245
245
245
245
244
244
244
244
244
244
244
244
244
245
245
245
245
245
245
246
246
246
246
246
246
246
246
246
245
245
245
245
245
245
246
246
246
246
246
246
246
246
246
247
247
247
247
247
247
247
247
247
248
248
248
248
248
248
248
248
248
247
247
247
247
247
247
247
247
247
246
246
246
246
246
246
248
248
248
248
248
248
248
248
248
247
247
247
247
247
247
246
246
246
246
246
246
246
246
246
248
248
248
248
248
248
247
247
247
247
247
247
246
246
246
245
245
245
244
244
244
244
244
244
244
244
244
244
244
244
244
244
244
243
243
243
243
243
243
242
242
242
242
242
242
242
242
242
240
240
240
240
240
240
240
240
240
240
240
240
240
240
240
240
240
240
240
240
240
240
240
240
240
240
240
240
240
240
240
240
240
240
240
240
240
240
240
240
240
240
240
240
240
240
240
240
240
240
240
243
243
243
244
244
244
244
244
244
245
245
245
246
246
246
247
247
247
247
247
247
247
247
247
248
248
248
248
248
248
248
248
248
249
249
249
249
249
249
249
249
249
250
250
250
250
250
250
250
250
250
250
250
250
249
249
249
249
249
249
249
249
249
248
248
248
248
248
248
248
248
248
250
250
250
250
250
250
250
250
250
250
250
250
250
250
250
250
250
250
250
250
250
250
250
250
251
251
251
251
251
251
251
251
251
252
252
252
252
252
252
252
252
252
253
253
253
253
253
253
250
250
250
250
250
250
250
250
250
250
250
250
250
250
250
250
250
250
250
250
250
250
250
250
250
250
250
250
250
250
250
250
250
250
250
250
250
250
250
250
250
250
250
250
250
250
250
250
249
249
249
249
249
249
249
249
249
249
249
249
248
248
248
248
248
248
247
247
247
247
247
247
247
247
247
247
247
247
247
247
247
247
247
247
247
247
247
247
247
247
247
247
247
247
247
247
246
246
246
246
246
246
246
246
246
246
246
246
247
247
247
247
247
247
247
247
247
248
248
248
248
248
248
248
248
248
248
248
248
247
247
247
247
247
247
247
247
247
246
246
246
246
246
246
247
247
247
247
247
247
247
247
247
247
247
247
247
247
247
247
247
247
247
247
247
247
247
247
248
248
248
248
248
248
248
248
248
248
248
248
248
248
248
248
248
248
248
248
248
248
248
248
247
247
247
247
247
247
247
247
247
247
247
247
247
247
247
247
247
247
247
247
247
247
247
247
247
247
247
247
247
247
247
247
247
247
247
247
247
247
247
247
247
247
247
247
247
247
247
247
247
247
247
247
247
247
247
247
247
247
247
247
247
247
247
247
247
247
247
247
247
247
247
247
246
246
246
246
246
246
246
246
246
246
246
246
246
246
246
246
246
246
246
246
246
246
246
246
247
247
247
247
247
247
247
247
247
247
247
247
247
247
247
247
247
247
247
247
247
247
247
247
248
248
248
248
248
248
248
248
248
248
248
248
248
248
248
248
248
248
248
248
248
248
248
248
247
247
247
247
247
247
247
247
247
246
246
246
246
246
246
246
246
246
245
245
245
245
245
245
244
244
244
244
244
244
244
244
244
245
245
245
245
245
245
246
246
246
246
246
246
246
246
246
245
245
245
245
245
245
246
246
246
246
246
246
246
246
246
247
247
247
247
247
247
247
247
247
248
248
248
248
248
248
248
248
248
247
247
247
247
247
247
247
247
247
246
246
246
246
246
246
248
248
248
247
247
247
247
247
247
247
247
247
246
246
246
246
246
246
246
246
246
246
246
246
248
248
248
248
248
248
247
247
247
247
247
247
246
246
246
245
245
245
244
244
244
244
244
244
244
244
244
244
244
244
244
244
244
244
244
244
243
243
243
243
243
243
243
243
243
242
242
242
240
240
240
240
240
240
240
240
240
240
240
240
240
240
240
240
240
240
240
240
240
240
240
240
240
240
240
240
240
240
240
240
240
240
240
240
240
240
240
240
240
240
240
240
240
240
240
240
240
240
240
245
245
245
246
246
246
246
246
246
247
247
247
248
248
248
249
249
249
249
249
249
250
250
250
247
247
247
248
248
248
248
248
248
248
248
248
249
249
249
249
249
249
249
249
249
250
250
250
252
252
252
252
252
252
251
251
251
251
251
251
251
251
251
250
250
250
250
250
250
250
250
250
250
250
250
250
250
250
250
250
250
250
250
250
250
250
250
250
250
250
250
250
250
250
250
250
251
251
251
251
251
251
251
251
251
252
252
252
252
252
252
252
252
252
253
253
253
253
253
253
250
250
250
250
250
250
250
250
250
250
250
250
250
250
250
250
250
250
250
250
250
250
250
250
250
250
250
250
250
250
250
250
250
250
250
250
250
250
250
250
250
250
250
250
250
250
250
250
249
249
249
249
249
249
249
249
249
249
249
249
248
248
248
248
248
248
247
247
247
247
247
247
247
247
247
247
247
247
247
247
247
247
247
247
247
247
247
247
247
247
247
247
247
247
247
247
245
245
245
245
245
245
246
246
246
246
246
246
246
246
246
247
247
247
247
247
247
247
247
247
248
248
248
248
248
248
248
248
248
247
247
247
247
247
247
247
247
247
246
246
246
246
246
246
247
247
247
247
247
247
247
247
247
247
247
247
247
247
247
247
247
247
247
247
247
247
247
247
248
248
248
248
248
248
248
248
248
248
248
248
248
248
248
248
248
248
248
248
248
248
248
248
246
246
246
246
246
246
246
246
246
246
246
246
246
246
246
246
246
246
246
246
246
246
246
246
246
246
246
246
246
246
246
246
246
246
246
246
246
246
246
246
246
246
246
246
246
246
246
246
247
247
247
247
247
247
247
247
247
247
247
247
247
247
247
247
247
247
247
247
247
247
247
247
246
246
246
246
246
246
246
246
246
246
246
246
246
246
246
246
246
246
246
246
246
246
246
246
247
247
247
247
247
247
247
247
247
247
247
247
247
247
247
247
247
247
247
247
247
247
247
247
248
248
248
248
248
248
248
248
248
248
248
248
248
248
248
248
248
248
248
248
248
248
248
248
247
247
247
247
247
247
247
247
247
246
246
246
246
246
246
246
246
246
245
245
245
245
245
245
244
244
244
244
244
244
244
244
244
245
245
245
245
245
245
246
246
246
246
246
246
246
246
246
245
245
245
245
245
245
246
246
246
246
246
246
246
246
246
247
247
247
247
247
247
247
247
247
248
248
248
248
248
248
248
248
248
247
247
247
247
247
247
247
247
247
246
246
246
246
246
246
247
247
247
247
247
247
247
247
247
246
246
246
246
246
246
246
246
246
245
245
245
245
245
245
248
248
248
248
248
248
247
247
247
247
247
247
246
246
246
245
245
245
244
244
244
244
244
244
245
245
245
245
245
245
244
244
244
244
244
244
244
244
244
243
243
243
243
243
243
243
243
243
240
240
240
240
240
240
240
240
240
240
240
240
240
240
240
240
240
240
240
240
240
240
240
240
240
240
240
240
240
240
240
240
240
240
240
240
240
240
240
240
240
240
240
240
240
240
240
240
240
240
240
247
247
247
247
247
247
248
248
248
249
249
249
249
249
249
250
250
250
251
251
251
251
251
251
247
247
247
247
247
247
248
248
248
248
248
248
248
248
248
249
249
249
249
249
249
249
249
249
253
253
253
253
253
253
253
253
253
253
253
253
252
252
252
252
252
252
251
251
251
251
251
251
250
250
250
250
250
250
250
250
250
250
250
250
250
250
250
250
250
250
250
250
250
250
250
250
251
251
251
251
251
251
251
251
251
252
252
252
252
252
252
252
252
252
253
253
253
253
253
253
250
250
250
250
250
250
250
250
250
250
250
250
250
250
250
250
250
250
250
250
250
250
250
250
250
250
250
250
250
250
250
250
250
250
250
250
250
250
250
250
250
250
250
250
250
250
250
250
249
249
249
249
249
249
249
249
249
249
249
249
248
248
248
248
248
248
247
247
247
247
247
247
247
247
247
247
247
247
247
247
247
247
247
247
247
247
247
247
247
247
247
247
247
247
247
247
245
245
245
245
245
245
245
245
245
246
246
246
246
246
246
247
247
247
247
247
247
247
247
247
248
248
248
248
248
248
248
248
248
247
247
247
247
247
247
247
247
247
246
246
246
246
246
246
247
247
247
247
247
247
247
247
247
247
247
247
247
247
247
247
247
247
247
247
247
247
247
247
248
248
248
248
248
248
248
248
248
248
248
248
248
248
248
248
248
248
248
248
248
248
248
248
246
246
246
246
246
246
246
246
246
246
246
246
246
246
246
246
246
246
246
246
246
246
246
246
246
246
246
246
246
246
246
246
246
246
246
246
246
246
246
246
246
246
246
246
246
246
246
246
247
247
247
247
247
247
247
247
247
247
247
247
247
247
247
247
247
247
247
247
247
247
247
247
246
246
246
246
246
246
246
246
246
246
246
246
246
246
246
246
246
246
246
246
246
246
246
246
247
247
247
247
247
247
247
247
247
247
247
247
247
247
247
247
247
247
247
247
247
247
247
247
248
248
248
248
248
248
248
248
248
248
248
248
248
248
248
248
248
248
248
248
248
248
248
248
247
247
247
247
247
247
247
247
247
246
246
246
246
246
246
246
246
246
245
245
245
245
245
245
244
244
244
244
244
244
244
244
244
245
245
245
245
245
245
246
246
246
246
246
246
246
246
246
245
245
245
245
245
245
246
246
246
246
246
246
246
246
246
247
247
247
247
247
247
247
247
247
248
248
248
248
248
248
248
248
248
247
247
247
247
247
247
247
247
247
246
246
246
246
246
246
247
247
247
247
247
247
247
247
247
246
246
246
246
246
246
245
245
245
245
245
245
245
245
245
248
248
248
248
248
248
247
247
247
247
247
247
246
246
246
245
245
245
244
244
244
244
244
244
245
245
245
245
245
245
245
245
245
244
244
244
244
244
244
243
243
243
243
243
243
243
243
243
240
240
240
240
240
240
240
240
240
240
240
240
240
240
240
240
240
240
240
240
240
240
240
240
240
240
240
240
240
240
240
240
240
240
240
240
240
240
240
240
240
240
240
240
240
240
240
240
240
240
240
249
249
249
249
249
249
249
249
249
248
248
248
248
248
248
248
248
248
247
247
247
247
247
247
251
251
251
251
251
251
251
251
251
251
251
251
251
251
251
251
251
251
251
251
251
251
251
251
250
250
250
250
250
250
250
250
250
250
250
250
251
251
251
251
251
251
252
252
252
252
252
252
252
252
252
252
252
252
252
252
252
252
252
252
252
252
252
252
252
252
252
252
252
252
252
252
252
252
252
252
252
252
252
252
252
252
252
252
252
252
252
252
252
252
252
252
252
252
252
252
251
251
251
251
251
251
251
251
251
251
251
251
251
251
251
251
251
251
251
251
251
251
251
251
250
250
250
250
250
250
250
250
250
250
250
250
250
250
250
250
250
250
250
250
250
250
250
250
248
248
248
248
248
248
248
248
248
247
247
247
247
247
247
247
247
247
246
246
246
246
246
246
248
248
248
248
248
248
248
248
248
248
248
248
248
248
248
248
248
248
248
248
248
248
248
248
245
245
245
245
245
245
246
246
246
246
246
246
246
246
246
247
247
247
247
247
247
247
247
247
246
246
246
246
246
246
246
246
246
246
246
246
246
246
246
246
246
246
246
246
246
246
246
246
246
246
246
246
246
246
246
246
246
246
246
246
246
246
246
246
246
246
246
246
246
246
246
246
247
247
247
247
247
247
247
247
247
247
247
247
247
247
247
247
247
247
247
247
247
247
247
247
246
246
246
246
246
246
246
246
246
246
246
246
246
246
246
246
246
246
246
246
246
246
246
246
245
245
245
245
245
245
246
246
246
246
246
246
246
246
246
247
247
247
247
247
247
247
247
247
248
248
248
248
248
248
248
248
248
247
247
247
247
247
247
247
247
247
246
246
246
246
246
246
247
247
247
247
247
247
247
247
247
247
247
247
247
247
247
247
247
247
247
247
247
247
247
247
246
246
246
246
246
246
246
246
246
246
246
246
246
246
246
246
246
246
246
246
246
246
246
246
246
246
246
246
246
246
246
246
246
246
246
246
246
246
246
246
246
246
246
246
246
246
246
246
246
246
246
246
246
246
246
246
246
246
246
246
246
246
246
246
246
246
246
246
246
246
246
246
246
246
246
246
246
246
246
246
246
245
245
245
245
245
245
244
244
244
244
244
244
244
244
244
245
245
245
245
245
245
245
245
245
245
245
245
245
245
245
245
245
245
245
245
245
245
245
245
247
247
247
247
247
247
247
247
247
247
247
247
247
247
247
247
247
247
247
247
247
247
247
247
244
244
244
244
244
244
245
245
245
246
246
246
246
246
246
247
247
247
248
248
248
248
248
248
248
248
248
248
248
248
247
247
247
246
246
246
244
244
244
243
243
243
242
242
242
242
242
242
245
245
245
245
245
245
245
245
245
244
244
244
244
244
244
243
243
243
243
243
243
243
243
243
240
240
240
240
240
240
240
240
240
240
240
240
240
240
240
240
240
240
240
240
240
240
240
240
240
240
240
240
240
240
240
240
240
240
240
240
240
240
240
240
240
240
240
240
240
240
240
240
240
240
240
250
250
250
249
249
249
249
249
249
249
249
249
248
248
248
248
248
248
248
248
248
247
247
247
251
251
251
251
251
251
251
251
251
251
251
251
251
251
251
251
251
251
251
251
251
251
251
251
250
250
250
250
250
250
250
250
250
250
250
250
251
251
251
251
251
251
252
252
252
252
252
252
252
252
252
252
252
252
252
252
252
252
252
252
252
252
252
252
252
252
252
252
252
252
252
252
252
252
252
252
252
252
252
252
252
252
252
252
252
252
252
252
252
252
252
252
252
252
252
252
251
251
251
251
251
251
251
251
251
251
251
251
251
251
251
251
251
251
251
251
251
251
251
251
249
249
249
249
249
249
249
249
249
249
249
249
249
249
249
249
249
249
249
249
249
249
249
249
248
248
248
248
248
248
248
248
248
247
247
247
247
247
247
247
247
247
246
246
246
246
246
246
248
248
248
248
248
248
248
248
248
248
248
248
248
248
248
248
248
248
248
248
248
248
248
248
245
245
245
245
245
245
246
246
246
246
246
246
246
246
246
247
247
247
247
247
247
247
247
247
246
246
246
246
246
246
246
246
246
246
246
246
246
246
246
246
246
246
246
246
246
246
246
246
246
246
246
246
246
246
246
246
246
246
246
246
246
246
246
246
246
246
246
246
246
246
246
246
247
247
247
247
247
247
247
247
247
247
247
247
247
247
247
247
247
247
247
247
247
247
247
247
246
246
246
246
246
246
246
246
246
246
246
246
246
246
246
246
246
246
246
246
246
246
246
246
245
245
245
245
245
245
246
246
246
246
246
246
246
246
246
247
247
247
247
247
247
247
247
247
248
248
248
248
248
248
248
248
248
247
247
247
247
247
247
247
247
247
246
246
246
246
246
246
247
247
247
247
247
247
247
247
247
247
247
247
247
247
247
247
247
247
247
247
247
247
247
247
246
246
246
246
246
246
246
246
246
246
246
246
246
246
246
246
246
246
246
246
246
246
246
246
246
246
246
246
246
246
246
246
246
246
246
246
246
246
246
246
246
246
246
246
246
246
246
246
246
246
246
246
246
246
246
246
246
246
246
246
246
246
246
246
246
246
246
246
246
246
246
246
246
246
246
246
246
246
246
246
246
245
245
245
245
245
245
244
244
244
244
244
244
244
244
244
245
245
245
245
245
245
245
245
245
245
245
245
245
245
245
245
245
245
245
245
245
245
245
245
247
247
247
247
247
247
247
247
247
247
247
247
247
247
247
247
247
247
247
247
247
247
247
247
244
244
244
244
244
244
245
245
245
246
246
246
247
247
247
247
247
247
248
248
248
248
248
248
248
248
248
248
248
248
247
247
247
246
246
246
244
244
244
243
243
243
242
242
242
242
242
242
245
245
245
245
245
245
244
244
244
244
244
244
244
244
244
243
243
243
243
243
243
243
243
243
240
240
240
240
240
240
240
240
240
240
240
240
240
240
240
240
240
240
240
240
240
240
240
240
240
240
240
240
240
240
240
240
240
240
240
240
240
240
240
240
240
240
240
240
240
240
240
240
240
240
240
250
250
250
250
250
250
249
249
249
249
249
249
249
249
249
248
248
248
248
248
248
248
248
248
251
251
251
251
251
251
251
251
251
251
251
251
251
251
251
251
251
251
251
251
251
251
251
251
250
250
250
250
250
250
250
250
250
250
250
250
251
251
251
251
251
251
252
252
252
252
252
252
251
251
251
251
251
251
251
251
251
251
251
251
251
251
251
251
251
251
251
251
251
251
251
251
251
251
251
251
251
251
251
251
251
251
251
251
251
251
251
251
251
251
251
251
251
251
251
251
250
250
250
250
250
250
250
250
250
250
250
250
250
250
250
250
250
250
250
250
250
250
250
250
249
249
249
249
249
249
249
249
249
249
249
249
249
249
249
249
249
249
249
249
249
249
249
249
248
248
248
248
248
248
248
248
248
247
247
247
247
247
247
247
247
247
246
246
246
246
246
246
248
248
248
248
248
248
248
248
248
248
248
248
248
248
248
248
248
248
248
248
248
248
248
248
245
245
245
245
245
245
246
246
246
246
246
246
246
246
246
247
247
247
247
247
247
247
247
247
246
246
246
246
246
246
246
246
246
246
246
246
246
246
246
246
246
246
246
246
246
246
246
246
246
246
246
246
246
246
246
246
246
246
246
246
246
246
246
246
246
246
246
246
246
246
246
246
247
247
247
247
247
247
247
247
247
247
247
247
247
247
247
247
247
247
247
247
247
247
247
247
246
246
246
246
246
246
246
246
246
246
246
246
246
246
246
246
246
246
246
246
246
246
246
246
245
245
245
245
245
245
246
246
246
246
246
246
246
246
246
247
247
247
247
247
247
247
247
247
248
248
248
248
248
248
248
248
248
247
247
247
247
247
247
247
247
247
246
246
246
246
246
246
247
247
247
247
247
247
247
247
247
247
247
247
247
247
247
247
247
247
247
247
247
247
247
247
246
246
246
246
246
246
246
246
246
246
246
246
246
246
246
246
246
246
246
246
246
246
246
246
247
247
247
247
247
247
247
247
247
247
247
247
247
247
247
247
247
247
247
247
247
247
247
247
246
246
246
246
246
246
246
246
246
246
246
246
246
246
246
246
246
246
246
246
246
246
246
246
246
246
246
246
246
246
246
246
246
245
245
245
245
245
245
244
244
244
244
244
244
244
244
244
245
245
245
245
245
245
245
245
245
245
245
245
245
245
245
245
245
245
245
245
245
245
245
245
247
247
247
247
247
247
247
247
247
247
247
247
247
247
247
247
247
247
247
247
247
247
247
247
244
244
244
245
245
245
245
245
245
246
246
246
247
247
247
248
248
248
248
248
248
249
249
249
248
248
248
248
248
248
247
247
247
246
246
246
244
244
244
243
243
243
242
242
242
242
242
242
244
244
244
244
244
244
244
244
244
244
244
244
243
243
243
243
243
243
243
243
243
242
242
242
240
240
240
240
240
240
240
240
240
240
240
240
240
240
240
240
240
240
240
240
240
240
240
240
240
240
240
240
240
240
240
240
240
240
240
240
240
240
240
240
240
240
240
240
240
240
240
240
240
240
240
250
250
250
250
250
250
250
250
250
249
249
249
249
249
249
249
249
249
248
248
248
248
248
248
251
251
251
251
251
251
251
251
251
251
251
251
251
251
251
251
251
251
251
251
251
251
251
251
250
250
250
250
250
250
250
250
250
250
250
250
251
251
251
251
251
251
252
252
252
252
252
252
251
251
251
251
251
251
251
251
251
251
251
251
251
251
251
251
251
251
251
251
251
251
251
251
251
251
251
251
251
251
251
251
251
251
251
251
251
251
251
251
251
251
251
251
251
251
251
251
250
250
250
250
250
250
250
250
250
250
250
250
250
250
250
250
250
250
250
250
250
250
250
250
249
249
249
249
249
249
249
249
249
249
249
249
249
249
249
249
249
249
249
249
249
249
249
249
248
248
248
248
248
248
248
248
248
247
247
247
247
247
247
247
247
247
246
246
246
246
246
246
247
247
247
247
247
247
247
247
247
247
247
247
247
247
247
247
247
247
247
247
247
247
247
247
245
245
245
245
245
245
246
246
246
246
246
246
246
246
246
247
247
247
247
247
247
247
247
247
246
246
246
246
246
246
246
246
246
246
246
246
246
246
246
246
246
246
246
246
246
246
246
246
246
246
246
246
246
246
246
246
246
246
246
246
246
246
246
246
246
246
246
246
246
246
246
246
247
247
247
247
247
247
247
247
247
247
247
247
247
247
247
247
247
247
247
247
247
247
247
247
246
246
246
246
246
246
246
246
246
246
246
246
246
246
246
246
246
246
246
246
246
246
246
246
245
245
245
245
245
245
246
246
246
246
246
246
246
246
246
247
247
247
247
247
247
247
247
247
248
248
248
248
248
248
248
248
248
247
247
247
247
247
247
247
247
247
246
246
246
246
246
246
246
246
246
246
246
246
246
246
246
246
246
246
246
246
246
246
246
246
246
246
246
246
246
246
246
246
246
246
246
246
246
246
246
246
246
246
246
246
246
246
246
246
246
246
246
246
246
246
247
247
247
247
247
247
247
247
247
247
247
247
247
247
247
247
247
247
247
247
247
247
247
247
246
246
246
246
246
246
246
246
246
246
246
246
246
246
246
246
246
246
246
246
246
246
246
246
246
246
246
246
246
246
246
246
246
245
245
245
245
245
245
244
244
244
244
244
244
244
244
244
245
245
245
245
245
245
245
245
245
245
245
245
245
245
245
245
245
245
245
245
245
245
245
245
246
246
246
246
246
246
246
246
246
246
246
246
246
246
246
246
246
246
246
246
246
246
246
246
245
245
245
245
245
245
246
246
246
247
247
247
247
247
247
248
248
248
249
249
249
249
249
249
248
248
248
248
248
248
247
247
247
246
246
246
244
244
244
243
243
243
242
242
242
242
242
242
244
244
244
244
244
244
244
244
244
243
243
243
243
243
243
242
242
242
242
242
242
242
242
242
240
240
240
240
240
240
240
240
240
240
240
240
240
240
240
240
240
240
240
240
240
240
240
240
240
240
240
240
240
240
240
240
240
240
240
240
240
240
240
240
240
240
240
240
240
240
240
240
240
240
240
251
251
251
251
251
251
250
250
250
250
250
250
250
250
250
249
249
249
249
249
249
249
249
249
251
251
251
251
251
251
251
251
251
251
251
251
251
251
251
251
251
251
251
251
251
251
251
251
250
250
250
250
250
250
250
250
250
250
250
250
251
251
251
251
251
251
252
252
252
252
252
252
250
250
250
250
250
250
250
250
250
250
250
250
250
250
250
250
250
250
250
250
250
250
250
250
250
250
250
250
250
250
250
250
250
250
250
250
250
250
250
250
250
250
250
250
250
250
250
250
249
249
249
249
249
249
249
249
249
249
249
249
249
249
249
249
249
249
249
249
249
249
249
249
248
248
248
248
248
248
248
248
248
248
248
248
248
248
248
248
248
248
248
248
248
248
248
248
248
248
248
248
248
248
248
248
248
247
247
247
247
247
247
247
247
247
246
246
246
246
246
246
247
247
247
247
247
247
247
247
247
247
247
247
247
247
247
247
247
247
247
247
247
247
247
247
245
245
245
245
245
245
246
246
246
246
246
246
246
246
246
247
247
247
247
247
247
247
247
247
246
246
246
246
246
246
246
246
246
246
246
246
246
246
246
246
246
246
246
246
246
246
246
246
246
246
246
246
246
246
246
246
246
246
246
246
246
246
246
246
246
246
246
246
246
246
246
246
247
247
247
247
247
247
247
247
247
247
247
247
247
247
247
247
247
247
247
247
247
247
247
247
246
246
246
246
246
246
246
246
246
246
246
246
246
246
246
246
246
246
246
246
246
246
246
246
245
245
245
245
245
245
246
246
246
246
246
246
246
246
246
247
247
247
247
247
247
247
247
247
248
248
248
248
248
248
248
248
248
247
247
247
247
247
247
247
247
247
246
246
246
246
246
246
246
246
246
246
246
246
246
246
246
246
246
246
246
246
246
246
246
246
246
246
246
246
246
246
246
246
246
246
246
246
246
246
246
246
246
246
246
246
246
246
246
246
246
246
246
246
246
246
247
247
247
247
247
247
247
247
247
247
247
247
247
247
247
247
247
247
247
247
247
247
247
247
246
246
246
246
246
246
246
246
246
246
246
246
246
246
246
246
246
246
246
246
246
246
246
246
246
246
246
246
246
246
246
246
246
245
245
245
245
245
245
244
244
244
244
244
244
244
244
244
245
245
245
245
245
245
245
245
245
245
245
245
245
245
245
245
245
245
245
245
245
245
245
245
246
246
246
246
246
246
246
246
246
246
246
246
246
246
246
246
246
246
246
246
246
246
246
246
245
245
245
246
246
246
246
246
246
247
247
247
248
248
248
249
249
249
249
249
249
250
250
250
248
248
248
248
248
248
247
247
247
246
246
246
244
244
244
243
243
243
242
242
242
242
242
242
244
244
244
243
243
243
243
243
243
243
243
243
242
242
242
242
242
242
242
242
242
241
241
241
240
240
240
240
240
240
240
240
240
240
240
240
240
240
240
240
240
240
240
240
240
240
240
240
240
240
240
240
240
240
240
240
240
240
240
240
240
240
240
240
240
240
240
240
240
240
240
240
240
240
240
251
251
251
251
251
251
251
251
251
250
250
250
250
250
250
250
250
250
249
249
249
249
249
249
251
251
251
251
251
251
251
251
251
251
251
251
251
251
251
251
251
251
251
251
251
251
251
251
250
250
250
250
250
250
250
250
250
250
250
250
251
251
251
251
251
251
252
252
252
252
252
252
250
250
250
250
250
250
250
250
250
250
250
250
250
250
250
250
250
250
250
250
250
250
250
250
250
250
250
250
250
250
250
250
250
250
250
250
250
250
250
250
250
250
250
250
250
250
250
250
249
249
249
249
249
249
249
249
249
249
249
249
249
249
249
249
249
249
249
249
249
249
249
249
248
248
248
248
248
248
248
248
248
248
248
248
248
248
248
248
248
248
248
248
248
248
248
248
248
248
248
248
248
248
248
248
248
247
247
247
247
247
247
247
247
247
246
246
246
246
246
246
247
247
247
247
247
247
247
247
247
247
247
247
247
247
247
247
247
247
247
247
247
247
247
247
245
245
245
245
245
245
246
246
246
246
246
246
246
246
246
247
247
247
247
247
247
247
247
247
246
246
246
246
246
246
246
246
246
246
246
246
246
246
246
246
246
246
246
246
246
246
246
246
246
246
246
246
246
246
246
246
246
246
246
246
246
246
246
246
246
246
246
246
246
246
246
246
247
247
247
247
247
247
247
247
247
247
247
247
247
247
247
247
247
247
247
247
247
247
247
247
246
246
246
246
246
246
246
246
246
246
246
246
246
246
246
246
246
246
246
246
246
246
246
246
245
245
245
245
245
245
246
246
246
246
246
246
246
246
246
247
247
247
247
247
247
247
247
247
248
248
248
248
248
248
248
248
248
247
247
247
247
247
247
247
247
247
246
246
246
246
246
246
245
245
245
245
245
245
245
245
245
245
245
245
245
245
245
245
245
245
245
245
245
245
245
245
246
246
246
246
246
246
246
246
246
246
246
246
246
246
246
246
246
246
246
246
246
246
246
246
248
248
248
248
248
248
248
248
248
248
248
248
248
248
248
248
248
248
248
248
248
248
248
248
246
246
246
246
246
246
246
246
246
246
246
246
246
246
246
246
246
246
246
246
246
246
246
246
246
246
246
246
246
246
246
246
246
245
245
245
245
245
245
244
244
244
244
244
244
244
244
244
245
245
245
245
245
245
245
245
245
245
245
245
245
245
245
245
245
245
245
245
245
245
245
245
245
245
245
245
245
245
245
245
245
245
245
245
245
245
245
245
245
245
245
245
245
245
245
245
246
246
246
246
246
246
247
247
247
248
248
248
248
248
248
249
249
249
250
250
250
250
250
250
248
248
248
248
248
248
247
247
247
246
246
246
244
244
244
243
243
243
242
242
242
242
242
242
243
243
243
243
243
243
243
243
243
242
242
242
242
242
242
241
241
241
241
241
241
241
241
241
240
240
240
240
240
240
240
240
240
240
240
240
240
240
240
240
240
240
240
240
240
240
240
240
240
240
240
240
240
240
240
240
240
240
240
240
240
240
240
240
240
240
240
240
240
240
240
240
240
240
240
252
252
252
251
251
251
251
251
251
251
251
251
250
250
250
250
250
250
250
250
250
249
249
249
251
251
251
251
251
251
251
251
251
251
251
251
251
251
251
251
251
251
251
251
251
251
251
251
250
250
250
250
250
250
250
250
250
250
250
250
251
251
251
251
251
251
252
252
252
252
252
252
250
250
250
250
250
250
250
250
250
250
250
250
250
250
250
250
250
250
250
250
250
250
250
250
250
250
250
250
250
250
250
250
250
250
250
250
250
250
250
250
250
250
250
250
250
250
250
250
248
248
248
248
248
248
248
248
248
248
248
248
248
248
248
248
248
248
248
248
248
248
248
248
247
247
247
247
247
247
247
247
247
247
247
247
247
247
247
247
247
247
247
247
247
247
247
247
248
248
248
248
248
248
248
248
248
247
247
247
247
247
247
247
247
247
246
246
246
246
246
246
246
246
246
246
246
246
246
246
246
246
246
246
246
246
246
246
246
246
246
246
246
246
246
246
245
245
245
245
245
245
246
246
246
246
246
246
246
246
246
247
247
247
247
247
247
247
247
247
246
246
246
246
246
246
246
246
246
246
246
246
246
246
246
246
246
246
246
246
246
246
246
246
246
246
246
246
246
246
246
246
246
246
246
246
246
246
246
246
246
246
246
246
246
246
246
246
247
247
247
247
247
247
247
247
247
247
247
247
247
247
247
247
247
247
247
247
247
247
247
247
246
246
246
246
246
246
246
246
246
246
246
246
246
246
246
246
246
246
246
246
246
246
246
246
245
245
245
245
245
245
246
246
246
246
246
246
246
246
246
247
247
247
247
247
247
247
247
247
248
248
248
248
248
248
248
248
248
247
247
247
247
247
247
247
247
247
246
246
246
246
246
246
245
245
245
245
245
245
245
245
245
245
245
245
245
245
245
245
245
245
245
245
245
245
245
245
246
246
246
246
246
246
246
246
246
246
246
246
246
246
246
246
246
246
246
246
246
246
246
246
248
248
248
248
248
248
248
248
248
248
248
248
248
248
248
248
248
248
248
248
248
248
248
248
246
246
246
246
246
246
246
246
246
246
246
246
246
246
246
246
246
246
246
246
246
246
246
246
246
246
246
246
246
246
246
246
246
245
245
245
245
245
245
244
244
244
244
244
244
244
244
244
245
245
245
245
245
245
245
245
245
245
245
245
245
245
245
245
245
245
245
245
245
245
245
245
245
245
245
245
245
245
245
245
245
245
245
245
245
245
245
245
245
245
245
245
245
245
245
245
246
246
246
247
247
247
247
247
247
248
248
248
249
249
249
249
249
249
250
250
250
250
250
250
248
248
248
248
248
248
247
247
247
246
246
246
244
244
244
243
243
243
242
242
242
242
242
242
243
243
243
243
243
243
242
242
242
242
242
242
242
242
242
241
241
241
241
241
241
241
241
241
240
240
240
240
240
240
240
240
240
240
240
240
240
240
240
240
240
240
240
240
240
240
240
240
240
240
240
240
240
240
240
240
240
240
240
240
240
240
240
240
240
240
240
240
240
240
240
240
240
240
240
252
252
252
252
252
252
251
251
251
251
251
251
251
251
251
250
250
250
250
250
250
250
250
250
251
251
251
251
251
251
251
251
251
251
251
251
251
251
251
251
251
251
251
251
251
251
251
251
250
250
250
250
250
250
250
250
250
250
250
250
251
251
251
251
251
251
252
252
252
252
252
252
249
249
249
249
249
249
249
249
249
249
249
249
249
249
249
249
249
249
249
249
249
249
249
249
249
249
249
249
249
249
249
249
249
249
249
249
249
249
249
249
249
249
249
249
249
249
249
249
248
248
248
248
248
248
248
248
248
248
248
248
248
248
248
248
248
248
248
248
248
248
248
248
247
247
247
247
247
247
247
247
247
247
247
247
247
247
247
247
247
247
247
247
247
247
247
247
248
248
248
248
248
248
248
248
248
247
247
247
247
247
247
247
247
247
246
246
246
246
246
246
246
246
246
246
246
246
246
246
246
246
246
246
246
246
246
246
246
246
246
246
246
246
246
246
245
245
245
245
245
245
246
246
246
246
246
246
246
246
246
247
247
247
247
247
247
247
247
247
246
246
246
246
246
246
246
246
246
246
246
246
246
246
246
246
246
246
246
246
246
246
246
246
246
246
246
246
246
246
246
246
246
246
246
246
246
246
246
246
246
246
246
246
246
246
246
246
247
247
247
247
247
247
247
247
247
247
247
247
247
247
247
247
247
247
247
247
247
247
247
247
246
246
246
246
246
246
246
246
246
246
246
246
246
246
246
246
246
246
246
246
246
246
246
246
245
245
245
245
245
245
246
246
246
246
246
246
246
246
246
247
247
247
247
247
247
247
247
247
248
248
248
248
248
248
248
248
248
247
247
247
247
247
247
247
247
247
246
246
246
246
246
246
245
245
245
245
245
245
245
245
245
245
245
245
245
245
245
245
245
245
245
245
245
245
245
245
246
246
246
246
246
246
246
246
246
246
246
246
246
246
246
246
246
246
246
246
246
246
246
246
248
248
248
248
248
248
248
248
248
248
248
248
248
248
248
248
248
248
248
248
248
248
248
248
246
246
246
246
246
246
246
246
246
246
246
246
246
246
246
246
246
246
246
246
246
246
246
246
246
246
246
246
246
246
246
246
246
245
245
245
245
245
245
244
244
244
244
244
244
244
244
244
245
245
245
245
245
245
245
245
245
245
245
245
245
245
245
245
245
245
245
245
245
245
245
245
245
245
245
245
245
245
245
245
245
245
245
245
245
245
245
245
245
245
245
245
245
245
245
245
246
246
246
247
247
247
247
247
247
248
248
248
249
249
249
250
250
250
250
250
250
251
251
251
248
248
248
248
248
248
247
247
247
246
246
246
244
244
244
243
243
243
242
242
242
242
242
242
243
243
243
242
242
242
242
242
242
242
242
242
241
241
241
241
241
241
241
241
241
240
240
240
240
240
240
240
240
240
240
240
240
240
240
240
240
240
240
240
240
240
240
240
240
240
240
240
240
240
240
240
240
240
240
240
240
240
240
240
240
240
240
240
240
240
240
240
240
240
240
240
240
240
240
251
251
251
251
251
251
251
251
251
251
251
251
251
251
251
251
251
251
251
251
251
251
251
251
252
252
252
252
252
252
252
252
252
252
252
252
252
252
252
252
252
252
252
252
252
252
252
252
250
250
250
250
250
250
250
250
250
250
250
250
251
251
251
251
251
251
252
252
252
252
252
252
252
252
252
252
252
252
251
251
251
251
251
251
250
250
250
250
250
250
250
250
250
250
250
250
251
251
251
251
251
251
251
251
251
251
251
251
251
251
251
251
251
251
251
251
251
251
251
251
253
253
253
251
251
251
248
248
248
247
247
247
247
247
247
248
248
248
251
251
251
253
253
253
246
246
246
246
246
246
246
246
246
246
246
246
246
246
246
246
246
246
246
246
246
246
246
246
247
247
247
247
247
247
247
247
247
246
246
246
246
246
246
246
246
246
245
245
245
245
245
245
246
246
246
246
246
246
246
246
246
246
246
246
246
246
246
246
246
246
246
246
246
246
246
246
244
244
244
244
244
244
244
244
244
245
245
245
245
245
245
246
246
246
246
246
246
246
246
246
244
244
244
244
244
244
244
244
244
244
244
244
244
244
244
244
244
244
244
244
244
244
244
244
245
245
245
245
245
245
246
246
246
246
246
246
246
246
246
247
247
247
247
247
247
247
247
247
246
246
246
246
246
246
246
246
246
246
246
246
246
246
246
246
246
246
246
246
246
246
246
246
246
246
246
246
246
246
246
246
246
246
246
246
246
246
246
246
246
246
246
246
246
246
246
246
247
247
247
247
247
247
247
247
247
247
247
247
247
247
247
247
247
247
247
247
247
247
247
247
246
246
246
246
246
246
246
246
246
246
246
246
246
246
246
246
246
246
246
246
246
246
246
246
245
245
245
245
245
245
245
245
245
245
245
245
245
245
245
245
245
245
245
245
245
245
245
245
247
247
247
247
247
247
247
247
247
246
246
246
246
246
246
246
246
246
245
245
245
245
245
245
247
247
247
248
248
248
248
248
248
248
248
248
249
249
249
249
249
249
249
249
249
250
250
250
247
247
247
247
247
247
247
247
247
247
247
247
247
247
247
247
247
247
247
247
247
247
247
247
249
249
249
249
249
249
249
249
249
249
249
249
249
249
249
249
249
249
249
249
249
249
249
249
244
244
244
244
244
244
244
244
244
244
244
244
244
244
244
244
244
244
244
244
244
244
244
244
245
245
245
245
245
245
245
245
245
245
245
245
245
245
245
245
245
245
245
245
245
245
245
245
247
247
247
247
247
247
247
247
247
247
247
247
247
247
247
247
247
247
247
247
247
247
247
247
246
246
246
246
246
246
245
245
245
244
244
244
243
243
243
243
243
243
242
242
242
242
242
242
245
245
245
245
245
245
245
245
245
245
245
245
245
245
245
245
245
245
245
245
245
245
245
245
240
240
240
240
240
240
240
240
240
240
240
240
240
240
240
240
240
240
240
240
240
240
240
240
240
240
240
240
240
240
240
240
240
240
240
240
240
240
240
240
240
240
240
240
240
240
240
240
239
239
239
251
251
251
251
251
251
251
251
251
251
251
251
251
251
251
251
251
251
251
251
251
251
251
251
252
252
252
252
252
252
252
252
252
252
252
252
252
252
252
252
252
252
252
252
252
252
252
252
250
250
250
250
250
250
250
250
250
250
250
250
251
251
251
251
251
251
252
252
252
252
252
252
252
252
252
252
252
252
251
251
251
251
251
251
250
250
250
250
250
250
250
250
250
250
250
250
251
251
251
251
251
251
251
251
251
251
251
251
251
251
251
251
251
251
251
251
251
251
251
251
252
252
252
251
251
251
248
248
248
246
246
246
246
246
246
248
248
248
251
251
251
252
252
252
246
246
246
246
246
246
246
246
246
246
246
246
246
246
246
246
246
246
246
246
246
246
246
246
247
247
247
247
247
247
247
247
247
246
246
246
246
246
246
246
246
246
245
245
245
245
245
245
246
246
246
246
246
246
246
246
246
246
246
246
246
246
246
246
246
246
246
246
246
246
246
246
244
244
244
244
244
244
244
244
244
245
245
245
245
245
245
246
246
246
246
246
246
246
246
246
244
244
244
244
244
244
244
244
244
244
244
244
244
244
244
244
244
244
244
244
244
244
244
244
245
245
245
245
245
245
245
245
245
246
246
246
246
246
246
247
247
247
247
247
247
247
247
247
246
246
246
246
246
246
246
246
246
246
246
246
246
246
246
246
246
246
246
246
246
246
246
246
246
246
246
246
246
246
246
246
246
246
246
246
246
246
246
246
246
246
246
246
246
246
246
246
247
247
247
247
247
247
247
247
247
247
247
247
247
247
247
247
247
247
247
247
247
247
247
247
246
246
246
246
246
246
246
246
246
246
246
246
246
246
246
246
246
246
246
246
246
246
246
246
245
245
245
245
245
245
245
245
245
245
245
245
245
245
245
245
245
245
245
245
245
245
245
245
247
247
247
247
247
247
247
247
247
246
246
246
246
246
246
246
246
246
245
245
245
245
245
245
247
247
247
247
247
247
248
248
248
248
248
248
248
248
248
249
249
249
249
249
249
249
249
249
247
247
247
247
247
247
247
247
247
247
247
247
247
247
247
247
247
247
247
247
247
247
247
247
248
248
248
248
248
248
248
248
248
248
248
248
248
248
248
248
248
248
248
248
248
248
248
248
244
244
244
244
244
244
244
244
244
244
244
244
244
244
244
244
244
244
244
244
244
244
244
244
245
245
245
245
245
245
245
245
245
245
245
245
245
245
245
245
245
245
245
245
245
245
245
245
247
247
247
247
247
247
247
247
247
247
247
247
247
247
247
247
247
247
247
247
247
247
247
247
246
246
246
246
246
246
245
245
245
244
244
244
243
243
243
243
243
243
242
242
242
242
242
242
245
245
245
245
245
245
245
245
245
245
245
245
245
245
245
245
245
245
245
245
245
245
245
245
240
240
240
240
240
240
240
240
240
240
240
240
240
240
240
240
240
240
240
240
240
240
240
240
240
240
240
240
240
240
240
240
240
240
240
240
240
240
240
240
240
240
240
240
240
240
240
240
239
239
239
251
251
251
251
251
251
251
251
251
251
251
251
251
251
251
251
251
251
251
251
251
251
251
251
251
251
251
251
251
251
251
251
251
251
251
251
251
251
251
251
251
251
251
251
251
251
251
251
250
250
250
250
250
250
250
250
250
250
250
250
251
251
251
251
251
251
252
252
252
252
252
252
252
252
252
252
252
252
251
251
251
251
251
251
250
250
250
250
250
250
250
250
250
250
250
250
250
250
250
250
250
250
250
250
250
250
250
250
250
250
250
250
250
250
250
250
250
250
250
250
252
252
252
250
250
250
248
248
248
246
246
246
246
246
246
248
248
248
250
250
250
252
252
252
246
246
246
246
246
246
246
246
246
246
246
246
246
246
246
246
246
246
246
246
246
246
246
246
247
247
247
247
247
247
247
247
247
246
246
246
246
246
246
246
246
246
245
245
245
245
245
245
246
246
246
246
246
246
246
246
246
246
246
246
246
246
246
246
246
246
246
246
246
246
246
246
244
244
244
244
244
244
244
244
244
245
245
245
245
245
245
246
246
246
246
246
246
246
246
246
244
244
244
244
244
244
244
244
244
244
244
244
244
244
244
244
244
244
244
244
244
244
244
244
245
245
245
245
245
245
245
245
245
245
245
245
246
246
246
246
246
246
247
247
247
247
247
247
246
246
246
246
246
246
246
246
246
246
246
246
246
246
246
246
246
246
246
246
246
246
246
246
246
246
246
246
246
246
246
246
246
246
246
246
246
246
246
246
246
246
246
246
246
246
246
246
247
247
247
247
247
247
247
247
247
247
247
247
247
247
247
247
247
247
247
247
247
247
247
247
246
246
246
246
246
246
246
246
246
246
246
246
246
246
246
246
246
246
246
246
246
246
246
246
245
245
245
245
245
245
245
245
245
245
245
245
245
245
245
245
245
245
245
245
245
245
245
245
247
247
247
247
247
247
247
247
247
246
246
246
246
246
246
246
246
246
245
245
245
245
245
245
247
247
247
247
247
247
247
247
247
248
248
248
248
248
248
249
249
249
249
249
249
249
249
249
247
247
247
247
247
247
247
247
247
247
247
247
247
247
247
247
247
247
247
247
247
247
247
247
247
247
247
247
247
247
247
247
247
247
247
247
247
247
247
247
247
247
247
247
247
247
247
247
244
244
244
244
244
244
244
244
244
244
244
244
244
244
244
244
244
244
244
244
244
244
244
244
245
245
245
245
245
245
245
245
245
245
245
245
245
245
245
245
245
245
245
245
245
245
245
245
247
247
247
247
247
247
247
247
247
247
247
247
247
247
247
247
247
247
247
247
247
247
247
247
246
246
246
246
246
246
245
245
245
244
244
244
243
243
243
243
243
243
242
242
242
242
242
242
245
245
245
245
245
245
245
245
245
245
245
245
245
245
245
245
245
245
245
245
245
245
245
245
240
240
240
240
240
240
240
240
240
240
240
240
240
240
240
240
240
240
240
240
240
240
240
240
240
240
240
240
240
240
240
240
240
240
240
240
240
240
240
240
240
240
240
240
240
240
240
240
239
239
239
251
251
251
251
251
251
251
251
251
251
251
251
251
251
251
251
251
251
251
251
251
251
251
251
251
251
251
251
251
251
251
251
251
251
251
251
251
251
251
251
251
251
251
251
251
251
251
251
250
250
250
250
250
250
250
250
250
250
250
250
251
251
251
251
251
251
252
252
252
252
252
252
252
252
252
252
252
252
251
251
251
251
251
251
250
250
250
250
250
250
250
250
250
250
250
250
250
250
250
250
250
250
250
250
250
250
250
250
250
250
250
250
250
250
250
250
250
250
250
250
252
252
252
250
250
250
247
247
247
246
246
246
246
246
246
247
247
247
250
250
250
252
252
252
246
246
246
246
246
246
246
246
246
246
246
246
246
246
246
246
246
246
246
246
246
246
246
246
247
247
247
247
247
247
247
247
247
246
246
246
246
246
246
246
246
246
245
245
245
245
245
245
246
246
246
246
246
246
246
246
246
246
246
246
246
246
246
246
246
246
246
246
246
246
246
246
244
244
244
244
244
244
244
244
244
245
245
245
245
245
245
246
246
246
246
246
246
246
246
246
245
245
245
245
245
245
245
245
245
245
245
245
245
245
245
245
245
245
245
245
245
245
245
245
244
244
244
244
244
244
245
245
245
245
245
245
245
245
245
246
246
246
246
246
246
246
246
246
246
246
246
246
246
246
246
246
246
246
246
246
246
246
246
246
246
246
246
246
246
246
246
246
246
246
246
246
246
246
246
246
246
246
246
246
246
246
246
246
246
246
246
246
246
246
246
246
247
247
247
247
247
247
247
247
247
247
247
247
247
247
247
247
247
247
247
247
247
247
247
247
246
246
246
246
246
246
246
246
246
246
246
246
246
246
246
246
246
246
246
246
246
246
246
246
245
245
245
245
245
245
245
245
245
245
245
245
245
245
245
245
245
245
245
245
245
245
245
245
247
247
247
247
247
247
247
247
247
246
246
246
246
246
246
246
246
246
245
245
245
245
245
245
246
246
246
247
247
247
247
247
247
247
247
247
248
248
248
248
248
248
248
248
248
249
249
249
246
246
246
246
246
246
246
246
246
246
246
246
246
246
246
246
246
246
246
246
246
246
246
246
247
247
247
247
247
247
247
247
247
247
247
247
247
247
247
247
247
247
247
247
247
247
247
247
244
244
244
244
244
244
244
244
244
244
244
244
244
244
244
244
244
244
244
244
244
244
244
244
245
245
245
245
245
245
245
245
245
245
245
245
245
245
245
245
245
245
245
245
245
245
245
245
246
246
246
246
246
246
246
246
246
246
246
246
246
246
246
246
246
246
246
246
246
246
246
246
246
246
246
246
246
246
245
245
245
244
244
244
243
243
243
243
243
243
242
242
242
242
242
242
244
244
244
244
244
244
244
244
244
244
244
244
244
244
244
244
244
244
244
244
244
244
244
244
240
240
240
240
240
240
240
240
240
240
240
240
240
240
240
240
240
240
240
240
240
240
240
240
240
240
240
240
240
240
240
240
240
240
240
240
240
240
240
240
240
240
240
240
240
240
240
240
239
239
239
251
251
251
251
251
251
251
251
251
251
251
251
251
251
251
251
251
251
251
251
251
251
251
251
250
250
250
250
250
250
250
250
250
250
250
250
250
250
250
250
250
250
250
250
250
250
250
250
250
250
250
250
250
250
250
250
250
250
250
250
251
251
251
251
251
251
252
252
252
252
252
252
252
252
252
252
252
252
251
251
251
251
251
251
250
250
250
250
250
250
250
250
250
250
250
250
249
249
249
249
249
249
249
249
249
249
249
249
249
249
249
249
249
249
249
249
249
249
249
249
251
251
251
249
249
249
247
247
247
245
245
245
245
245
245
247
247
247
249
249
249
251
251
251
246
246
246
246
246
246
246
246
246
246
246
246
246
246
246
246
246
246
246
246
246
246
246
246
247
247
247
247
247
247
247
247
247
246
246
246
246
246
246
246
246
246
245
245
245
245
245
245
246
246
246
246
246
246
246
246
246
246
246
246
246
246
246
246
246
246
246
246
246
246
246
246
244
244
244
244
244
244
244
244
244
245
245
245
245
245
245
246
246
246
246
246
246
246
246
246
245
245
245
245
245
245
245
245
245
245
245
245
245
245
245
245
245
245
245
245
245
245
245
245
244
244
244
244
244
244
244
244
244
245
245
245
245
245
245
245
245
245
246
246
246
246
246
246
246
246
246
246
246
246
246
246
246
246
246
246
246
246
246
246
246
246
246
246
246
246
246
246
246
246
246
246
246
246
246
246
246
246
246
246
246
246
246
246
246
246
246
246
246
246
246
246
247
247
247
247
247
247
247
247
247
247
247
247
247
247
247
247
247
247
247
247
247
247
247
247
246
246
246
246
246
246
246
246
246
246
246
246
246
246
246
246
246
246
246
246
246
246
246
246
245
245
245
245
245
245
245
245
245
245
245
245
245
245
245
245
245
245
245
245
245
245
245
245
247
247
247
247
247
247
247
247
247
246
246
246
246
246
246
246
246
246
245
245
245
245
245
245
246
246
246
246
246
246
246
246
246
247
247
247
247
247
247
248
248
248
248
248
248
248
248
248
246
246
246
246
246
246
246
246
246
246
246
246
246
246
246
246
246
246
246
246
246
246
246
246
246
246
246
246
246
246
246
246
246
246
246
246
246
246
246
246
246
246
246
246
246
246
246
246
244
244
244
244
244
244
244
244
244
244
244
244
244
244
244
244
244
244
244
244
244
244
244
244
245
245
245
245
245
245
245
245
245
245
245
245
245
245
245
245
245
245
245
245
245
245
245
245
246
246
246
246
246
246
246
246
246
246
246
246
246
246
246
246
246
246
246
246
246
246
246
246
246
246
246
246
246
246
245
245
245
244
244
244
243
243
243
243
243
243
242
242
242
242
242
242
244
244
244
244
244
244
244
244
244
244
244
244
244
244
244
244
244
244
244
244
244
244
244
244
240
240
240
240
240
240
240
240
240
240
240
240
240
240
240
240
240
240
240
240
240
240
240
240
240
240
240
240
240
240
240
240
240
240
240
240
240
240
240
240
240
240
240
240
240
240
240
240
239
239
239
251
251
251
251
251
251
251
251
251
251
251
251
251
251
251
251
251
251
251
251
251
251
251
251
250
250
250
250
250
250
250
250
250
250
250
250
250
250
250
250
250
250
250
250
250
250
250
250
250
250
250
250
250
250
250
250
250
250
250
250
251
251
251
251
251
251
252
252
252
252
252
252
252
252
252
252
252
252
251
251
251
251
251
251
250
250
250
250
250
250
250
250
250
250
250
250
249
249
249
249
249
249
249
249
249
249
249
249
249
249
249
249
249
249
249
249
249
249
249
249
251
251
251
249
249
249
246
246
246
245
245
245
245
245
245
246
246
246
249
249
249
251
251
251
246
246
246
246
246
246
246
246
246
246
246
246
246
246
246
246
246
246
246
246
246
246
246
246
247
247
247
247
247
247
247
247
247
246
246
246
246
246
246
246
246
246
245
245
245
245
245
245
246
246
246
246
246
246
246
246
246
246
246
246
246
246
246
246
246
246
246
246
246
246
246
246
244
244
244
244
244
244
244
244
244
245
245
245
245
245
245
246
246
246
246
246
246
246
246
246
246
246
246
246
246
246
246
246
246
246
246
246
246
246
246
246
246
246
246
246
246
246
246
246
243
243
243
243
243
243
244
244
244
244
244
244
245
245
245
245
245
245
245
245
245
245
245
245
246
246
246
246
246
246
246
246
246
246
246
246
246
246
246
246
246
246
246
246
246
246
246
246
246
246
246
246
246
246
246
246
246
246
246
246
246
246
246
246
246
246
246
246
246
246
246
246
247
247
247
247
247
247
247
247
247
247
247
247
247
247
247
247
247
247
247
247
247
247
247
247
246
246
246
246
246
246
246
246
246
246
246
246
246
246
246
246
246
246
246
246
246
246
246
246
245
245
245
245
245
245
245
245
245
245
245
245
245
245
245
245
245
245
245
245
245
245
245
245
247
247
247
247
247
247
247
247
247
246
246
246
246
246
246
246
246
246
245
245
245
245
245
245
246
246
246
246
246
246
246
246
246
246
246
246
247
247
247
247
247
247
247
247
247
248
248
248
245
245
245
245
245
245
245
245
245
245
245
245
245
245
245
245
245
245
245
245
245
245
245
245
245
245
245
245
245
245
245
245
245
245
245
245
245
245
245
245
245
245
245
245
245
245
245
245
244
244
244
244
244
244
244
244
244
244
244
244
244
244
244
244
244
244
244
244
244
244
244
244
245
245
245
245
245
245
245
245
245
245
245
245
245
245
245
245
245
245
245
245
245
245
245
245
245
245
245
245
245
245
245
245
245
245
245
245
245
245
245
245
245
245
245
245
245
245
245
245
246
246
246
246
246
246
245
245
245
244
244
244
243
243
243
243
243
243
242
242
242
242
242
242
243
243
243
243
243
243
243
243
243
243
243
243
243
243
243
243
243
243
243
243
243
243
243
243
240
240
240
240
240
240
240
240
240
240
240
240
240
240
240
240
240
240
240
240
240
240
240
240
240
240
240
240
240
240
240
240
240
240
240
240
240
240
240
240
240
240
240
240
240
240
240
240
239
239
239
251
251
251
251
251
251
251
251
251
251
251
251
251
251
251
251
251
251
251
251
251
251
251
251
250
250
250
250
250
250
250
250
250
250
250
250
250
250
250
250
250
250
250
250
250
250
250
250
250
250
250
250
250
250
250
250
250
250
250
250
251
251
251
251
251
251
252
252
252
252
252
252
252
252
252
252
252
252
251
251
251
251
251
251
250
250
250
250
250
250
250
250
250
250
250
250
248
248
248
248
248
248
248
248
248
248
248
248
248
248
248
248
248
248
248
248
248
248
248
248
250
250
250
249
249
249
246
246
246
244
244
244
244
244
244
246
246
246
249
249
249
250
250
250
246
246
246
246
246
246
246
246
246
246
246
246
246
246
246
246
246
246
246
246
246
246
246
246
247
247
247
247
247
247
247
247
247
246
246
246
246
246
246
246
246
246
245
245
245
245
245
245
246
246
246
246
246
246
246
246
246
246
246
246
246
246
246
246
246
246
246
246
246
246
246
246
244
244
244
244
244
244
244
244
244
245
245
245
245
245
245
246
246
246
246
246
246
246
246
246
246
246
246
246
246
246
246
246
246
246
246
246
246
246
246
246
246
246
246
246
246
246
246
246
243
243
243
243
243
243
243
243
243
244
244
244
244
244
244
245
245
245
245
245
245
245
245
245
246
246
246
246
246
246
246
246
246
246
246
246
246
246
246
246
246
246
246
246
246
246
246
246
246
246
246
246
246
246
246
246
246
246
246
246
246
246
246
246
246
246
246
246
246
246
246
246
247
247
247
247
247
247
247
247
247
247
247
247
247
247
247
247
247
247
247
247
247
247
247
247
246
246
246
246
246
246
246
246
246
246
246
246
246
246
246
246
246
246
246
246
246
246
246
246
245
245
245
245
245
245
245
245
245
245
245
245
245
245
245
245
245
245
245
245
245
245
245
245
247
247
247
247
247
247
247
247
247
246
246
246
246
246
246
246
246
246
245
245
245
245
245
245
245
245
245
245
245
245
246
246
246
246
246
246
246
246
246
247
247
247
247
247
247
247
247
247
245
245
245
245
245
245
245
245
245
245
245
245
245
245
245
245
245
245
245
245
245
245
245
245
244
244
244
244
244
244
244
244
244
244
244
244
244
244
244
244
244
244
244
244
244
244
244
244
244
244
244
244
244
244
244
244
244
244
244
244
244
244
244
244
244
244
244
244
244
244
244
244
245
245
245
245
245
245
245
245
245
245
245
245
245
245
245
245
245
245
245
245
245
245
245
245
245
245
245
245
245
245
245
245
245
245
245
245
245
245
245
245
245
245
245
245
245
245
245
245
246
246
246
246
246
246
245
245
245
244
244
244
243
243
243
243
243
243
242
242
242
242
242
242
243
243
243
243
243
243
243
243
243
243
243
243
243
243
243
243
243
243
243
243
243
243
243
243
240
240
240
240
240
240
240
240
240
240
240
240
240
240
240
240
240
240
240
240
240
240
240
240
240
240
240
240
240
240
240
240
240
240
240
240
240
240
240
240
240
240
240
240
240
240
240
240
239
239
239
251
251
251
251
251
251
251
251
251
251
251
251
251
251
251
251
251
251
251
251
251
251
251
251
249
249
249
249
249
249
249
249
249
249
249
249
249
249
249
249
249
249
249
249
249
249
249
249
250
250
250
250
250
250
250
250
250
250
250
250
251
251
251
251
251
251
252
252
252
252
252
252
252
252
252
252
252
252
251
251
251
251
251
251
250
250
250
250
250
250
250
250
250
250
250
250
248
248
248
248
248
248
248
248
248
248
248
248
248
248
248
248
248
248
248
248
248
248
248
248
250
250
250
248
248
248
246
246
246
244
244
244
244
244
244
246
246
246
248
248
248
250
250
250
246
246
246
246
246
246
246
246
246
246
246
246
246
246
246
246
246
246
246
246
246
246
246
246
247
247
247
247
247
247
247
247
247
246
246
246
246
246
246
246
246
246
245
245
245
245
245
245
246
246
246
246
246
246
246
246
246
246
246
246
246
246
246
246
246
246
246
246
246
246
246
246
244
244
244
244
244
244
244
244
244
245
245
245
245
245
245
246
246
246
246
246
246
246
246
246
246
246
246
246
246
246
246
246
246
246
246
246
246
246
246
246
246
246
246
246
246
246
246
246
243
243
243
243
243
243
243
243
243
244
244
244
244
244
244
244
244
244
245
245
245
245
245
245
246
246
246
246
246
246
246
246
246
246
246
246
246
246
246
246
246
246
246
246
246
246
246
246
246
246
246
246
246
246
246
246
246
246
246
246
246
246
246
246
246
246
246
246
246
246
246
246
247
247
247
247
247
247
247
247
247
247
247
247
247
247
247
247
247
247
247
247
247
247
247
247
246
246
246
246
246
246
246
246
246
246
246
246
246
246
246
246
246
246
246
246
246
246
246
246
245
245
245
245
245
245
245
245
245
245
245
245
245
245
245
245
245
245
245
245
245
245
245
245
247
247
247
247
247
247
247
247
247
246
246
246
246
246
246
246
246
246
245
245
245
245
245
245
245
245
245
245
245
245
245
245
245
246
246
246
246
246
246
247
247
247
247
247
247
247
247
247
245
245
245
245
245
245
245
245
245
245
245
245
245
245
245
245
245
245
245
245
245
245
245
245
244
244
244
244
244
244
244
244
244
244
244
244
244
244
244
244
244
244
244
244
244
244
244
244
244
244
244
244
244
244
244
244
244
244
244
244
244
244
244
244
244
244
244
244
244
244
244
244
245
245
245
245
245
245
245
245
245
245
245
245
245
245
245
245
245
245
245
245
245
245
245
245
245
245
245
245
245
245
245
245
245
245
245
245
245
245
245
245
245
245
245
245
245
245
245
245
246
246
246
246
246
246
245
245
245
244
244
244
243
243
243
243
243
243
242
242
242
242
242
242
243
243
243
243
243
243
243
243
243
243
243
243
243
243
243
243
243
243
243
243
243
243
243
243
240
240
240
240
240
240
240
240
240
240
240
240
240
240
240
240
240
240
240
240
240
240
240
240
240
240
240
240
240
240
240
240
240
240
240
240
240
240
240
240
240
240
240
240
240
240
240
240
239
239
239
250
250
250
250
250
250
250
250
250
251
251
251
251
251
251
251
251
251
252
252
252
252
252
252
251
251
251
251
251
251
251
251
251
251
251
251
251
251
251
251
251
251
251
251
251
251
251
251
251
251
251
251
251
251
251
251
251
251
251
251
251
251
251
251
251
251
251
251
251
251
251
251
251
251
251
250
250
250
250
250
250
250
250
250
249
249
249
249
249
249
249
249
249
248
248
248
247
247
247
247
247
247
248
248
248
248
248
248
249
249
249
249
249
249
249
249
249
249
249
249
248
248
248
248
248
248
248
248
248
248
248
248
248
248
248
248
248
248
248
248
248
248
248
248
246
246
246
246
246
246
246
246
246
245
245
245
245
245
245
244
244
244
244
244
244
244
244
244
247
247
247
247
247
247
246
246
246
245
245
245
245
245
245
244
244
244
243
243
243
243
243
243
245
245
245
245
245
245
245
245
245
245
245
245
245
245
245
245
245
245
245
245
245
245
245
245
243
243
243
243
243
243
243
243
243
244
244
244
244
244
244
245
245
245
245
245
245
245
245
245
246
246
246
246
246
246
246
246
246
245
245
245
245
245
245
244
244
244
244
244
244
244
244
244
244
244
244
244
244
244
243
243
243
243
243
243
243
243
243
242
242
242
242
242
242
242
242
242
244
244
244
244
244
244
244
244
244
245
245
245
245
245
245
246
246
246
246
246
246
246
246
246
245
245
245
245
245
245
246
246
246
246
246
246
247
247
247
248
248
248
248
248
248
248
248
248
242
242
242
244
244
244
247
247
247
249
249
249
248
248
248
245
245
245
242
242
242
239
239
239
246
246
246
246
246
246
246
246
246
245
245
245
245
245
245
244
244
244
244
244
244
244
244
244
245
245
245
245
245
245
245
245
245
245
245
245
245
245
245
245
245
245
245
245
245
245
245
245
244
244
244
244
244
244
244
244
244
245
245
245
245
245
245
246
246
246
246
246
246
246
246
246
246
246
246
246
246
246
246
246
246
246
246
246
246
246
246
246
246
246
246
246
246
246
246
246
245
245
245
245
245
245
245
245
245
245
245
245
245
245
245
245
245
245
245
245
245
245
245
245
243
243
243
243
243
243
243
243
243
243
243
243
243
243
243
243
243
243
243
243
243
243
243
243
244
244
244
244
244
244
244
244
244
244
244
244
244
244
244
244
244
244
244
244
244
244
244
244
245
245
245
245
245
245
245
245
245
245
245
245
245
245
245
245
245
245
245
245
245
245
245
245
245
245
245
245
245
245
245
245
245
245
245
245
245
245
245
245
245
245
245
245
245
245
245
245
246
246
246
246
246
246
245
245
245
244
244
244
243
243
243
243
243
243
242
242
242
242
242
242
244
244
244
244
244
244
243
243
243
243
243
243
243
243
243
242
242
242
242
242
242
242
242
242
243
243
243
243
243
243
242
242
242
242
242
242
241
241
241
241
241
241
241
241
241
241
241
241
242
242
242
242
242
242
242
242
242
242
242
242
242
242
242
242
242
242
242
242
242
242
242
242
240
240
240
249
249
249
250
250
250
250
250
250
250
250
250
251
251
251
251
251
251
251
251
251
252
252
252
251
251
251
251
251
251
251
251
251
251
251
251
251
251
251
251
251
251
251
251
251
251
251
251
251
251
251
251
251
251
251
251
251
251
251
251
251
251
251
251
251
251
251
251
251
251
251
251
251
251
251
250
250
250
250
250
250
250
250
250
249
249
249
249
249
249
249
249
249
248
248
248
247
247
247
247
247
247
248
248
248
248
248
248
249
249
249
249
249
249
249
249
249
249
249
249
248
248
248
248
248
248
248
248
248
248
248
248
248
248
248
248
248
248
248
248
248
248
248
248
246
246
246
246
246
246
246
246
246
245
245
245
245
245
245
244
244
244
244
244
244
244
244
244
247
247
247
247
247
247
246
246
246
245
245
245
245
245
245
244
244
244
243
243
243
243
243
243
245
245
245
245
245
245
245
245
245
245
245
245
245
245
245
245
245
245
245
245
245
245
245
245
243
243
243
243
243
243
243
243
243
244
244
244
244
244
244
244
244
244
245
245
245
245
245
245
246
246
246
246
246
246
245
245
245
245
245
245
245
245
245
244
244
244
244
244
244
244
244
244
244
244
244
244
244
244
243
243
243
243
243
243
243
243
243
242
242
242
242
242
242
242
242
242
244
244
244
244
244
244
244
244
244
245
245
245
245
245
245
246
246
246
246
246
246
246
246
246
247
247
247
246
246
246
246
246
246
245
245
245
244
244
244
243
243
243
242
242
242
242
242
242
242
242
242
245
245
245
248
248
248
251
251
251
252
252
252
251
251
251
249
249
249
247
247
247
246
246
246
246
246
246
246
246
246
245
245
245
245
245
245
244
244
244
244
244
244
244
244
244
245
245
245
245
245
245
245
245
245
245
245
245
245
245
245
245
245
245
245
245
245
245
245
245
244
244
244
244
244
244
244
244
244
245
245
245
245
245
245
246
246
246
246
246
246
246
246
246
246
246
246
246
246
246
246
246
246
246
246
246
246
246
246
246
246
246
246
246
246
246
246
246
245
245
245
245
245
245
245
245
245
245
245
245
245
245
245
245
245
245
245
245
245
245
245
245
243
243
243
243
243
243
243
243
243
243
243
243
243
243
243
243
243
243
243
243
243
243
243
243
244
244
244
244
244
244
244
244
244
244
244
244
244
244
244
244
244
244
244
244
244
244
244
244
245
245
245
245
245
245
245
245
245
245
245
245
245
245
245
245
245
245
245
245
245
245
245
245
245
245
245
245
245
245
245
245
245
245
245
245
245
245
245
245
245
245
245
245
245
245
245
245
246
246
246
246
246
246
245
245
245
244
244
244
243
243
243
243
243
243
242
242
242
242
242
242
244
244
244
244
244
244
243
243
243
243
243
243
243
243
243
242
242
242
242
242
242
242
242
242
243
243
243
243
243
243
242
242
242
242
242
242
241
241
241
241
241
241
241
241
241
241
241
241
242
242
242
242
242
242
242
242
242
242
242
242
242
242
242
242
242
242
242
242
242
242
242
242
240
240
240
249
249
249
249
249
249
250
250
250
250
250
250
250
250
250
251
251
251
251
251
251
251
251
251
251
251
251
251
251
251
251
251
251
251
251
251
251
251
251
251
251
251
251
251
251
251
251
251
251
251
251
251
251
251
251
251
251
251
251
251
251
251
251
251
251
251
251
251
251
251
251
251
251
251
251
250
250
250
250
250
250
250
250
250
249
249
249
249
249
249
249
249
249
248
248
248
247
247
247
247
247
247
248
248
248
248
248
248
249
249
249
249
249
249
249
249
249
249
249
249
248
248
248
248
248
248
248
248
248
248
248
248
248
248
248
248
248
248
248
248
248
248
248
248
246
246
246
246
246
246
246
246
246
245
245
245
245
245
245
244
244
244
244
244
244
244
244
244
247
247
247
247
247
247
246
246
246
245
245
245
245
245
245
244
244
244
243
243
243
243
243
243
245
245
245
245
245
245
245
245
245
245
245
245
245
245
245
245
245
245
245
245
245
245
245
245
242
242
242
243
243
243
243
243
243
243
243
243
244
244
244
244
244
244
244
244
244
244
244
244
246
246
246
245
245
245
245
245
245
245
245
245
244
244
244
244
244
244
244
244
244
244
244
244
244
244
244
244
244
244
243
243
243
243
243
243
243
243
243
242
242
242
242
242
242
242
242
242
244
244
244
244
244
244
244
244
244
245
245
245
245
245
245
246
246
246
246
246
246
246
246
246
246
246
246
246
246
246
246
246
246
247
247
247
248
248
248
248
248
248
249
249
249
249
249
249
246
246
246
247
247
247
248
248
248
249
249
249
249
249
249
247
247
247
244
244
244
243
243
243
246
246
246
246
246
246
246
246
246
245
245
245
245
245
245
244
244
244
244
244
244
244
244
244
245
245
245
245
245
245
245
245
245
245
245
245
245
245
245
245
245
245
245
245
245
245
245
245
244
244
244
244
244
244
244
244
244
245
245
245
245
245
245
246
246
246
246
246
246
246
246
246
246
246
246
246
246
246
246
246
246
246
246
246
246
246
246
246
246
246
246
246
246
246
246
246
245
245
245
245
245
245
245
245
245
245
245
245
245
245
245
245
245
245
245
245
245
245
245
245
243
243
243
243
243
243
243
243
243
243
243
243
243
243
243
243
243
243
243
243
243
243
243
243
244
244
244
244
244
244
244
244
244
244
244
244
244
244
244
244
244
244
244
244
244
244
244
244
245
245
245
245
245
245
245
245
245
245
245
245
245
245
245
245
245
245
245
245
245
245
245
245
245
245
245
245
245
245
245
245
245
245
245
245
245
245
245
245
245
245
245
245
245
245
245
245
246
246
246
246
246
246
245
245
245
244
244
244
243
243
243
243
243
243
242
242
242
242
242
242
244
244
244
244
244
244
243
243
243
243
243
243
243
243
243
242
242
242
242
242
242
242
242
242
243
243
243
243
243
243
242
242
242
242
242
242
241
241
241
241
241
241
241
241
241
241
241
241
242
242
242
242
242
242
242
242
242
242
242
242
242
242
242
242
242
242
242
242
242
242
242
242
240
240
240
249
249
249
249
249
249
249
249
249
250
250
250
250
250
250
250
250
250
251
251
251
251
251
251
251
251
251
251
251
251
251
251
251
251
251
251
251
251
251
251
251
251
251
251
251
251
251
251
251
251
251
251
251
251
251
251
251
251
251
251
251
251
251
251
251
251
251
251
251
251
251
251
251
251
251
250
250
250
250
250
250
250
250
250
249
249
249
249
249
249
249
249
249
248
248
248
247
247
247
247
247
247
248
248
248
248
248
248
249
249
249
249
249
249
249
249
249
249
249
249
247
247
247
247
247
247
247
247
247
247
247
247
247
247
247
247
247
247
247
247
247
247
247
247
246
246
246
246
246
246
246
246
246
245
245
245
245
245
245
244
244
244
244
244
244
244
244
244
247
247
247
247
247
247
246
246
246
245
245
245
245
245
245
244
244
244
243
243
243
243
243
243
245
245
245
245
245
245
245
245
245
245
245
245
245
245
245
245
245
245
245
245
245
245
245
245
242
242
242
242
242
242
242
242
242
243
243
243
243
243
243
244
244
244
244
244
244
244
244
244
245
245
245
245
245
245
245
245
245
244
244
244
244
244
244
244
244
244
243
243
243
243
243
243
244
244
244
244
244
244
243
243
243
243
243
243
243
243
243
242
242
242
242
242
242
242
242
242
244
244
244
244
244
244
244
244
244
245
245
245
245
245
245
246
246
246
246
246
246
246
246
246
246
246
246
246
246
246
246
246
246
246
246
246
246
246
246
247
247
247
247
247
247
247
247
247
251
251
251
251
251
251
252
252
252
252
252
252
252
252
252
251
251
251
250
250
250
250
250
250
246
246
246
246
246
246
246
246
246
245
245
245
245
245
245
244
244
244
244
244
244
244
244
244
244
244
244
244
244
244
244
244
244
244
244
244
244
244
244
244
244
244
244
244
244
244
244
244
244
244
244
244
244
244
244
244
244
245
245
245
245
245
245
246
246
246
246
246
246
246
246
246
245
245
245
245
245
245
245
245
245
245
245
245
245
245
245
245
245
245
245
245
245
245
245
245
244
244
244
244
244
244
244
244
244
244
244
244
244
244
244
244
244
244
244
244
244
244
244
244
244
244
244
244
244
244
244
244
244
244
244
244
244
244
244
244
244
244
244
244
244
244
244
244
244
244
244
244
244
244
244
244
244
244
244
244
244
244
244
244
244
244
244
244
244
244
244
244
244
244
244
244
244
244
244
244
244
244
244
244
244
244
244
244
244
244
244
244
244
244
244
244
245
245
245
245
245
245
245
245
245
245
245
245
245
245
245
245
245
245
245
245
245
245
245
245
246
246
246
246
246
246
245
245
245
244
244
244
243
243
243
243
243
243
242
242
242
242
242
242
244
244
244
244
244
244
243
243
243
243
243
243
243
243
243
242
242
242
242
242
242
242
242
242
243
243
243
243
243
243
242
242
242
242
242
242
241
241
241
241
241
241
241
241
241
241
241
241
242
242
242
242
242
242
242
242
242
242
242
242
242
242
242
242
242
242
242
242
242
242
242
242
240
240
240
248
248
248
248
248
248
249
249
249
249
249
249
249
249
249
250
250
250
250
250
250
250
250
250
251
251
251
251
251
251
251
251
251
251
251
251
251
251
251
251
251
251
251
251
251
251
251
251
251
251
251
251
251
251
251
251
251
251
251
251
251
251
251
251
251
251
251
251
251
251
251
251
251
251
251
250
250
250
250
250
250
250
250
250
249
249
249
249
249
249
249
249
249
248
248
248
247
247
247
247
247
247
248
248
248
248
248
248
249
249
249
249
249
249
249
249
249
249
249
249
247
247
247
247
247
247
247
247
247
247
247
247
247
247
247
247
247
247
247
247
247
247
247
247
246
246
246
246
246
246
246
246
246
245
245
245
245
245
245
244
244
244
244
244
244
244
244
244
247
247
247
247
247
247
246
246
246
245
245
245
245
245
245
244
244
244
243
243
243
243
243
243
245
245
245
245
245
245
245
245
245
245
245
245
245
245
245
245
245
245
245
245
245
245
245
245
241
241
241
242
242
242
242
242
242
242
242
242
243
243
243
243
243
243
243
243
243
244
244
244
245
245
245
245
245
245
244
244
244
244
244
244
243
243
243
243
243
243
243
243
243
243
243
243
244
244
244
244
244
244
243
243
243
243
243
243
243
243
243
242
242
242
242
242
242
242
242
242
244
244
244
244
244
244
244
244
244
245
245
245
245
245
245
246
246
246
246
246
246
246
246
246
246
246
246
245
245
245
244
244
244
243
243
243
241
241
241
240
240
240
239
239
239
238
238
238
243
243
243
243
243
243
243
243
243
244
244
244
246
246
246
248
248
248
250
250
250
251
251
251
246
246
246
246
246
246
246
246
246
245
245
245
245
245
245
244
244
244
244
244
244
244
244
244
244
244
244
244
244
244
244
244
244
244
244
244
244
244
244
244
244
244
244
244
244
244
244
244
244
244
244
244
244
244
244
244
244
245
245
245
245
245
245
246
246
246
246
246
246
246
246
246
245
245
245
245
245
245
245
245
245
245
245
245
245
245
245
245
245
245
245
245
245
245
245
245
244
244
244
244
244
244
244
244
244
244
244
244
244
244
244
244
244
244
244
244
244
244
244
244
244
244
244
244
244
244
244
244
244
244
244
244
244
244
244
244
244
244
244
244
244
244
244
244
244
244
244
244
244
244
244
244
244
244
244
244
244
244
244
244
244
244
244
244
244
244
244
244
244
244
244
244
244
244
244
244
244
244
244
244
244
244
244
244
244
244
244
244
244
244
244
244
245
245
245
245
245
245
245
245
245
245
245
245
245
245
245
245
245
245
245
245
245
245
245
245
246
246
246
246
246
246
245
245
245
244
244
244
243
243
243
243
243
243
242
242
242
242
242
242
244
244
244
244
244
244
243
243
243
243
243
243
243
243
243
242
242
242
242
242
242
242
242
242
243
243
243
243
243
243
242
242
242
242
242
242
241
241
241
241
241
241
241
241
241
241
241
241
242
242
242
242
242
242
242
242
242
242
242
242
242
242
242
242
242
242
242
242
242
242
242
242
240
240
240
248
248
248
248
248
248
248
248
248
249
249
249
249
249
249
249
249
249
250
250
250
250
250
250
251
251
251
251
251
251
251
251
251
251
251
251
251
251
251
251
251
251
251
251
251
251
251
251
251
251
251
251
251
251
251
251
251
251
251
251
251
251
251
251
251
251
251
251
251
251
251
251
251
251
251
250
250
250
250
250
250
250
250
250
249
249
249
249
249
249
249
249
249
248
248
248
247
247
247
247
247
247
248
248
248
248
248
248
249
249
249
249
249
249
249
249
249
249
249
249
247
247
247
247
247
247
247
247
247
247
247
247
247
247
247
247
247
247
247
247
247
247
247
247
246
246
246
246
246
246
246
246
246
245
245
245
245
245
245
244
244
244
244
244
244
244
244
244
247
247
247
247
247
247
246
246
246
245
245
245
245
245
245
244
244
244
243
243
243
243
243
243
245
245
245
245
245
245
245
245
245
245
245
245
245
245
245
245
245
245
245
245
245
245
245
245
241
241
241
241
241
241
241
241
241
242
242
242
242
242
242
243
243
243
243
243
243
243
243
243
244
244
244
244
244
244
244
244
244
243
243
243
243
243
243
243
243
243
242
242
242
242
242
242
244
244
244
244
244
244
243
243
243
243
243
243
243
243
243
242
242
242
242
242
242
242
242
242
244
244
244
244
244
244
244
244
244
245
245
245
245
245
245
246
246
246
246
246
246
246
246
246
243
243
243
244
244
244
245
245
245
247
247
247
249
249
249
251
251
251
252
252
252
253
253
253
252
252
252
250
250
250
246
246
246
243
243
243
241
241
241
241
241
241
241
241
241
242
242
242
246
246
246
246
246
246
246
246
246
245
245
245
245
245
245
244
244
244
244
244
244
244
244
244
243
243
243
243
243
243
243
243
243
243
243
243
243
243
243
243
243
243
243
243
243
243
243
243
244
244
244
244
244
244
244
244
244
245
245
245
245
245
245
246
246
246
246
246
246
246
246
246
244
244
244
244
244
244
244
244
244
244
244
244
244
244
244
244
244
244
244
244
244
244
244
244
243
243
243
243
243
243
243
243
243
243
243
243
243
243
243
243
243
243
243
243
243
243
243
243
245
245
245
245
245
245
245
245
245
245
245
245
245
245
245
245
245
245
245
245
245
245
245
245
244
244
244
244
244
244
244
244
244
244
244
244
244
244
244
244
244
244
244
244
244
244
244
244
243
243
243
243
243
243
243
243
243
243
243
243
243
243
243
243
243
243
243
243
243
243
243
243
245
245
245
245
245
245
245
245
245
245
245
245
245
245
245
245
245
245
245
245
245
245
245
245
246
246
246
246
246
246
245
245
245
244
244
244
243
243
243
243
243
243
242
242
242
242
242
242
244
244
244
244
244
244
243
243
243
243
243
243
243
243
243
242
242
242
242
242
242
242
242
242
243
243
243
243
243
243
242
242
242
242
242
242
241
241
241
241
241
241
241
241
241
241
241
241
242
242
242
242
242
242
242
242
242
242
242
242
242
242
242
242
242
242
242
242
242
242
242
242
240
240
240
247
247
247
248
248
248
248
248
248
248
248
248
249
249
249
249
249
249
249
249
249
250
250
250
251
251
251
251
251
251
251
251
251
251
251
251
251
251
251
251
251
251
251
251
251
251
251
251
251
251
251
251
251
251
251
251
251
251
251
251
251
251
251
251
251
251
251
251
251
251
251
251
251
251
251
250
250
250
250
250
250
250
250
250
249
249
249
249
249
249
249
249
249
248
248
248
247
247
247
247
247
247
248
248
248
248
248
248
249
249
249
249
249
249
249
249
249
249
249
249
246
246
246
246
246
246
246
246
246
246
246
246
246
246
246
246
246
246
246
246
246
246
246
246
246
246
246
246
246
246
246
246
246
245
245
245
245
245
245
244
244
244
244
244
244
244
244
244
247
247
247
247
247
247
246
246
246
245
245
245
245
245
245
244
244
244
243
243
243
243
243
243
245
245
245
245
245
245
245
245
245
245
245
245
245
245
245
245
245
245
245
245
245
245
245
245
241
241
241
241
241
241
241
241
241
242
242
242
242
242
242
242
242
242
243
243
243
243
243
243
244
244
244
244
244
244
243
243
243
243
243
243
243
243
243
242
242
242
242
242
242
242
242
242
244
244
244
244
244
244
243
243
243
243
243
243
243
243
243
242
242
242
242
242
242
242
242
242
244
244
244
244
244
244
244
244
244
245
245
245
245
245
245
246
246
246
246
246
246
246
246
246
244
244
244
245
245
245
245
245
245
246
246
246
247
247
247
248
248
248
248
248
248
249
249
249
252
252
252
250
250
250
246
246
246
244
244
244
243
243
243
244
244
244
246
246
246
248
248
248
246
246
246
246
246
246
246
246
246
245
245
245
245
245
245
244
244
244
244
244
244
244
244
244
243
243
243
243
243
243
243
243
243
243
243
243
243
243
243
243
243
243
243
243
243
243
243
243
244
244
244
244
244
244
244
244
244
245
245
245
245
245
245
246
246
246
246
246
246
246
246
246
244
244
244
244
244
244
244
244
244
244
244
244
244
244
244
244
244
244
244
244
244
244
244
244
243
243
243
243
243
243
243
243
243
243
243
243
243
243
243
243
243
243
243
243
243
243
243
243
245
245
245
245
245
245
245
245
245
245
245
245
245
245
245
245
245
245
245
245
245
245
245
245
244
244
244
244
244
244
244
244
244
244
244
244
244
244
244
244
244
244
244
244
244
244
244
244
243
243
243
243
243
243
243
243
243
243
243
243
243
243
243
243
243
243
243
243
243
243
243
243
245
245
245
245
245
245
245
245
245
245
245
245
245
245
245
245
245
245
245
245
245
245
245
245
246
246
246
246
246
246
245
245
245
244
244
244
243
243
243
243
243
243
242
242
242
242
242
242
244
244
244
244
244
244
243
243
243
243
243
243
243
243
243
242
242
242
242
242
242
242
242
242
243
243
243
243
243
243
242
242
242
242
242
242
241
241
241
241
241
241
241
241
241
241
241
241
242
242
242
242
242
242
242
242
242
242
242
242
242
242
242
242
242
242
242
242
242
242
242
242
240
240
240
247
247
247
247
247
247
248
248
248
248
248
248
248
248
248
249
249
249
249
249
249
249
249
249
251
251
251
251
251
251
251
251
251
251
251
251
251
251
251
251
251
251
251
251
251
251
251
251
251
251
251
251
251
251
251
251
251
251
251
251
251
251
251
251
251
251
251
251
251
251
251
251
251
251
251
250
250
250
250
250
250
250
250
250
249
249
249
249
249
249
249
249
249
248
248
248
247
247
247
247
247
247
248
248
248
248
248
248
249
249
249
249
249
249
249
249
249
249
249
249
246
246
246
246
246
246
246
246
246
246
246
246
246
246
246
246
246
246
246
246
246
246
246
246
246
246
246
246
246
246
246
246
246
245
245
245
245
245
245
244
244
244
244
244
244
244
244
244
247
247
247
247
247
247
246
246
246
245
245
245
245
245
245
244
244
244
243
243
243
243
243
243
245
245
245
245
245
245
245
245
245
245
245
245
245
245
245
245
245
245
245
245
245
245
245
245
240
240
240
241
241
241
241
241
241
241
241
241
242
242
242
242
242
242
242
242
242
243
243
243
244
244
244
244
244
244
243
243
243
243
243
243
242
242
242
242
242
242
242
242
242
242
242
242
244
244
244
244
244
244
243
243
243
243
243
243
243
243
243
242
242
242
242
242
242
242
242
242
244
244
244
244
244
244
244
244
244
245
245
245
245
245
245
246
246
246
246
246
246
246
246
246
251
251
251
248
248
248
242
242
242
234
234
234
226
226
226
218
218
218
212
212
212
209
209
209
206
206
206
207
207
207
209
209
209
215
215
215
223
223
223
234
234
234
243
243
243
249
249
249
246
246
246
246
246
246
246
246
246
245
245
245
245
245
245
244
244
244
244
244
244
244
244
244
243
243
243
243
243
243
243
243
243
243
243
243
243
243
243
243
243
243
243
243
243
243
243
243
244
244
244
244
244
244
244
244
244
245
245
245
245
245
245
246
246
246
246
246
246
246
246
246
244
244
244
244
244
244
244
244
244
244
244
244
244
244
244
244
244
244
244
244
244
244
244
244
243
243
243
243
243
243
243
243
243
243
243
243
243
243
243
243
243
243
243
243
243
243
243
243
245
245
245
245
245
245
245
245
245
245
245
245
245
245
245
245
245
245
245
245
245
245
245
245
244
244
244
244
244
244
244
244
244
244
244
244
244
244
244
244
244
244
244
244
244
244
244
244
243
243
243
243
243
243
243
243
243
243
243
243
243
243
243
243
243
243
243
243
243
243
243
243
245
245
245
245
245
245
245
245
245
245
245
245
245
245
245
245
245
245
245
245
245
245
245
245
246
246
246
246
246
246
245
245
245
244
244
244
243
243
243
243
243
243
242
242
242
242
242
242
244
244
244
244
244
244
243
243
243
243
243
243
243
243
243
242
242
242
242
242
242
242
242
242
243
243
243
243
243
243
242
242
242
242
242
242
241
241
241
241
241
241
241
241
241
241
241
241
242
242
242
242
242
242
242
242
242
242
242
242
242
242
242
242
242
242
242
242
242
242
242
242
240
240
240
244
244
244
244
244
244
245
245
245
246
246
246
247
247
247
247
247
247
248
248
248
248
248
248
248
248
248
248
248
248
248
248
248
249
249
249
250
250
250
251
251
251
251
251
251
252
252
252
251
251
251
251
251
251
251
251
251
251
251
251
251
251
251
251
251
251
251
251
251
251
251
251
248
248
248
248
248
248
248
248
248
248
248
248
248
248
248
248
248
248
248
248
248
248
248
248
246
246
246
246
246
246
246
246
246
246
246
246
246
246
246
246
246
246
246
246
246
246
246
246
246
246
246
246
246
246
246
246
246
246
246
246
246
246
246
246
246
246
246
246
246
246
246
246
245
245
245
245
245
245
245
245
245
245
245
245
245
245
245
245
245
245
245
245
245
245
245
245
245
245
245
245
245
245
244
244
244
244
244
244
244
244
244
243
243
243
243
243
243
243
243
243
247
247
247
247
247
247
246
246
246
246
246
246
245
245
245
244
244
244
243
243
243
243
243
243
240
240
240
245
245
245
248
248
248
246
246
246
241
241
241
239
239
239
243
243
243
248
248
248
243
243
243
239
239
239
242
242
242
250
250
250
249
249
249
242
242
242
242
242
242
249
249
249
245
251
255
238
245
255
242
250
252
237
243
239
236
242
238
238
243
247
229
231
244
232
233
253
238
240
235
247
249
248
249
248
254
233
231
244
207
203
218
173
166
184
128
121
137
93
86
102
57
51
53
40
34
36
19
13
15
4
0
0
4
0
0
4
0
0
5
0
1
6
0
2
5
0
13
4
0
12
4
0
11
6
0
13
11
3
16
19
11
22
26
18
29
30
23
31
79
80
49
110
109
88
150
147
140
184
182
187
218
216
227
245
243
255
252
252
255
247
248
252
255
248
255
255
250
255
247
245
246
236
237
229
233
239
225
242
250
235
241
252
238
234
246
234
248
248
248
241
241
241
244
244
244
249
249
249
245
245
245
240
240
240
243
243
243
248
248
248
249
249
249
245
245
245
241
241
241
240
240
240
240
240
240
240
240
240
242
242
242
245
245
245
243
243
243
243
243
243
243
243
243
243
243
243
243
243
243
243
243
243
243
243
243
243
243
243
243
243
243
243
243
243
243
243
243
244
244
244
244
244
244
244
244
244
245
245
245
245
245
245
244
244
244
244
244
244
244
244
244
244
244
244
244
244
244
244
244
244
244
244
244
244
244
244
243
243
243
243
243
243
243
243
243
243
243
243
243
243
243
243
243
243
243
243
243
243
243
243
245
245
245
245
245
245
246
246
246
246
246
246
246
246
246
247
247
247
247
247
247
247
247
247
244
244
244
244
244
244
243
243
243
243
243
243
243
243
243
242
242
242
242
242
242
242
242
242
245
245
245
245
245
245
244
244
244
244
244
244
244
244
244
243
243
243
243
243
243
243
243
243
244
244
244
244
244
244
243
243
243
243
243
243
243
243
243
242
242
242
242
242
242
242
242
242
242
242
242
242
242
242
242
242
242
242
242
242
242
242
242
242
242
242
242
242
242
242
242
242
242
242
242
244
244
244
244
244
244
245
245
245
246
246
246
246
246
246
247
247
247
248
248
248
248
248
248
247
247
247
248
248
248
248
248
248
249
249
249
250
250
250
250
250
250
251
251
251
251
251
251
250
250
250
250
250
250
250
250
250
250
250
250
250
250
250
250
250
250
250
250
250
250
250
250
248
248
248
248
248
248
248
248
248
248
248
248
248
248
248
248
248
248
248
248
248
248
248
248
246
246
246
246
246
246
246
246
246
246
246
246
246
246
246
246
246
246
246
246
246
246
246
246
246
246
246
246
246
246
246
246
246
246
246
246
246
246
246
246
246
246
246
246
246
246
246
246
245
245
245
245
245
245
245
245
245
245
245
245
245
245
245
245
245
245
245
245
245
245
245
245
245
245
245
245
245
245
244
244
244
244
244
244
244
244
244
243
243
243
243
243
243
243
243
243
247
247
247
247
247
247
246
246
246
245
245
245
244
244
244
244
244
244
243
243
243
243
243
243
243
243
243
239
239
239
238
238
238
239
239
239
239
239
239
239
239
239
245
245
245
252
252
252
249
249
249
247
247
247
246
246
246
246
246
246
243
243
243
240
240
240
242
242
242
248
248
248
242
241
223
234
234
222
245
244
240
251
249
252
255
254
255
254
254
246
223
224
206
207
210
183
153
154
172
98
98
108
37
40
33
8
11
0
0
4
0
1
3
0
6
5
0
23
21
6
21
22
24
17
18
20
13
14
16
13
15
14
16
18
15
20
22
17
22
24
19
22
25
18
25
29
14
23
27
12
21
25
10
20
24
9
19
23
8
20
24
9
21
25
10
22
26
11
5
0
18
3
0
12
4
1
10
1
1
3
0
0
0
6
7
9
61
62
67
118
121
128
175
170
150
207
201
187
240
235
229
255
249
255
255
248
255
249
244
255
246
242
255
246
242
255
246
246
246
244
244
244
237
237
237
234
234
234
244
244
244
255
255
255
251
251
251
231
231
231
237
237
237
246
246
246
252
252
252
248
248
248
242
242
242
241
241
241
241
241
241
241
241
241
243
243
243
243
243
243
243
243
243
243
243
243
243
243
243
243
243
243
243
243
243
243
243
243
243
243
243
243
243
243
243
243
243
244
244
244
244
244
244
244
244
244
245
245
245
245
245
245
244
244
244
244
244
244
244
244
244
244
244
244
244
244
244
244
244
244
244
244
244
244
244
244
243
243
243
243
243
243
243
243
243
243
243
243
243
243
243
243
243
243
243
243
243
243
243
243
245
245
245
245
245
245
246
246
246
246
246
246
246
246
246
247
247
247
247
247
247
247
247
247
244
244
244
244
244
244
243
243
243
243
243
243
243
243
243
242
242
242
242
242
242
242
242
242
245
245
245
245
245
245
245
245
245
244
244
244
244
244
244
243
243
243
243
243
243
243
243
243
244
244
244
244
244
244
243
243
243
243
243
243
243
243
243
242
242
242
242
242
242
242
242
242
242
242
242
242
242
242
242
242
242
242
242
242
242
242
242
242
242
242
242
242
242
242
242
242
242
242
242
244
244
244
244
244
244
245
245
245
245
245
245
246
246
246
247
247
247
247
247
247
248
248
248
247
247
247
247
247
247
247
247
247
248
248
248
249
249
249
250
250
250
250
250
250
251
251
251
250
250
250
250
250
250
250
250
250
250
250
250
250
250
250
250
250
250
250
250
250
250
250
250
248
248
248
248
248
248
248
248
248
248
248
248
248
248
248
248
248
248
248
248
248
248
248
248
246
246
246
246
246
246
246
246
246
246
246
246
246
246
246
246
246
246
246
246
246
246
246
246
246
246
246
246
246
246
246
246
246
246
246
246
246
246
246
246
246
246
246
246
246
246
246
246
245
245
245
245
245
245
245
245
245
245
245
245
245
245
245
245
245
245
245
245
245
245
245
245
245
245
245
245
245
245
244
244
244
244
244
244
244
244
244
243
243
243
243
243
243
243
243
243
247
247
247
246
246
246
246
246
246
245
245
245
244
244
244
243
243
243
243
243
243
242
242
242
246
246
246
237
237
237
235
235
235
241
241
241
242
242
242
238
238
238
240
240
240
249
249
249
243
243
243
246
246
246
246
246
246
243
243
243
241
241
241
242
242
242
242
242
242
239
239
239
255
248
255
254
241
250
250
239
245
217
206
210
166
157
160
105
96
97
32
26
26
4
0
0
0
6
0
0
4
0
3
4
8
14
11
30
29
24
47
32
28
45
19
14
21
3
0
0
17
20
25
18
22
25
17
21
22
15
20
16
14
19
12
18
24
12
24
30
16
29
36
20
12
16
17
13
17
20
14
17
22
15
18
25
15
18
27
14
16
28
13
15
28
12
14
29
32
24
45
25
19
29
17
17
9
19
20
2
27
30
9
26
30
16
8
10
9
0
0
7
6
0
32
15
2
30
54
44
53
117
110
102
183
177
163
225
221
209
244
239
235
249
243
245
243
243
243
254
254
254
254
254
254
243
243
243
236
236
236
240
240
240
244
244
244
246
246
246
231
231
231
236
236
236
237
237
237
234
234
234
238
238
238
247
247
247
248
248
248
243
243
243
243
243
243
243
243
243
243
243
243
243
243
243
243
243
243
243
243
243
243
243
243
243
243
243
243
243
243
243
243
243
243
243
243
244
244
244
244
244
244
244
244
244
245
245
245
245
245
245
244
244
244
244
244
244
244
244
244
244
244
244
244
244
244
244
244
244
244
244
244
244
244
244
243
243
243
243
243
243
243
243
243
243
243
243
243
243
243
243
243
243
243
243
243
243
243
243
245
245
245
245
245
245
246
246
246
246
246
246
246
246
246
247
247
247
247
247
247
247
247
247
244
244
244
244
244
244
243
243
243
243
243
243
243
243
243
242
242
242
242
242
242
242
242
242
245
245
245
245
245
245
245
245
245
245
245
245
244
244
244
244
244
244
243
243
243
243
243
243
244
244
244
244
244
244
243
243
243
243
243
243
243
243
243
242
242
242
242
242
242
242
242
242
242
242
242
242
242
242
242
242
242
242
242
242
242
242
242
242
242
242
242
242
242
242
242
242
242
242
242
243
243
243
243
243
243
244
244
244
245
245
245
246
246
246
246
246
246
247
247
247
247
247
247
246
246
246
246
246
246
247
247
247
247
247
247
248
248
248
249
249
249
249
249
249
250
250
250
249
249
249
249
249
249
249
249
249
249
249
249
249
249
249
249
249
249
249
249
249
249
249
249
247
247
247
247
247
247
247
247
247
247
247
247
247
247
247
247
247
247
247
247
247
247
247
247
246
246
246
246
246
246
246
246
246
246
246
246
246
246
246
246
246
246
246
246
246
246
246
246
245
245
245
245
245
245
245
245
245
245
245
245
245
245
245
245
245
245
245
245
245
245
245
245
245
245
245
245
245
245
245
245
245
245
245
245
245
245
245
245
245
245
245
245
245
245
245
245
245
245
245
245
245
245
244
244
244
244
244
244
244
244
244
243
243
243
243
243
243
243
243
243
246
246
246
246
246
246
245
245
245
245
245
245
244
244
244
243
243
243
242
242
242
242
242
242
247
247
247
242
242
242
244
244
244
250
250
250
246
246
246
235
235
235
236
236
236
246
246
246
242
242
242
248
248
248
247
247
247
239
239
239
240
240
240
249
249
249
254
254
254
251
251
251
208
202
188
134
127
121
55
45
53
4
0
12
4
0
16
22
15
31
18
13
20
15
11
12
12
10
13
24
24
16
28
27
7
14
14
0
10
8
0
22
14
11
28
16
36
25
11
46
12
0
41
14
0
42
14
0
38
9
0
28
6
0
19
6
0
16
6
0
12
13
2
18
6
0
4
8
0
7
13
3
14
17
6
22
18
6
28
16
3
29
13
0
28
11
0
28
6
0
18
25
13
35
41
30
47
29
21
32
16
11
15
20
17
12
26
26
14
28
29
13
20
23
6
23
24
16
23
23
25
14
11
22
3
0
11
23
21
24
86
86
78
150
148
133
207
207
207
238
238
238
250
250
250
243
243
243
247
247
247
255
255
255
254
254
254
247
247
247
251
251
251
250
250
250
246
246
246
243
243
243
242
242
242
244
244
244
245
245
245
245
245
245
243
243
243
243
243
243
243
243
243
243
243
243
243
243
243
243
243
243
243
243
243
243
243
243
243
243
243
243
243
243
243
243
243
244
244
244
244
244
244
244
244
244
245
245
245
245
245
245
244
244
244
244
244
244
244
244
244
244
244
244
244
244
244
244
244
244
244
244
244
244
244
244
244
244
244
244
244
244
244
244
244
244
244
244
244
244
244
244
244
244
244
244
244
244
244
244
245
245
245
245
245
245
246
246
246
246
246
246
246
246
246
247
247
247
247
247
247
247
247
247
244
244
244
244
244
244
243
243
243
243
243
243
243
243
243
242
242
242
242
242
242
242
242
242
246
246
246
246
246
246
245
245
245
245
245
245
245
245
245
244
244
244
244
244
244
244
244
244
244
244
244
244
244
244
243
243
243
243
243
243
243
243
243
242
242
242
242
242
242
242
242
242
242
242
242
242
242
242
242
242
242
242
242
242
242
242
242
242
242
242
242
242
242
242
242
242
242
242
242
243
243
243
243
243
243
244
244
244
244
244
244
245
245
245
246
246
246
247
247
247
247
247
247
245
245
245
245
245
245
246
246
246
246
246
246
247
247
247
248
248
248
249
249
249
249
249
249
248
248
248
248
248
248
248
248
248
248
248
248
248
248
248
248
248
248
248
248
248
248
248
248
247
247
247
247
247
247
247
247
247
247
247
247
247
247
247
247
247
247
247
247
247
247
247
247
246
246
246
246
246
246
246
246
246
246
246
246
246
246
246
246
246
246
246
246
246
246
246
246
245
245
245
245
245
245
245
245
245
245
245
245
245
245
245
245
245
245
245
245
245
245
245
245
245
245
245
245
245
245
245
245
245
245
245
245
245
245
245
245
245
245
245
245
245
245
245
245
245
245
245
245
245
245
244
244
244
244
244
244
244
244
244
243
243
243
243
243
243
243
243
243
246
246
246
245
245
245
245
245
245
244
244
244
243
243
243
242
242
242
242
242
242
242
242
242
244
244
244
244
244
244
248
248
248
249
249
249
242
242
242
236
236
236
244
244
244
255
255
255
255
255
255
241
241
241
229
229
229
239
239
239
255
255
255
229
229
229
146
146
146
66
66
66
2
2
10
2
4
0
16
21
0
16
22
0
17
22
0
24
26
13
21
18
29
28
22
50
27
13
30
21
3
29
17
0
32
16
0
32
13
0
16
17
0
0
52
36
11
90
77
35
137
130
0
151
145
0
170
164
4
184
179
15
193
189
19
200
197
20
208
206
25
214
212
29
223
222
33
220
219
30
214
213
27
204
202
21
190
187
10
174
171
0
161
157
0
153
149
0
129
127
18
79
71
0
28
12
0
13
0
25
11
0
48
11
0
47
12
0
34
16
0
26
37
40
49
19
22
29
9
12
19
15
18
25
18
23
29
11
16
22
1
6
12
0
3
9
5
5
5
85
85
85
175
175
175
237
237
237
255
255
255
246
246
246
239
239
239
254
254
254
247
247
247
247
247
247
248
248
248
248
248
248
241
241
241
235
235
235
240
240
240
252
252
252
243
243
243
243
243
243
243
243
243
243
243
243
243
243
243
243
243
243
243
243
243
243
243
243
243
243
243
243
243
243
243
243
243
244
244
244
244
244
244
244
244
244
245
245
245
245
245
245
244
244
244
244
244
244
244
244
244
244
244
244
244
244
244
244
244
244
244
244
244
244
244
244
244
244
244
244
244
244
244
244
244
244
244
244
244
244
244
244
244
244
244
244
244
244
244
244
245
245
245
245
245
245
246
246
246
246
246
246
246
246
246
247
247
247
247
247
247
247
247
247
244
244
244
244
244
244
243
243
243
243
243
243
243
243
243
242
242
242
242
242
242
242
242
242
246
246
246
246
246
246
246
246
246
245
245
245
245
245
245
245
245
245
244
244
244
244
244
244
244
244
244
244
244
244
243
243
243
243
243
243
243
243
243
242
242
242
242
242
242
242
242
242
242
242
242
242
242
242
242
242
242
242
242
242
242
242
242
242
242
242
242
242
242
242
242
242
242
242
242
242
242
242
243
243
243
243
243
243
244
244
244
245
245
245
245
245
245
246
246
246
246
246
246
244
244
244
244
244
244
245
245
245
245
245
245
246
246
246
247
247
247
248
248
248
248
248
248
247
247
247
247
247
247
247
247
247
247
247
247
247
247
247
247
247
247
247
247
247
247
247
247
247
247
247
247
247
247
247
247
247
247
247
247
247
247
247
247
247
247
247
247
247
247
247
247
246
246
246
246
246
246
246
246
246
246
246
246
246
246
246
246
246
246
246
246
246
246
246
246
244
244
244
244
244
244
244
244
244
244
244
244
244
244
244
244
244
244
244
244
244
244
244
244
245
245
245
245
245
245
245
245
245
245
245
245
245
245
245
245
245
245
245
245
245
245
245
245
245
245
245
245
245
245
244
244
244
244
244
244
244
244
244
243
243
243
243
243
243
243
243
243
245
245
245
245
245
245
244
244
244
244
244
244
243
243
243
242
242
242
241
241
241
241
241
241
241
241
241
243
243
243
242
242
242
237
237
237
235
235
235
242
242
242
253
253
253
255
255
255
221
221
221
253
253
253
255
255
255
194
194
194
92
92
92
16
16
16
0
0
0
4
4
4
15
18
53
9
13
38
18
20
32
18
18
16
21
18
9
25
19
7
12
2
0
13
0
0
48
20
17
82
59
25
137
121
34
188
180
33
218
219
17
234
239
0
244
252
0
252
255
0
250
238
4
253
241
5
255
245
7
255
244
2
252
242
0
248
239
0
247
238
0
248
239
0
238
227
0
240
228
0
244
232
0
247
235
3
250
237
8
252
239
11
253
240
14
253
239
16
242
244
11
236
243
0
234
242
0
231
242
0
213
218
0
170
166
7
117
103
15
80
58
17
13
7
0
11
6
0
15
10
16
22
18
33
26
25
41
23
26
33
19
26
19
17
28
11
3
3
3
18
18
18
0
0
0
3
3
3
114
114
114
235
235
235
255
255
255
225
225
225
255
255
255
249
249
249
239
239
239
236
236
236
239
239
239
243
243
243
247
247
247
249
249
249
243
243
243
243
243
243
243
243
243
243
243
243
243
243
243
243
243
243
243
243
243
243
243
243
243
243
243
243
243
243
243
243
243
244
244
244
244
244
244
244
244
244
245
245
245
245
245
245
244
244
244
244
244
244
244
244
244
244
244
244
244
244
244
244
244
244
244
244
244
244
244
244
245
245
245
245
245
245
245
245
245
245
245
245
245
245
245
245
245
245
245
245
245
245
245
245
245
245
245
245
245
245
246
246
246
246
246
246
246
246
246
247
247
247
247
247
247
247
247
247
244
244
244
244
244
244
243
243
243
243
243
243
243
243
243
242
242
242
242
242
242
242
242
242
247
247
247
247
247
247
246
246
246
246
246
246
245
245
245
245
245
245
245
245
245
245
245
245
244
244
244
244
244
244
243
243
243
243
243
243
243
243
243
242
242
242
242
242
242
242
242
242
242
242
242
242
242
242
242
242
242
242
242
242
242
242
242
242
242
242
242
242
242
242
242
242
242
242
242
242
242
242
242
242
242
243
243
243
244
244
244
244
244
244
245
245
245
246
246
246
246
246
246
243
243
243
243
243
243
244
244
244
245
245
245
246
246
246
246
246
246
247
247
247
247
247
247
246
246
246
246
246
246
246
246
246
246
246
246
246
246
246
246
246
246
246
246
246
246
246
246
246
246
246
246
246
246
246
246
246
246
246
246
246
246
246
246
246
246
246
246
246
246
246
246
246
246
246
246
246
246
246
246
246
246
246
246
246
246
246
246
246
246
246
246
246
246
246
246
244
244
244
244
244
244
244
244
244
244
244
244
244
244
244
244
244
244
244
244
244
244
244
244
245
245
245
245
245
245
245
245
245
245
245
245
245
245
245
245
245
245
245
245
245
245
245
245
245
245
245
245
245
245
244
244
244
244
244
244
244
244
244
243
243
243
243
243
243
243
243
243
245
245
245
245
245
245
244
244
244
243
243
243
242
242
242
242
242
242
241
241
241
241
241
241
240
240
240
244
244
244
240
240
240
233
233
233
238
238
238
248
248
248
243
243
243
227
227
227
253
253
253
168
168
168
63
63
63
5
5
5
0
0
0
13
13
13
20
20
20
18
18
18
15
21
7
13
13
21
21
11
45
17
0
37
36
15
22
90
71
15
150
136
11
204
196
25
234
231
0
248
243
1
253
244
15
244
234
14
246
233
15
254
240
17
248
236
4
233
222
0
255
236
25
252
231
20
245
224
11
243
222
7
245
224
9
250
230
13
253
233
14
255
235
16
247
229
0
246
228
0
245
227
0
244
225
0
244
225
0
246
227
0
247
228
1
248
229
2
242
230
0
250
237
11
247
232
17
233
219
9
233
222
6
249
241
10
253
250
0
245
242
0
223
226
0
190
188
9
130
121
16
67
51
18
25
8
16
12
0
12
17
12
6
24
24
0
22
22
22
24
24
24
23
23
23
24
24
24
12
12
12
7
7
7
93
93
93
224
224
224
237
237
237
251
251
251
253
253
253
242
242
242
242
242
242
253
253
253
249
249
249
233
233
233
243
243
243
243
243
243
243
243
243
243
243
243
243
243
243
243
243
243
243
243
243
243
243
243
243
243
243
243
243
243
243
243
243
244
244
244
244
244
244
244
244
244
245
245
245
245
245
245
244
244
244
244
244
244
244
244
244
244
244
244
244
244
244
244
244
244
244
244
244
244
244
244
245
245
245
245
245
245
245
245
245
245
245
245
245
245
245
245
245
245
245
245
245
245
245
245
245
245
245
245
245
245
246
246
246
246
246
246
246
246
246
247
247
247
247
247
247
247
247
247
244
244
244
244
244
244
243
243
243
243
243
243
243
243
243
242
242
242
242
242
242
242
242
242
247
247
247
247
247
247
247
247
247
246
246
246
246
246
246
245
245
245
245
245
245
245
245
245
244
244
244
244
244
244
243
243
243
243
243
243
243
243
243
242
242
242
242
242
242
242
242
242
242
242
242
242
242
242
242
242
242
242
242
242
242
242
242
242
242
242
242
242
242
242
242
242
242
242
242
242
242
242
242
242
242
243
243
243
243
243
243
244
244
244
245
245
245
246
246
246
246
246
246
243
243
243
243
243
243
244
244
244
244
244
244
245
245
245
246
246
246
247
247
247
247
247
247
246
246
246
246
246
246
246
246
246
246
246
246
246
246
246
246
246
246
246
246
246
246
246
246
246
246
246
246
246
246
246
246
246
246
246
246
246
246
246
246
246
246
246
246
246
246
246
246
246
246
246
246
246
246
246
246
246
246
246
246
246
246
246
246
246
246
246
246
246
246
246
246
244
244
244
244
244
244
244
244
244
244
244
244
244
244
244
244
244
244
244
244
244
244
244
244
245
245
245
245
245
245
245
245
245
245
245
245
245
245
245
245
245
245
245
245
245
245
245
245
245
245
245
245
245
245
244
244
244
244
244
244
244
244
244
243
243
243
243
243
243
243
243
243
245
245
245
244
244
244
244
244
244
243
243
243
242
242
242
241
241
241
241
241
241
241
241
241
240
240
240
246
246
246
243
243
243
238
238
238
247
247
247
252
252
252
222
222
222
181
181
181
58
58
58
34
34
34
15
15
15
16
16
16
23
23
23
25
25
25
25
25
25
28
28
28
3
0
21
25
19
5
96
93
14
162
160
13
218
215
16
250
241
16
247
230
0
247
226
0
242
223
6
235
217
0
235
217
0
244
225
0
249
228
1
246
224
1
250
226
6
255
233
18
254
241
4
248
235
0
242
229
0
242
229
0
245
232
0
246
233
0
241
228
0
236
223
0
253
237
17
250
235
12
245
230
7
241
226
1
240
225
0
241
226
0
244
230
1
246
232
3
248
227
0
249
228
0
255
235
0
255
243
12
255
241
11
247
230
0
243
226
0
248
231
1
245
223
16
245
230
3
240
235
0
228
227
0
201
203
8
151
145
33
74
59
36
10
0
25
0
0
0
30
30
30
29
29
29
16
16
16
30
30
30
28
28
28
4
4
4
0
0
0
112
112
112
189
189
189
248
248
248
246
246
246
233
233
233
242
242
242
245
245
245
231
231
231
243
243
243
243
243
243
243
243
243
243
243
243
243
243
243
243
243
243
243
243
243
243
243
243
243
243
243
243
243
243
243
243
243
244
244
244
244
244
244
244
244
244
245
245
245
245
245
245
244
244
244
244
244
244
244
244
244
244
244
244
244
244
244
244
244
244
244
244
244
244
244
244
245
245
245
245
245
245
245
245
245
245
245
245
245
245
245
245
245
245
245
245
245
245
245
245
245
245
245
245
245
245
246
246
246
246
246
246
246
246
246
247
247
247
247
247
247
247
247
247
244
244
244
244
244
244
243
243
243
243
243
243
243
243
243
242
242
242
242
242
242
242
242
242
247
247
247
247
247
247
247
247
247
246
246
246
246
246
246
246
246
246
245
245
245
245
245
245
244
244
244
244
244
244
243
243
243
243
243
243
243
243
243
242
242
242
242
242
242
242
242
242
242
242
242
242
242
242
242
242
242
242
242
242
242
242
242
242
242
242
242
242
242
242
242
242
242
242
242
245
245
245
245
245
245
244
244
244
244
244
244
244
244
244
243
243
243
243
243
243
243
243
243
244
244
244
244
244
244
244
244
244
245
245
245
245
245
245
246
246
246
246
246
246
246
246
246
246
246
246
246
246
246
246
246
246
246
246
246
246
246
246
246
246
246
246
246
246
246
246
246
247
247
247
247
247
247
247
247
247
246
246
246
246
246
246
246
246
246
245
245
245
245
245
245
245
245
245
245
245
245
245
245
245
245
245
245
245
245
245
245
245
245
245
245
245
245
245
245
244
244
244
244
244
244
244
244
244
244
244
244
244
244
244
244
244
244
244
244
244
244
244
244
244
244
244
244
244
244
244
244
244
244
244
244
244
244
244
244
244
244
244
244
244
244
244
244
244
244
244
244
244
244
244
244
244
244
244
244
244
244
244
244
244
244
244
244
244
244
244
244
243
243
243
240
240
240
247
247
247
240
240
240
238
238
238
250
250
250
248
248
248
243
243
243
241
248
230
233
237
238
241
239
255
255
253
255
255
255
237
189
189
161
68
63
60
4
0
12
29
10
16
27
11
11
35
23
23
40
28
38
18
9
28
1
0
9
11
13
0
49
57
18
182
163
0
208
190
0
240
225
12
255
243
17
253
241
7
243
231
0
239
226
0
240
226
3
244
229
2
244
229
2
245
231
2
246
232
3
247
233
2
247
233
2
248
234
1
248
234
1
246
232
1
246
232
1
246
232
1
245
231
0
245
231
0
244
230
0
244
230
0
244
230
0
246
232
1
246
232
1
246
232
1
246
232
1
246
232
1
246
232
1
246
232
1
246
232
1
246
232
1
246
232
1
246
232
1
245
231
0
245
231
0
244
230
0
244
230
0
244
230
0
244
230
0
244
230
0
244
230
0
244
230
0
244
230
0
244
230
0
244
230
0
244
230
0
137
121
23
62
35
18
17
0
28
23
4
34
38
33
27
19
23
8
4
15
9
13
25
25
0
0
9
8
9
13
94
95
99
218
217
223
255
255
255
240
241
233
231
230
225
242
240
245
251
251
251
239
239
239
243
243
243
255
255
255
251
251
251
239
239
239
239
239
239
247
247
247
244
244
244
244
244
244
244
244
244
244
244
244
244
244
244
244
244
244
244
244
244
244
244
244
245
245
245
245
245
245
245
245
245
245
245
245
245
245
245
245
245
245
245
245
245
245
245
245
244
244
244
244
244
244
243
243
243
243
243
243
243
243
243
242
242
242
242
242
242
242
242
242
245
245
245
245
245
245
245
245
245
245
245
245
245
245
245
245
245
245
245
245
245
245
245
245
245
245
245
245
245
245
245
245
245
244
244
244
244
244
244
243
243
243
243
243
243
243
243
243
246
246
246
246
246
246
246
246
246
245
245
245
245
245
245
244
244
244
244
244
244
244
244
244
243
243
243
243
243
243
243
243
243
243
243
243
243
243
243
243
243
243
243
243
243
243
243
243
242
242
242
242
242
242
242
242
242
242
242
242
242
242
242
242
242
242
242
242
242
242
242
242
242
242
242
245
245
245
245
245
245
245
245
245
244
244
244
244
244
244
243
243
243
243
243
243
243
243
243
244
244
244
244
244
244
244
244
244
245
245
245
245
245
245
246
246
246
246
246
246
246
246
246
246
246
246
246
246
246
246
246
246
246
246
246
246
246
246
246
246
246
246
246
246
246
246
246
247
247
247
247
247
247
247
247
247
246
246
246
246
246
246
246
246
246
245
245
245
245
245
245
245
245
245
245
245
245
245
245
245
245
245
245
245
245
245
245
245
245
245
245
245
245
245
245
244
244
244
244
244
244
244
244
244
244
244
244
244
244
244
244
244
244
244
244
244
244
244
244
244
244
244
244
244
244
244
244
244
244
244
244
244
244
244
244
244
244
244
244
244
244
244
244
244
244
244
244
244
244
244
244
244
244
244
244
244
244
244
244
244
244
244
244
244
244
244
244
241
241
241
255
255
255
241
241
241
245
245
245
255
255
255
246
246
246
250
250
250
248
248
248
242
245
238
237
235
255
254
254
255
196
197
192
71
70
75
7
7
0
9
11
0
23
21
24
21
17
18
31
26
23
16
7
12
10
0
14
23
3
14
115
100
45
198
199
33
235
248
0
237
219
23
242
225
21
246
231
14
241
228
0
233
221
0
229
217
0
234
221
0
241
227
6
244
229
2
244
229
2
245
231
2
246
232
3
247
233
2
247
233
2
248
234
1
248
234
1
246
232
1
246
232
1
246
232
1
245
231
0
245
231
0
244
230
0
244
230
0
244
230
0
246
232
1
246
232
1
246
232
1
246
232
1
246
232
1
246
232
1
246
232
1
246
232
1
246
232
1
246
232
1
246
232
1
245
231
0
245
231
0
244
230
0
244
230
0
244
230
0
244
230
0
244
230
0
244
230
0
244
230
0
244
230
0
244
230
0
244
230
0
244
230
0
240
237
8
245
251
0
186
187
0
76
61
22
14
0
45
22
10
50
30
28
41
13
11
32
24
29
0
34
35
30
23
21
34
11
10
18
107
106
111
233
231
242
255
253
255
243
243
243
235
235
235
236
236
236
251
251
251
252
252
252
237
237
237
241
241
241
246
246
246
230
230
230
244
244
244
244
244
244
244
244
244
244
244
244
244
244
244
244
244
244
244
244
244
244
244
244
245
245
245
245
245
245
245
245
245
245
245
245
245
245
245
245
245
245
245
245
245
245
245
245
244
244
244
244
244
244
243
243
243
243
243
243
243
243
243
242
242
242
242
242
242
242
242
242
245
245
245
245
245
245
245
245
245
245
245
245
245
245
245
245
245
245
245
245
245
245
245
245
245
245
245
245
245
245
244
244
244
244
244
244
244
244
244
243
243
243
243
243
243
243
243
243
246
246
246
246
246
246
245
245
245
245
245
245
245
245
245
244
244
244
244
244
244
244
244
244
243
243
243
243
243
243
243
243
243
243
243
243
243
243
243
243
243
243
243
243
243
243
243
243
242
242
242
242
242
242
242
242
242
242
242
242
242
242
242
242
242
242
242
242
242
242
242
242
242
242
242
245
245
245
245
245
245
245
245
245
245
245
245
244
244
244
244
244
244
243
243
243
243
243
243
244
244
244
244
244
244
244
244
244
245
245
245
245
245
245
246
246
246
246
246
246
246
246
246
246
246
246
246
246
246
246
246
246
246
246
246
246
246
246
246
246
246
246
246
246
246
246
246
247
247
247
247
247
247
247
247
247
246
246
246
246
246
246
246
246
246
245
245
245
245
245
245
245
245
245
245
245
245
245
245
245
245
245
245
245
245
245
245
245
245
245
245
245
245
245
245
244
244
244
244
244
244
244
244
244
244
244
244
244
244
244
244
244
244
244
244
244
244
244
244
244
244
244
244
244
244
244
244
244
244
244
244
244
244
244
244
244
244
244
244
244
244
244
244
244
244
244
244
244
244
244
244
244
244
244
244
244
244
244
244
244
244
244
244
244
244
244
244
244
244
244
232
232
232
246
246
246
241
241
241
231
231
231
253
253
253
254
254
254
229
229
229
243
237
255
238
242
217
130
135
105
1
2
0
0
1
0
22
18
43
5
0
39
12
14
3
14
13
27
1
0
16
37
27
15
139
133
23
220
221
0
243
236
0
248
233
0
255
234
36
253
238
25
250
235
18
246
233
5
241
229
0
238
226
0
238
226
0
240
227
1
242
228
7
244
229
2
244
229
2
245
231
2
246
232
3
247
233
2
247
233
2
248
234
1
248
234
1
246
232
1
246
232
1
246
232
1
245
231
0
245
231
0
244
230
0
244
230
0
244
230
0
246
232
1
246
232
1
246
232
1
246
232
1
246
232
1
246
232
1
246
232
1
246
232
1
246
232
1
246
232
1
246
232
1
245
231
0
245
231
0
244
230
0
244
230
0
244
230
0
244
230
0
244
230
0
244
230
0
244
230
0
244
230
0
244
230
0
244
230
0
244
230
0
249
240
0
239
230
5
248
244
13
253
255
1
201
207
0
104
94
25
34
14
26
12
0
0
19
9
46
20
16
17
12
16
0
21
24
0
0
1
0
30
29
43
165
164
178
238
238
246
253
253
253
250
250
250
243
243
243
236
236
236
235
235
235
239
239
239
245
245
245
251
251
251
244
244
244
244
244
244
244
244
244
244
244
244
244
244
244
244
244
244
244
244
244
244
244
244
245
245
245
245
245
245
245
245
245
245
245
245
245
245
245
245
245
245
245
245
245
245
245
245
244
244
244
244
244
244
243
243
243
243
243
243
243
243
243
242
242
242
242
242
242
242
242
242
245
245
245
245
245
245
245
245
245
245
245
245
245
245
245
245
245
245
245
245
245
245
245
245
244
244
244
244
244
244
244
244
244
244
244
244
243
243
243
243
243
243
243
243
243
242
242
242
246
246
246
245
245
245
245
245
245
245
245
245
244
244
244
244
244
244
244
244
244
244
244
244
243
243
243
243
243
243
243
243
243
243
243
243
243
243
243
243
243
243
243
243
243
243
243
243
242
242
242
242
242
242
242
242
242
242
242
242
242
242
242
242
242
242
242
242
242
242
242
242
242
242
242
246
246
246
246
246
246
245
245
245
245
245
245
245
245
245
244
244
244
244
244
244
244
244
244
244
244
244
244
244
244
244
244
244
245
245
245
245
245
245
246
246
246
246
246
246
246
246
246
246
246
246
246
246
246
246
246
246
246
246
246
246
246
246
246
246
246
246
246
246
246
246
246
247
247
247
247
247
247
247
247
247
246
246
246
246
246
246
246
246
246
245
245
245
245
245
245
245
245
245
245
245
245
245
245
245
245
245
245
245
245
245
245
245
245
245
245
245
245
245
245
244
244
244
244
244
244
244
244
244
244
244
244
244
244
244
244
244
244
244
244
244
244
244
244
244
244
244
244
244
244
244
244
244
244
244
244
244
244
244
244
244
244
244
244
244
244
244
244
244
244
244
244
244
244
244
244
244
244
244
244
244
244
244
244
244
244
244
244
244
244
244
244
236
236
236
244
244
244
245
245
245
235
235
235
253
253
253
249
249
249
224
224
224
252
252
252
178
181
150
43
40
51
1
1
0
13
15
0
13
9
24
38
32
42
33
29
30
3
0
44
40
24
27
139
136
31
222
230
5
235
238
0
234
224
0
254
229
23
255
231
7
242
214
0
241
228
2
240
227
0
241
229
0
246
234
0
252
240
4
252
239
10
246
233
7
241
227
6
244
229
2
244
229
2
245
231
2
246
232
3
247
233
2
247
233
2
248
234
1
248
234
1
246
232
1
246
232
1
246
232
1
245
231
0
245
231
0
244
230
0
244
230
0
244
230
0
245
231
0
245
231
0
245
231
0
245
231
0
245
231
0
245
231
0
245
231
0
245
231
0
246
232
1
246
232
1
246
232
1
245
231
0
245
231
0
244
230
0
244
230
0
244
230
0
245
231
0
245
231
0
245
231
0
245
231
0
245
231
0
245
231
0
245
231
0
245
231
0
243
217
16
255
238
12
251
236
13
236
223
7
240
240
0
246
249
0
199
199
0
133
115
31
22
8
21
19
9
0
34
28
12
20
13
20
20
17
24
12
14
1
8
12
0
87
91
92
199
199
199
232
232
232
239
239
239
237
237
237
249
249
249
245
245
245
238
238
238
254
254
254
244
244
244
244
244
244
244
244
244
244
244
244
244
244
244
244
244
244
244
244
244
244
244
244
245
245
245
245
245
245
245
245
245
245
245
245
245
245
245
245
245
245
245
245
245
245
245
245
244
244
244
244
244
244
243
243
243
243
243
243
243
243
243
242
242
242
242
242
242
242
242
242
245
245
245
245
245
245
245
245
245
245
245
245
245
245
245
245
245
245
245
245
245
245
245
245
244
244
244
244
244
244
244
244
244
243
243
243
243
243
243
242
242
242
242
242
242
242
242
242
245
245
245
245
245
245
245
245
245
244
244
244
244
244
244
244
244
244
243
243
243
243
243
243
243
243
243
243
243
243
243
243
243
243
243
243
243
243
243
243
243
243
243
243
243
243
243
243
242
242
242
242
242
242
242
242
242
242
242
242
242
242
242
242
242
242
242
242
242
242
242
242
242
242
242
246
246
246
246
246
246
246
246
246
245
245
245
245
245
245
245
245
245
244
244
244
244
244
244
244
244
244
244
244
244
244
244
244
245
245
245
245
245
245
246
246
246
246
246
246
246
246
246
246
246
246
246
246
246
246
246
246
246
246
246
246
246
246
246
246
246
246
246
246
246
246
246
247
247
247
247
247
247
247
247
247
246
246
246
246
246
246
246
246
246
245
245
245
245
245
245
245
245
245
245
245
245
245
245
245
245
245
245
245
245
245
245
245
245
245
245
245
245
245
245
244
244
244
244
244
244
244
244
244
244
244
244
244
244
244
244
244
244
244
244
244
244
244
244
244
244
244
244
244
244
244
244
244
244
244
244
244
244
244
244
244
244
244
244
244
244
244
244
244
244
244
244
244
244
244
244
244
244
244
244
244
244
244
244
244
244
244
244
244
244
244
244
241
241
241
252
252
252
224
224
224
245
245
245
250
250
250
247
247
247
231
231
231
110
110
110
5
1
16
16
17
0
13
10
3
29
15
50
47
34
54
8
0
9
13
6
0
136
141
21
237
222
19
234
221
3
236
224
0
242
229
0
244
228
8
242
225
11
246
231
8
255
239
4
249
237
3
243
231
0
237
225
0
239
227
0
245
233
0
247
234
5
242
229
3
236
222
0
244
229
2
244
229
2
245
231
2
246
232
3
247
233
2
247
233
2
248
234
1
248
234
1
246
232
1
246
232
1
246
232
1
245
231
0
245
231
0
244
230
0
244
230
0
244
230
0
245
231
0
245
231
0
245
231
0
245
231
0
245
231
0
245
231
0
245
231
0
245
231
0
246
232
1
246
232
1
246
232
1
245
231
0
245
231
0
244
230
0
244
230
0
244
230
0
245
231
0
245
231
0
245
231
0
245
231
0
245
231
0
245
231
0
245
231
0
245
231
0
255
237
0
255
230
13
252
227
23
251
233
11
254
240
9
255
245
21
254
245
16
251
246
0
192
201
0
96
86
17
13
0
27
25
4
45
35
23
43
31
23
46
40
40
40
0
8
0
11
11
11
164
164
164
253
253
253
242
242
242
241
241
241
251
251
251
242
242
242
236
236
236
244
244
244
244
244
244
244
244
244
244
244
244
244
244
244
244
244
244
244
244
244
244
244
244
245
245
245
245
245
245
245
245
245
245
245
245
245
245
245
245
245
245
245
245
245
245
245
245
244
244
244
244
244
244
243
243
243
243
243
243
243
243
243
242
242
242
242
242
242
242
242
242
245
245
245
245
245
245
245
245
245
245
245
245
245
245
245
245
245
245
245
245
245
245
245
245
244
244
244
243
243
243
243
243
243
243
243
243
242
242
242
242
242
242
242
242
242
241
241
241
245
245
245
245
245
245
244
244
244
244
244
244
243
243
243
243
243
243
243
243
243
243
243
243
243
243
243
243
243
243
243
243
243
243
243
243
243
243
243
243
243
243
243
243
243
243
243
243
242
242
242
242
242
242
242
242
242
242
242
242
242
242
242
242
242
242
242
242
242
242
242
242
242
242
242
247
247
247
247
247
247
246
246
246
246
246
246
245
245
245
245
245
245
245
245
245
245
245
245
244
244
244
244
244
244
244
244
244
245
245
245
245
245
245
246
246
246
246
246
246
246
246
246
246
246
246
246
246
246
246
246
246
246
246
246
246
246
246
246
246
246
246
246
246
246
246
246
247
247
247
247
247
247
247
247
247
246
246
246
246
246
246
246
246
246
245
245
245
245
245
245
245
245
245
245
245
245
245
245
245
245
245
245
245
245
245
245
245
245
245
245
245
245
245
245
244
244
244
244
244
244
244
244
244
244
244
244
244
244
244
244
244
244
244
244
244
244
244
244
244
244
244
244
244
244
244
244
244
244
244
244
244
244
244
244
244
244
244
244
244
244
244
244
244
244
244
244
244
244
244
244
244
244
244
244
244
244
244
244
244
244
244
244
244
244
244
244
250
250
250
232
232
232
255
255
255
237
237
237
242
242
242
205
205
205
47
47
47
3
3
3
11
8
15
6
0
22
38
29
30
25
10
13
14
0
20
111
95
44
207
210
17
220
232
0
255
233
0
255
233
0
254
231
5
249
230
6
246
233
5
246
238
7
241
233
12
233
226
13
248
236
4
242
230
0
236
224
0
237
224
0
241
228
0
243
230
2
239
226
0
234
221
0
244
229
2
244
229
2
245
231
2
246
232
3
247
233
2
247
233
2
248
234
1
248
234
1
246
232
1
246
232
1
246
232
1
245
231
0
245
231
0
244
230
0
244
230
0
244
230
0
244
230
0
244
230
0
244
230
0
244
230
0
244
230
0
244
230
0
244
230
0
244
230
0
246
232
1
246
232
1
246
232
1
245
231
0
245
231
0
244
230
0
244
230
0
244
230
0
246
232
1
246
232
1
246
232
1
246
232
1
246
232
1
246
232
1
246
232
1
246
232
1
255
233
19
254
233
4
251
232
0
245
229
0
238
221
0
237
217
6
242
225
15
251
235
17
245
241
28
242
244
11
185
182
19
62
41
20
14
0
33
27
16
20
14
10
0
36
31
51
24
24
24
0
0
0
97
97
97
235
235
235
250
250
250
234
234
234
251
251
251
249
249
249
244
244
244
244
244
244
244
244
244
244
244
244
244
244
244
244
244
244
244
244
244
244
244
244
245
245
245
245
245
245
245
245
245
245
245
245
245
245
245
245
245
245
245
245
245
245
245
245
244
244
244
244
244
244
243
243
243
243
243
243
243
243
243
242
242
242
242
242
242
242
242
242
245
245
245
245
245
245
245
245
245
245
245
245
245
245
245
245
245
245
245
245
245
245
245
245
243
243
243
243
243
243
243
243
243
242
242
242
242
242
242
241
241
241
241
241
241
241
241
241
244
244
244
244
244
244
244
244
244
243
243
243
243
243
243
243
243
243
242
242
242
242
242
242
243
243
243
243
243
243
243
243
243
243
243
243
243
243
243
243
243
243
243
243
243
243
243
243
242
242
242
242
242
242
242
242
242
242
242
242
242
242
242
242
242
242
242
242
242
242
242
242
242
242
242
247
247
247
247
247
247
247
247
247
246
246
246
246
246
246
245
245
245
245
245
245
245
245
245
244
244
244
244
244
244
244
244
244
245
245
245
245
245
245
246
246
246
246
246
246
246
246
246
246
246
246
246
246
246
246
246
246
246
246
246
246
246
246
246
246
246
246
246
246
246
246
246
247
247
247
247
247
247
247
247
247
246
246
246
246
246
246
246
246
246
245
245
245
245
245
245
245
245
245
245
245
245
245
245
245
245
245
245
245
245
245
245
245
245
245
245
245
245
245
245
244
244
244
244
244
244
244
244
244
244
244
244
244
244
244
244
244
244
244
244
244
244
244
244
244
244
244
244
244
244
244
244
244
244
244
244
244
244
244
244
244
244
244
244
244
244
244
244
244
244
244
244
244
244
244
244
244
244
244
244
244
244
244
244
244
244
244
244
244
244
244
244
249
249
249
251
251
251
238
238
238
255
255
255
161
161
161
5
5
5
4
4
4
8
8
8
26
30
7
22
18
17
14
0
30
56
42
15
172
171
5
246
247
5
242
237
0
252
242
7
244
229
0
246
230
0
244
227
0
237
220
8
234
218
9
236
223
5
240
230
0
238
233
0
238
225
0
238
225
0
239
226
0
243
230
4
246
233
7
245
232
4
241
228
0
237
224
0
244
229
2
244
229
2
245
231
2
246
232
3
247
233
2
247
233
2
248
234
1
248
234
1
246
232
1
246
232
1
246
232
1
245
231
0
245
231
0
244
230
0
244
230
0
244
230
0
244
230
0
244
230
0
244
230
0
244
230
0
244
230
0
244
230
0
244
230
0
244
230
0
246
232
1
246
232
1
246
232
1
245
231
0
245
231
0
244
230
0
244
230
0
244
230
0
246
232
1
246
232
1
246
232
1
246
232
1
246
232
1
246
232
1
246
232
1
246
232
1
255
244
8
243
226
0
237
218
4
247
226
21
251
233
9
243
229
0
239
224
0
246
227
10
233
220
0
240
230
8
250
250
2
238
245
0
131
132
0
22
4
0
11
0
33
23
15
12
31
31
31
34
34
34
0
0
0
22
22
22
193
193
193
255
255
255
238
238
238
238
238
238
244
244
244
244
244
244
244
244
244
244
244
244
244
244
244
244
244
244
244
244
244
244
244
244
245
245
245
245
245
245
245
245
245
245
245
245
245
245
245
245
245
245
245
245
245
245
245
245
244
244
244
244
244
244
243
243
243
243
243
243
243
243
243
242
242
242
242
242
242
242
242
242
245
245
245
245
245
245
245
245
245
245
245
245
245
245
245
245
245
245
245
245
245
245
245
245
243
243
243
243
243
243
242
242
242
242
242
242
242
242
242
241
241
241
241
241
241
241
241
241
244
244
244
244
244
244
243
243
243
243
243
243
243
243
243
242
242
242
242
242
242
242
242
242
243
243
243
243
243
243
243
243
243
243
243
243
243
243
243
243
243
243
243
243
243
243
243
243
242
242
242
242
242
242
242
242
242
242
242
242
242
242
242
242
242
242
242
242
242
242
242
242
242
242
242
247
247
247
247
247
247
247
247
247
246
246
246
246
246
246
246
246
246
245
245
245
245
245
245
244
244
244
244
244
244
244
244
244
245
245
245
245
245
245
246
246
246
246
246
246
246
246
246
246
246
246
246
246
246
246
246
246
246
246
246
246
246
246
246
246
246
246
246
246
246
246
246
247
247
247
247
247
247
247
247
247
246
246
246
246
246
246
246
246
246
245
245
245
245
245
245
245
245
245
245
245
245
245
245
245
245
245
245
245
245
245
245
245
245
245
245
245
245
245
245
244
244
244
244
244
244
244
244
244
244
244
244
244
244
244
244
244
244
244
244
244
244
244
244
244
244
244
244
244
244
244
244
244
244
244
244
244
244
244
244
244
244
244
244
244
244
244
244
244
244
244
244
244
244
244
244
244
244
244
244
244
244
244
244
244
244
244
244
244
244
244
244
234
234
234
255
255
255
230
230
230
91
91
91
6
6
6
19
19
19
23
23
23
29
29
29
3
0
31
14
16
0
110
118
0
211
223
15
245
251
5
233
228
0
230
213
0
255
231
30
244
238
32
232
228
0
232
229
0
245
238
0
249
236
8
242
222
11
240
220
0
247
227
0
246
232
9
245
231
10
244
230
9
243
229
8
242
228
5
242
229
3
240
227
0
240
228
0
244
229
2
244
229
2
245
231
2
246
232
3
247
233
2
247
233
2
248
234
1
248
234
1
246
232
1
246
232
1
246
232
1
245
231
0
245
231
0
244
230
0
244
230
0
244
230
0
244
230
0
244
230
0
244
230
0
244
230
0
244
230
0
244
230
0
244
230
0
244
230
0
246
232
1
246
232
1
246
232
1
245
231
0
245
231
0
244
230
0
244
230
0
244
230
0
246
232
1
246
232
1
246
232
1
246
232
1
246
232
1
246
232
1
246
232
1
246
232
1
241
232
0
248
235
7
250
235
20
245
230
7
239
226
0
241
229
0
248
232
0
251
235
2
249
228
0
234
220
0
232
225
0
241
243
0
244
253
14
189
197
13
82
79
12
10
0
37
18
18
18
14
14
14
25
25
25
9
9
9
18
18
18
140
140
140
251
251
251
248
248
248
244
244
244
244
244
244
244
244
244
244
244
244
244
244
244
244
244
244
244
244
244
244
244
244
245
245
245
245
245
245
245
245
245
245
245
245
245
245
245
245
245
245
245
245
245
245
245
245
244
244
244
244
244
244
243
243
243
243
243
243
243
243
243
242
242
242
242
242
242
242
242
242
245
245
245
245
245
245
245
245
245
245
245
245
245
245
245
245
245
245
245
245
245
245
245
245
243
243
243
242
242
242
242
242
242
242
242
242
241
241
241
241
241
241
241
241
241
240
240
240
244
244
244
244
244
244
243
243
243
243
243
243
242
242
242
242
242
242
242
242
242
242
242
242
243
243
243
243
243
243
243
243
243
243
243
243
243
243
243
243
243
243
243
243
243
243
243
243
242
242
242
242
242
242
242
242
242
242
242
242
242
242
242
242
242
242
242
242
242
242
242
242
242
242
242
245
245
245
245
245
245
245
245
245
245
245
245
245
245
245
245
245
245
245
245
245
245
245
245
244
244
244
244
244
244
244
244
244
245
245
245
245
245
245
246
246
246
246
246
246
246
246
246
247
247
247
247
247
247
247
247
247
247
247
247
247
247
247
247
247
247
247
247
247
247
247
247
246
246
246
246
246
246
246
246
246
245
245
245
245
245
245
244
244
244
244
244
244
244
244
244
245
245
245
245
245
245
245
245
245
245
245
245
245
245
245
245
245
245
245
245
245
245
245
245
246
246
246
246
246
246
246
246
246
245
245
245
245
245
245
244
244
244
244
244
244
244
244
244
244
244
244
244
244
244
244
244
244
244
244
244
244
244
244
244
244
244
244
244
244
244
244
244
242
242
242
243
243
243
238
238
238
232
232
232
247
247
247
235
235
235
244
244
244
239
239
239
255
246
255
221
208
238
65
63
76
0
4
0
24
29
32
21
19
56
28
27
25
6
0
13
75
40
0
190
164
15
253
238
25
242
231
0
239
227
0
243
229
8
238
225
0
241
230
0
243
230
2
243
230
2
243
230
2
243
230
2
243
230
2
243
230
2
243
230
2
243
230
2
245
232
4
245
232
4
245
232
4
244
231
3
244
231
3
243
230
2
243
230
2
243
230
2
244
231
3
244
231
3
244
231
3
244
231
3
244
231
3
244
231
3
244
231
3
244
231
3
244
230
0
244
230
0
244
230
0
244
230
0
244
230
0
244
230
0
244
230
0
244
230
0
244
231
3
244
231
3
243
230
2
243
230
2
243
230
2
242
229
1
242
229
1
242
229
1
245
231
0
245
231
0
245
231
0
245
231
0
245
231
0
245
231
0
245
231
0
245
231
0
243
231
0
243
231
0
243
231
0
244
232
0
244
232
0
245
233
1
245
233
1
245
233
1
244
231
3
244
231
3
243
230
2
243
230
2
243
230
2
242
229
1
242
229
1
242
229
1
241
228
0
251
239
5
246
235
0
237
226
0
248
236
2
255
243
24
222
205
1
168
150
0
13
0
15
23
18
0
22
21
19
14
15
35
23
26
33
10
12
9
90
87
80
254
246
244
240
234
236
255
251
253
243
239
240
245
241
242
255
254
255
240
240
240
245
245
245
241
241
241
244
244
244
244
244
244
244
244
244
244
244
244
244
244
244
244
244
244
244
244
244
244
244
244
244
244
244
244
244
244
243
243
243
243
243
243
243
243
243
242
242
242
242
242
242
242
242
242
244
244
244
244
244
244
244
244
244
244
244
244
244
244
244
244
244
244
244
244
244
244
244
244
244
244
244
244
244
244
244
244
244
244
244
244
244
244
244
244
244
244
244
244
244
244
244
244
243
243
243
243
243
243
243
243
243
243
243
243
243
243
243
243
243
243
243
243
243
243
243
243
243
243
243
243
243
243
243
243
243
243
243
243
243
243
243
243
243
243
243
243
243
243
243
243
242
242
242
242
242
242
242
242
242
242
242
242
242
242
242
242
242
242
242
242
242
242
242
242
242
242
242
245
245
245
245
245
245
245
245
245
245
245
245
245
245
245
245
245
245
245
245
245
245
245
245
244
244
244
244
244
244
244
244
244
245
245
245
245
245
245
246
246
246
246
246
246
246
246
246
247
247
247
247
247
247
247
247
247
247
247
247
247
247
247
247
247
247
247
247
247
247
247
247
246
246
246
246
246
246
246
246
246
245
245
245
245
245
245
244
244
244
244
244
244
244
244
244
245
245
245
245
245
245
245
245
245
245
245
245
245
245
245
245
245
245
245
245
245
245
245
245
246
246
246
246
246
246
246
246
246
245
245
245
245
245
245
244
244
244
244
244
244
244
244
244
244
244
244
244
244
244
244
244
244
244
244
244
244
244
244
244
244
244
244
244
244
244
244
244
248
248
248
241
241
241
242
242
242
252
252
252
236
236
236
245
245
245
232
232
232
255
255
255
206
198
219
26
28
7
0
4
0
20
18
39
13
10
27
31
32
0
8
0
7
79
73
0
219
194
40
247
229
35
253
242
4
246
237
0
251
239
7
245
230
15
234
220
0
238
226
0
243
230
2
243
230
2
243
230
2
243
230
2
243
230
2
243
230
2
243
230
2
243
230
2
245
232
4
245
232
4
244
231
3
244
231
3
244
231
3
243
230
2
243
230
2
243
230
2
244
231
3
244
231
3
244
231
3
244
231
3
244
231
3
244
231
3
244
231
3
244
231
3
244
230
0
244
230
0
244
230
0
244
230
0
244
230
0
244
230
0
244
230
0
244
230
0
244
231
3
244
231
3
243
230
2
243
230
2
243
230
2
242
229
1
242
229
1
242
229
1
245
231
0
245
231
0
245
231
0
245
231
0
245
231
0
245
231
0
245
231
0
245
231
0
243
231
0
243
231
0
243
231
0
244
232
0
244
232
0
245
233
1
245
233
1
245
233
1
244
231
3
244
231
3
243
230
2
243
230
2
243
230
2
242
229
1
242
229
1
242
229
1
231
218
0
239
227
0
242
230
0
238
227
0
241
229
0
247
233
10
244
228
18
232
215
13
190
195
14
53
35
21
7
0
14
20
15
21
2
3
5
14
20
0
16
18
7
73
70
79
222
216
218
243
237
239
254
250
251
255
254
255
228
226
227
254
254
254
240
240
240
241
241
241
244
244
244
244
244
244
244
244
244
244
244
244
244
244
244
244
244
244
244
244
244
244
244
244
244
244
244
244
244
244
243
243
243
243
243
243
243
243
243
242
242
242
242
242
242
242
242
242
244
244
244
244
244
244
244
244
244
244
244
244
244
244
244
244
244
244
244
244
244
244
244
244
244
244
244
244
244
244
244
244
244
244
244
244
244
244
244
244
244
244
244
244
244
244
244
244
243
243
243
243
243
243
243
243
243
243
243
243
243
243
243
243
243
243
243
243
243
243
243
243
243
243
243
243
243
243
243
243
243
243
243
243
243
243
243
243
243
243
243
243
243
243
243
243
242
242
242
242
242
242
242
242
242
242
242
242
242
242
242
242
242
242
242
242
242
242
242
242
242
242
242
245
245
245
245
245
245
245
245
245
245
245
245
245
245
245
245
245
245
245
245
245
245
245
245
244
244
244
244
244
244
244
244
244
245
245
245
245
245
245
246
246
246
246
246
246
246
246
246
247
247
247
247
247
247
247
247
247
247
247
247
247
247
247
247
247
247
247
247
247
247
247
247
246
246
246
246
246
246
246
246
246
245
245
245
245
245
245
244
244
244
244
244
244
244
244
244
245
245
245
245
245
245
245
245
245
245
245
245
245
245
245
245
245
245
245
245
245
245
245
245
246
246
246
246
246
246
246
246
246
245
245
245
245
245
245
244
244
244
244
244
244
244
244
244
244
244
244
244
244
244
244
244
244
244
244
244
244
244
244
244
244
244
244
244
244
244
244
244
246
246
246
234
234
234
255
255
255
231
231
231
253
253
253
243
243
243
250
250
250
169
169
169
12
18
6
5
13
0
22
26
9
21
20
15
25
16
7
21
0
32
143
135
0
240
238
41
251
236
19
241
230
0
235
226
0
241
232
0
245
232
6
239
223
14
239
224
9
247
234
6
243
230
2
243
230
2
243
230
2
243
230
2
243
230
2
243
230
2
243
230
2
243
230
2
245
232
4
244
231
3
244
231
3
244
231
3
243
230
2
243
230
2
243
230
2
243
230
2
244
231
3
244
231
3
244
231
3
244
231
3
244
231
3
244
231
3
244
231
3
244
231
3
244
230
0
244
230
0
244
230
0
244
230
0
244
230
0
244
230
0
244
230
0
244
230
0
244
231
3
244
231
3
243
230
2
243
230
2
243
230
2
242
229
1
242
229
1
242
229
1
245
231
0
245
231
0
245
231
0
245
231
0
245
231
0
245
231
0
245
231
0
245
231
0
243
231
0
243
231
0
243
231
0
244
232
0
244
232
0
245
233
1
245
233
1
245
233
1
244
231
3
244
231
3
243
230
2
243
230
2
243
230
2
242
229
1
242
229
1
242
229
1
241
227
6
241
228
2
245
233
1
246
234
0
239
227
0
235
222
0
246
232
13
255
249
36
254
250
21
213
211
2
110
91
49
14
0
9
24
22
0
13
15
12
22
27
20
0
1
5
56
50
52
213
207
209
245
241
242
246
242
243
255
254
255
236
236
236
255
255
255
244
244
244
244
244
244
244
244
244
244
244
244
244
244
244
244
244
244
244
244
244
244
244
244
244
244
244
244
244
244
244
244
244
243
243
243
243
243
243
243
243
243
242
242
242
242
242
242
242
242
242
244
244
244
244
244
244
244
244
244
244
244
244
244
244
244
244
244
244
244
244
244
244
244
244
244
244
244
244
244
244
244
244
244
244
244
244
244
244
244
244
244
244
244
244
244
244
244
244
243
243
243
243
243
243
243
243
243
243
243
243
243
243
243
243
243
243
243
243
243
243
243
243
243
243
243
243
243
243
243
243
243
243
243
243
243
243
243
243
243
243
243
243
243
243
243
243
242
242
242
242
242
242
242
242
242
242
242
242
242
242
242
242
242
242
242
242
242
242
242
242
242
242
242
245
245
245
245
245
245
245
245
245
245
245
245
245
245
245
245
245
245
245
245
245
245
245
245
244
244
244
244
244
244
244
244
244
245
245
245
245
245
245
246
246
246
246
246
246
246
246
246
246
246
246
246
246
246
246
246
246
246
246
246
246
246
246
246
246
246
246
246
246
246
246
246
246
246
246
246
246
246
246
246
246
245
245
245
245
245
245
244
244
244
244
244
244
244
244
244
245
245
245
245
245
245
245
245
245
245
245
245
245
245
245
245
245
245
245
245
245
245
245
245
246
246
246
246
246
246
246
246
246
245
245
245
245
245
245
244
244
244
244
244
244
244
244
244
244
244
244
244
244
244
244
244
244
244
244
244
244
244
244
244
244
244
244
244
244
244
244
244
232
232
232
251
251
251
225
225
225
241
241
241
255
255
255
254
254
254
154
154
154
23
23
23
6
17
11
31
40
21
9
10
2
16
5
11
44
13
55
182
172
13
248
241
13
238
226
0
236
225
0
236
227
0
244
235
0
246
234
0
239
224
7
244
228
19
250
235
18
243
231
0
243
230
2
243
230
2
243
230
2
243
230
2
243
230
2
243
230
2
243
230
2
243
230
2
244
231
3
244
231
3
244
231
3
243
230
2
243
230
2
243
230
2
242
229
1
242
229
1
243
230
2
243
230
2
243
230
2
243
230
2
243
230
2
243
230
2
243
230
2
243
230
2
244
230
0
244
230
0
244
230
0
244
230
0
244
230
0
244
230
0
244
230
0
244
230
0
244
231
3
244
231
3
243
230
2
243
230
2
243
230
2
242
229
1
242
229
1
242
229
1
245
231
0
245
231
0
245
231
0
245
231
0
245
231
0
245
231
0
245
231
0
245
231
0
243
231
0
243
231
0
243
231
0
244
232
0
244
232
0
245
233
1
245
233
1
245
233
1
244
231
3
244
231
3
243
230
2
243
230
2
243
230
2
242
229
1
242
229
1
242
229
1
252
238
19
245
231
8
246
233
5
253
241
7
248
236
2
236
224
0
237
224
0
249
235
12
244
226
0
251
237
14
237
238
0
136
125
17
10
0
9
34
29
36
17
18
39
23
33
25
4
0
0
11
5
7
229
225
226
237
233
234
244
242
243
255
255
255
230
230
230
248
248
248
244
244
244
244
244
244
244
244
244
244
244
244
244
244
244
244
244
244
244
244
244
244
244
244
244
244
244
244
244
244
243
243
243
243
243
243
243
243
243
242
242
242
242
242
242
242
242
242
244
244
244
244
244
244
244
244
244
244
244
244
244
244
244
244
244
244
244
244
244
244
244
244
244
244
244
244
244
244
244
244
244
244
244
244
244
244
244
244
244
244
244
244
244
244
244
244
243
243
243
243
243
243
243
243
243
243
243
243
243
243
243
243
243
243
243
243
243
243
243
243
243
243
243
243
243
243
243
243
243
243
243
243
243
243
243
243
243
243
243
243
243
243
243
243
242
242
242
242
242
242
242
242
242
242
242
242
242
242
242
242
242
242
242
242
242
242
242
242
243
243
243
245
245
245
245
245
245
245
245
245
245
245
245
245
245
245
245
245
245
245
245
245
245
245
245
244
244
244
244
244
244
244
244
244
245
245
245
245
245
245
246
246
246
246
246
246
246
246
246
246
246
246
246
246
246
246
246
246
246
246
246
246
246
246
246
246
246
246
246
246
246
246
246
246
246
246
246
246
246
246
246
246
245
245
245
245
245
245
244
244
244
244
244
244
244
244
244
245
245
245
245
245
245
245
245
245
245
245
245
245
245
245
245
245
245
245
245
245
245
245
245
246
246
246
246
246
246
246
246
246
245
245
245
245
245
245
244
244
244
244
244
244
244
244
244
244
244
244
244
244
244
244
244
244
244
244
244
244
244
244
244
244
244
244
244
244
244
244
244
241
241
241
236
236
236
239
239
239
255
255
255
240
240
240
174
174
174
1
1
1
8
8
8
29
37
40
26
23
50
19
9
20
55
31
45
195
192
1
231
226
0
245
230
0
241
217
5
247
234
5
239
226
0
241
228
2
240
225
10
238
222
13
254
239
26
255
244
16
234
223
0
243
230
2
243
230
2
243
230
2
243
230
2
243
230
2
243
230
2
243
230
2
243
230
2
244
231
3
244
231
3
243
230
2
243
230
2
242
229
1
242
229
1
242
229
1
242
229
1
243
230
2
243
230
2
243
230
2
243
230
2
243
230
2
243
230
2
243
230
2
243
230
2
244
230
0
244
230
0
244
230
0
244
230
0
244
230
0
244
230
0
244
230
0
244
230
0
244
231
3
244
231
3
243
230
2
243
230
2
243
230
2
242
229
1
242
229
1
242
229
1
245
231
0
245
231
0
245
231
0
245
231
0
245
231
0
245
231
0
245
231
0
245
231
0
243
231
0
243
231
0
243
231
0
244
232
0
244
232
0
245
233
1
245
233
1
245
233
1
244
231
3
244
231
3
243
230
2
243
230
2
243
230
2
242
229
1
242
229
1
242
229
1
242
228
7
239
225
2
242
229
1
249
237
5
250
238
4
244
232
0
240
228
0
242
230
0
252
225
14
242
223
0
242
230
0
238
239
0
172
164
39
17
0
21
17
12
18
27
24
43
26
20
22
4
0
0
31
27
28
212
208
209
244
242
243
233
233
233
231
231
231
239
239
239
244
244
244
244
244
244
244
244
244
244
244
244
244
244
244
244
244
244
244
244
244
244
244
244
244
244
244
244
244
244
243
243
243
243
243
243
243
243
243
242
242
242
242
242
242
242
242
242
244
244
244
244
244
244
244
244
244
244
244
244
244
244
244
244
244
244
244
244
244
244
244
244
244
244
244
244
244
244
244
244
244
244
244
244
244
244
244
244
244
244
244
244
244
244
244
244
243
243
243
243
243
243
243
243
243
243
243
243
243
243
243
243
243
243
243
243
243
243
243
243
243
243
243
243
243
243
243
243
243
243
243
243
243
243
243
243
243
243
243
243
243
243
243
243
242
242
242
242
242
242
242
242
242
242
242
242
242
242
242
242
242
242
242
242
242
242
242
242
243
243
243
245
245
245
245
245
245
245
245
245
245
245
245
245
245
245
245
245
245
245
245
245
245
245
245
244
244
244
244
244
244
244
244
244
245
245
245
245
245
245
246
246
246
246
246
246
246
246
246
245
245
245
245
245
245
245
245
245
245
245
245
245
245
245
245
245
245
245
245
245
245
245
245
246
246
246
246
246
246
246
246
246
245
245
245
245
245
245
244
244
244
244
244
244
244
244
244
245
245
245
245
245
245
245
245
245
245
245
245
245
245
245
245
245
245
245
245
245
245
245
245
246
246
246
246
246
246
246
246
246
245
245
245
245
245
245
244
244
244
244
244
244
244
244
244
244
244
244
244
244
244
244
244
244
244
244
244
244
244
244
244
244
244
244
244
244
244
244
244
240
240
240
250
250
250
240
240
240
255
255
255
162
162
162
0
0
0
21
21
21
32
32
32
20
10
47
7
0
14
69
49
48
222
228
0
238
235
0
254
237
23
255
240
46
250
231
0
243
228
13
229
214
1
231
215
6
239
223
16
238
223
10
244
230
7
246
234
0
233
222
0
243
230
2
243
230
2
243
230
2
243
230
2
243
230
2
243
230
2
243
230
2
243
230
2
243
230
2
243
230
2
243
230
2
242
229
1
242
229
1
242
229
1
241
228
0
241
228
0
242
229
1
242
229
1
242
229
1
242
229
1
242
229
1
242
229
1
242
229
1
242
229
1
244
230
0
244
230
0
244
230
0
244
230
0
244
230
0
244
230
0
244
230
0
244
230
0
244
231
3
244
231
3
243
230
2
243
230
2
243
230
2
242
229
1
242
229
1
242
229
1
245
231
0
245
231
0
245
231
0
245
231
0
245
231
0
245
231
0
245
231
0
245
231
0
243
231
0
243
231
0
243
231
0
244
232
0
244
232
0
245
233
1
245
233
1
245
233
1
244
231
3
244
231
3
243
230
2
243
230
2
243
230
2
242
229
1
242
229
1
242
229
1
236
223
0
241
228
0
244
231
3
243
230
1
240
228
0
239
227
0
242
230
0
246
234
0
249
226
0
255
237
20
243
225
0
255
242
32
253
253
9
184
184
2
33
14
10
10
0
14
30
24
26
30
24
26
3
0
0
43
39
40
206
204
205
249
249
249
248
248
248
249
249
249
244
244
244
244
244
244
244
244
244
244
244
244
244
244
244
244
244
244
244
244
244
244
244
244
244
244
244
244
244
244
243
243
243
243
243
243
243
243
243
242
242
242
242
242
242
242
242
242
244
244
244
244
244
244
244
244
244
244
244
244
244
244
244
244
244
244
244
244
244
244
244
244
244
244
244
244
244
244
244
244
244
244
244
244
244
244
244
244
244
244
244
244
244
244
244
244
243
243
243
243
243
243
243
243
243
243
243
243
243
243
243
243
243
243
243
243
243
243
243
243
243
243
243
243
243
243
243
243
243
243
243
243
243
243
243
243
243
243
243
243
243
243
243
243
242
242
242
242
242
242
242
242
242
242
242
242
242
242
242
242
242
242
242
242
242
242
242
242
243
243
243
245
245
245
245
245
245
245
245
245
245
245
245
245
245
245
245
245
245
245
245
245
245
245
245
244
244
244
244
244
244
244
244
244
245
245
245
245
245
245
246
246
246
246
246
246
246
246
246
245
245
245
245
245
245
245
245
245
245
245
245
245
245
245
245
245
245
245
245
245
245
245
245
246
246
246
246
246
246
246
246
246
245
245
245
245
245
245
244
244
244
244
244
244
244
244
244
245
245
245
245
245
245
245
245
245
245
245
245
245
245
245
245
245
245
245
245
245
245
245
245
246
246
246
246
246
246
246
246
246
245
245
245
245
245
245
244
244
244
244
244
244
244
244
244
244
244
244
244
244
244
244
244
244
244
244
244
244
244
244
244
244
244
244
244
244
244
244
244
254
254
254
224
224
224
247
247
247
164
164
164
12
12
12
21
21
21
8
8
8
36
36
36
30
11
15
84
65
32
231
238
0
238
238
0
244
231
2
246
230
12
223
208
0
255
249
15
248
235
9
244
230
11
248
233
18
251
237
18
242
229
3
235
223
0
236
224
0
235
222
0
243
230
2
243
230
2
243
230
2
243
230
2
243
230
2
243
230
2
243
230
2
243
230
2
243
230
2
243
230
2
242
229
1
242
229
1
242
229
1
241
228
0
241
228
0
241
228
0
242
229
1
242
229
1
242
229
1
242
229
1
242
229
1
242
229
1
242
229
1
242
229
1
244
230
0
244
230
0
244
230
0
244
230
0
244
230
0
244
230
0
244
230
0
244
230
0
244
231
3
244
231
3
243
230
2
243
230
2
243
230
2
242
229
1
242
229
1
242
229
1
245
231
0
245
231
0
245
231
0
245
231
0
245
231
0
245
231
0
245
231
0
245
231
0
243
231
0
243
231
0
243
231
0
244
232
0
244
232
0
245
233
1
245
233
1
245
233
1
244
231
3
244
231
3
243
230
2
243
230
2
243
230
2
242
229
1
242
229
1
242
229
1
242
230
0
245
233
0
247
235
3
245
232
3
238
225
0
234
221
0
238
226
0
246
234
2
235
219
0
252
232
15
255
231
25
243
226
0
243
230
0
242
237
0
208
204
8
48
21
0
17
11
13
18
12
14
25
21
22
31
27
28
21
19
20
225
225
225
249
249
249
247
247
247
244
244
244
244
244
244
244
244
244
244
244
244
244
244
244
244
244
244
244
244
244
244
244
244
244
244
244
244
244
244
243
243
243
243
243
243
243
243
243
242
242
242
242
242
242
242
242
242
244
244
244
244
244
244
244
244
244
244
244
244
244
244
244
244
244
244
244
244
244
244
244
244
244
244
244
244
244
244
244
244
244
244
244
244
244
244
244
244
244
244
244
244
244
244
244
244
243
243
243
243
243
243
243
243
243
243
243
243
243
243
243
243
243
243
243
243
243
243
243
243
243
243
243
243
243
243
243
243
243
243
243
243
243
243
243
243
243
243
243
243
243
243
243
243
242
242
242
242
242
242
242
242
242
242
242
242
242
242
242
242
242
242
242
242
242
242
242
242
244
244
244
245
245
245
245
245
245
245
245
245
245
245
245
245
245
245
245
245
245
245
245
245
245
245
245
244
244
244
244
244
244
244
244
244
245
245
245
245
245
245
246
246
246
246
246
246
246
246
246
245
245
245
245
245
245
245
245
245
245
245
245
245
245
245
245
245
245
245
245
245
245
245
245
246
246
246
246
246
246
246
246
246
245
245
245
245
245
245
244
244
244
244
244
244
244
244
244
245
245
245
245
245
245
245
245
245
245
245
245
245
245
245
245
245
245
245
245
245
245
245
245
246
246
246
246
246
246
246
246
246
245
245
245
245
245
245
244
244
244
244
244
244
244
244
244
244
244
244
244
244
244
244
244
244
244
244
244
244
244
244
244
244
244
244
244
244
244
244
244
238
238
238
255
255
255
173
173
173
9
9
9
16
16
16
19
19
19
35
35
35
0
0
0
110
100
3
224
227
16
240
235
13
247
234
18
250
235
10
242
230
0
253
245
0
237
229
0
245
235
0
246
235
0
242
230
0
234
222
0
235
224
0
243
232
0
246
233
5
243
229
10
243
230
2
243
230
2
243
230
2
243
230
2
243
230
2
243
230
2
243
230
2
243
230
2
243
230
2
243
230
2
242
229
1
242
229
1
241
228
0
241
228
0
241
228
0
241
228
0
242
229
1
242
229
1
242
229
1
242
229
1
242
229
1
242
229
1
242
229
1
242
229
1
244
230
0
244
230
0
244
230
0
244
230
0
244
230
0
244
230
0
244
230
0
244
230
0
244
231
3
244
231
3
243
230
2
243
230
2
243
230
2
242
229
1
242
229
1
242
229
1
245
231
0
245
231
0
245
231
0
245
231
0
245
231
0
245
231
0
245
231
0
245
231
0
243
231
0
243
231
0
243
231
0
244
232
0
244
232
0
245
233
1
245
233
1
245
233
1
244
231
3
244
231
3
243
230
2
243
230
2
243
230
2
242
229
1
242
229
1
242
229
1
242
231
0
238
226
0
242
230
0
250
237
8
250
237
9
242
229
1
241
228
0
247
234
5
252
240
16
243
228
3
239
221
0
253
233
0
242
224
0
248
229
12
249
234
45
224
219
0
39
33
35
10
4
6
33
29
30
25
21
22
6
4
5
31
31
31
228
228
228
236
236
236
244
244
244
244
244
244
244
244
244
244
244
244
244
244
244
244
244
244
244
244
244
244
244
244
244
244
244
244
244
244
243
243
243
243
243
243
243
243
243
242
242
242
242
242
242
242
242
242
244
244
244
244
244
244
244
244
244
244
244
244
244
244
244
244
244
244
244
244
244
244
244
244
244
244
244
244
244
244
244
244
244
244
244
244
244
244
244
244
244
244
244
244
244
244
244
244
243
243
243
243
243
243
243
243
243
243
243
243
243
243
243
243
243
243
243
243
243
243
243
243
243
243
243
243
243
243
243
243
243
243
243
243
243
243
243
243
243
243
243
243
243
243
243
243
242
242
242
242
242
242
242
242
242
242
242
242
242
242
242
242
242
242
242
242
242
242
242
242
244
244
244
245
245
245
245
245
245
246
246
246
246
246
246
246
246
246
247
247
247
247
247
247
247
247
247
246
246
246
246
246
246
246
246
246
246
246
246
246
246
246
246
246
246
246
246
246
246
246
246
246
246
246
246
246
246
246
246
246
246
246
246
246
246
246
246
246
246
246
246
246
246
246
246
246
246
246
246
246
246
246
246
246
245
245
245
245
245
245
244
244
244
244
244
244
244
244
244
244
244
244
244
244
244
244
244
244
245
245
245
245
245
245
246
246
246
246
246
246
246
246
246
245
245
245
245
245
245
245
245
245
245
245
245
245
245
245
245
245
245
245
245
245
245
245
245
243
243
243
248
248
248
231
231
231
248
248
248
243
243
243
243
243
243
243
243
243
227
227
227
255
252
250
210
201
228
16
22
10
0
2
9
25
31
45
27
18
47
19
0
10
115
106
3
243
230
2
243
230
2
243
230
2
243
230
2
243
230
2
243
230
2
243
230
2
243
230
2
243
230
2
243
230
2
242
229
1
242
229
1
242
229
1
241
228
0
241
228
0
241
228
0
243
230
2
243
230
2
243
230
2
243
230
2
243
230
2
243
230
2
243
230
2
243
230
2
228
219
18
225
219
0
255
245
11
243
228
0
242
223
0
244
216
10
255
226
30
249
228
0
254
224
4
247
229
0
233
225
0
233
230
15
233
235
2
234
229
5
249
233
24
239
221
0
245
231
0
245
231
0
245
231
0
245
231
0
245
231
0
245
231
0
245
231
0
245
231
0
244
229
2
244
229
2
244
229
2
244
229
2
244
229
2
244
229
2
244
229
2
244
229
2
234
217
25
239
233
0
238
233
0
252
237
30
252
236
19
255
236
0
252
224
0
255
227
26
238
221
0
255
238
17
238
218
0
247
226
0
247
225
28
251
233
27
232
221
0
250
241
22
245
233
1
245
233
1
245
233
1
244
232
0
244
232
0
243
231
0
243
231
0
243
231
0
242
229
1
242
229
1
242
229
1
242
229
1
242
229
1
242
229
1
242
229
1
242
229
1
246
232
1
246
232
1
246
232
1
245
231
0
245
231
0
244
230
0
244
230
0
244
230
0
210
206
0
48
24
0
23
11
11
12
13
17
10
18
20
0
0
23
66
58
79
240
229
227
247
247
247
243
243
243
242
242
242
248
248
248
243
243
243
243
243
243
238
238
238
242
242
242
243
243
243
243
243
243
243
243
243
244
244
244
244
244
244
245
245
245
245
245
245
245
245
245
245
245
245
245
245
245
245
245
245
245
245
245
245
245
245
245
245
245
245
245
245
245
245
245
246
246
246
246
246
246
246
246
246
245
245
245
245
245
245
244
244
244
244
244
244
244
244
244
243
243
243
243
243
243
243
243
243
244
244
244
244
244
244
244
244
244
245
245
245
245
245
245
245
245
245
245
245
245
244
244
244
244
244
244
244
244
244
243
243
243
243
243
243
243
243
243
243
243
243
243
243
243
243
243
243
243
243
243
243
243
243
243
243
243
243
243
243
243
243
243
244
244
244
245
245
245
245
245
245
245
245
245
246
246
246
246
246
246
247
247
247
247
247
247
247
247
247
246
246
246
246
246
246
246
246
246
246
246
246
246
246
246
246
246
246
246
246
246
246
246
246
246
246
246
246
246
246
246
246
246
246
246
246
246
246
246
246
246
246
246
246
246
246
246
246
246
246
246
246
246
246
246
246
246
245
245
245
245
245
245
244
244
244
244
244
244
244
244
244
244
244
244
244
244
244
244
244
244
245
245
245
245
245
245
246
246
246
246
246
246
246
246
246
245
245
245
245
245
245
245
245
245
245
245
245
245
245
245
245
245
245
245
245
245
245
245
245
238
238
238
255
255
255
241
241
241
244
244
244
252
252
252
236
236
236
255
255
255
248
248
248
233
220
248
19
25
0
0
3
10
40
49
30
12
10
32
7
0
30
79
64
7
228
230
23
243
230
2
243
230
2
243
230
2
243
230
2
243
230
2
243
230
2
243
230
2
243
230
2
243
230
2
243
230
2
242
229
1
242
229
1
242
229
1
241
228
0
241
228
0
241
228
0
243
230
2
243
230
2
243
230
2
243
230
2
243
230
2
243
230
2
243
230
2
243
230
2
232
222
0
255
252
16
225
214
0
249
234
9
253
237
20
242
226
6
248
232
25
244
221
53
255
248
0
243
225
3
226
215
0
248
239
10
245
235
24
230
225
0
252
243
0
248
227
40
245
231
0
245
231
0
245
231
0
245
231
0
245
231
0
245
231
0
245
231
0
245
231
0
244
229
2
244
229
2
244
229
2
244
229
2
244
229
2
244
229
2
244
229
2
244
229
2
255
250
12
231
219
0
229
215
0
255
252
13
227
211
0
254
233
18
253
234
8
235
220
0
239
223
24
244
234
0
255
243
22
237
220
10
243
232
0
236
227
0
241
230
0
237
229
0
245
233
1
245
233
1
245
233
1
244
232
0
244
232
0
243
231
0
243
231
0
243
231
0
242
229
1
242
229
1
242
229
1
242
229
1
242
229
1
242
229
1
242
229
1
242
229
1
246
232
1
246
232
1
246
232
1
245
231
0
245
231
0
244
230
0
244
230
0
244
230
0
232
223
20
218
219
21
35
16
22
12
6
16
28
31
40
15
20
0
1
0
0
100
89
106
240
240
240
238
238
238
251
251
251
243
243
243
228
228
228
248
248
248
246
246
246
246
246
246
243
243
243
243
243
243
243
243
243
244
244
244
244
244
244
244
244
244
245
245
245
245
245
245
245
245
245
245
245
245
245
245
245
245
245
245
245
245
245
245
245
245
245
245
245
245
245
245
246
246
246
246
246
246
246
246
246
245
245
245
245
245
245
244
244
244
244
244
244
244
244
244
243
243
243
243
243
243
243
243
243
244
244
244
244
244
244
245
245
245
245
245
245
245
245
245
245
245
245
245
245
245
244
244
244
244
244
244
244
244
244
243
243
243
243
243
243
243
243
243
243
243
243
243
243
243
243
243
243
243
243
243
243
243
243
243
243
243
243
243
243
243
243
243
244
244
244
245
245
245
245
245
245
245
245
245
245
245
245
246
246
246
246
246
246
247
247
247
247
247
247
246
246
246
246
246
246
246
246
246
246
246
246
246
246
246
246
246
246
246
246
246
246
246
246
246
246
246
246
246
246
246
246
246
246
246
246
246
246
246
246
246
246
246
246
246
246
246
246
246
246
246
246
246
246
246
246
246
245
245
245
245
245
245
244
244
244
244
244
244
244
244
244
244
244
244
244
244
244
244
244
244
245
245
245
245
245
245
246
246
246
246
246
246
246
246
246
245
245
245
245
245
245
245
245
245
245
245
245
245
245
245
245
245
245
245
245
245
245
245
245
255
255
255
238
238
238
255
255
255
246
246
246
237
237
237
255
255
255
239
239
239
230
230
230
72
73
68
0
1
0
19
26
0
17
16
22
6
0
16
77
61
38
231
235
1
239
235
3
243
230
2
243
230
2
243
230
2
243
230
2
243
230
2
243
230
2
243
230
2
243
230
2
243
230
2
243
230
2
242
229
1
242
229
1
242
229
1
241
228
0
241
228
0
241
228
0
242
229
1
242
229
1
242
229
1
242
229
1
242
229
1
242
229
1
242
229
1
242
229
1
255
238
0
255
237
28
250
237
8
232
228
0
229
227
0
253
255
21
220
228
0
237
248
0
239
231
24
247
241
7
251
238
9
240
221
4
234
217
0
255
255
6
231
220
0
255
242
29
245
231
0
245
231
0
245
231
0
245
231
0
245
231
0
245
231
0
245
231
0
245
231
0
244
229
2
244
229
2
244
229
2
244
229
2
244
229
2
244
229
2
244
229
2
244
229
2
239
233
0
250
239
9
255
243
10
242
223
0
254
238
0
236
224
2
237
231
33
239
238
52
241
243
20
231
232
6
250
252
5
241
240
0
249
237
27
241
222
34
234
215
17
249
230
16
245
233
1
245
233
1
245
233
1
244
232
0
244
232
0
243
231
0
243
231
0
243
231
0
242
229
1
242
229
1
242
229
1
242
229
1
242
229
1
242
229
1
242
229
1
242
229
1
246
232
1
246
232
1
246
232
1
245
231
0
245
231
0
244
230
0
244
230
0
244
230
0
238
226
0
249
247
4
182
182
10
25
7
33
36
33
26
8
11
0
26
30
5
3
0
18
126
126
126
248
248
248
248
248
248
246
246
246
246
246
246
247
247
247
242
242
242
241
241
241
242
242
242
243
243
243
243
243
243
243
243
243
244
244
244
244
244
244
244
244
244
244
244
244
245
245
245
245
245
245
245
245
245
245
245
245
245
245
245
245
245
245
245
245
245
245
245
245
246
246
246
246
246
246
246
246
246
245
245
245
245
245
245
244
244
244
244
244
244
244
244
244
243
243
243
243
243
243
244
244
244
244
244
244
245
245
245
245
245
245
245
245
245
245
245
245
245
245
245
245
245
245
244
244
244
244
244
244
244
244
244
243
243
243
243
243
243
243
243
243
243
243
243
243
243
243
243
243
243
243
243
243
243
243
243
243
243
243
243
243
243
243
243
243
244
244
244
244
244
244
244
244
244
245
245
245
245
245
245
245
245
245
246
246
246
246
246
246
246
246
246
246
246
246
246
246
246
246
246
246
246
246
246
246
246
246
246
246
246
246
246
246
246
246
246
246
246
246
246
246
246
246
246
246
246
246
246
246
246
246
246
246
246
246
246
246
246
246
246
246
246
246
246
246
246
246
246
246
245
245
245
245
245
245
244
244
244
244
244
244
244
244
244
244
244
244
244
244
244
244
244
244
245
245
245
245
245
245
246
246
246
246
246
246
246
246
246
245
245
245
245
245
245
245
245
245
245
245
245
245
245
245
245
245
245
245
245
245
245
245
245
246
246
246
239
239
239
246
246
246
236
236
236
255
255
255
242
242
242
254
254
254
99
99
99
0
4
0
30
30
40
21
19
22
11
0
6
54
30
43
229
234
0
233
233
0
248
234
21
243
230
2
243
230
2
243
230
2
243
230
2
243
230
2
243
230
2
243
230
2
243
230
2
243
230
2
243
230
2
242
229
1
242
229
1
242
229
1
241
228
0
241
228
0
241
228
0
242
229
1
242
229
1
242
229
1
242
229
1
242
229
1
242
229
1
242
229
1
242
229
1
252
225
11
233
212
0
250
244
0
229
229
9
163
154
51
61
43
33
20
2
14
18
0
22
128
118
31
187
180
14
236
224
14
247
227
0
255
237
0
223
199
0
255
255
53
232
228
0
245
231
0
245
231
0
245
231
0
245
231
0
245
231
0
245
231
0
245
231
0
245
231
0
244
229
2
244
229
2
244
229
2
244
229
2
244
229
2
244
229
2
244
229
2
244
229
2
239
232
2
250
236
13
230
212
0
250
232
0
240
229
0
251
248
49
145
144
28
39
37
0
15
0
25
21
0
25
122
114
13
212
221
0
228
229
0
245
235
16
242
227
0
255
237
0
245
233
1
245
233
1
245
233
1
244
232
0
244
232
0
243
231
0
243
231
0
243
231
0
243
230
2
243
230
2
243
230
2
243
230
2
243
230
2
243
230
2
243
230
2
243
230
2
246
232
1
246
232
1
246
232
1
245
231
0
245
231
0
244
230
0
244
230
0
244
230
0
244
228
0
245
234
0
249
252
0
180
177
34
11
0
11
31
27
18
29
26
33
6
8
5
9
9
9
165
165
165
247
247
247
255
255
255
249
249
249
249
249
249
237
237
237
238
238
238
242
242
242
242
242
242
242
242
242
243
243
243
243
243
243
244
244
244
244
244
244
244
244
244
244
244
244
244
244
244
244
244
244
244
244
244
244
244
244
244
244
244
244
244
244
244
244
244
246
246
246
246
246
246
246
246
246
245
245
245
245
245
245
244
244
244
244
244
244
244
244
244
244
244
244
244
244
244
244
244
244
245
245
245
245
245
245
245
245
245
246
246
246
246
246
246
245
245
245
245
245
245
244
244
244
244
244
244
244
244
244
243
243
243
243
243
243
243
243
243
243
243
243
243
243
243
243
243
243
243
243
243
243
243
243
243
243
243
243
243
243
243
243
243
245
245
245
244
244
244
244
244
244
244
244
244
245
245
245
245
245
245
245
245
245
246
246
246
246
246
246
246
246
246
246
246
246
246
246
246
246
246
246
246
246
246
246
246
246
246
246
246
246
246
246
246
246
246
246
246
246
246
246
246
246
246
246
246
246
246
246
246
246
246
246
246
246
246
246
246
246
246
246
246
246
246
246
246
245
245
245
245
245
245
244
244
244
244
244
244
244
244
244
244
244
244
244
244
244
244
244
244
245
245
245
245
245
245
246
246
246
246
246
246
246
246
246
245
245
245
245
245
245
245
245
245
245
245
245
245
245
245
245
245
245
245
245
245
245
245
245
230
230
230
255
255
255
238
238
238
248
248
248
245
245
245
255
255
255
157
157
157
1
1
1
24
28
37
16
15
23
23
13
12
40
10
48
206
204
8
235
232
0
236
225
0
251
235
17
243
230
2
243
230
2
243
230
2
243
230
2
243
230
2
243
230
2
243
230
2
243
230
2
243
230
2
243
230
2
242
229
1
242
229
1
242
229
1
241
228
0
241
228
0
241
228
0
242
229
1
242
229
1
242
229
1
242
229
1
242
229
1
242
229
1
242
229
1
242
229
1
243
217
16
245
236
0
221
215
17
68
48
21
14
0
23
27
21
9
10
7
0
15
7
18
29
20
5
36
16
7
151
136
7
255
255
4
243
223
0
234
210
16
247
231
11
246
239
0
245
231
0
245
231
0
245
231
0
245
231
0
245
231
0
245
231
0
245
231
0
245
231
0
244
229
2
244
229
2
244
229
2
244
229
2
244
229
2
244
229
2
244
229
2
244
229
2
242
234
0
222
206
0
247
231
14
254
245
0
223
214
21
50
35
0
6
0
2
21
25
8
32
23
16
27
17
18
8
0
23
14
0
0
191
188
35
247
242
28
238
223
8
255
240
0
245
233
1
245
233
1
245
233
1
244
232
0
244
232
0
243
231
0
243
231
0
243
231
0
243
230
2
243
230
2
243
230
2
243
230
2
243
230
2
243
230
2
243
230
2
243
230
2
246
232
1
246
232
1
246
232
1
245
231
0
245
231
0
244
230
0
244
230
0
244
230
0
255
239
13
246
231
0
245
235
0
236
238
0
164
153
47
28
8
33
12
5
13
23
22
28
13
13
13
15
15
15
206
206
206
250
250
250
246
246
246
239
239
239
247
247
247
240
240
240
241
241
241
242
242
242
242
242
242
242
242
242
243
243
243
243
243
243
243
243
243
244
244
244
244
244
244
244
244
244
244
244
244
244
244
244
244
244
244
244
244
244
244
244
244
244
244
244
246
246
246
246
246
246
246
246
246
245
245
245
245
245
245
244
244
244
244
244
244
244
244
244
244
244
244
244
244
244
245
245
245
245
245
245
245
245
245
246
246
246
246
246
246
246
246
246
245
245
245
245
245
245
244
244
244
244
244
244
244
244
244
243
243
243
243
243
243
243
243
243
243
243
243
243
243
243
243
243
243
243
243
243
243
243
243
243
243
243
243
243
243
243
243
243
245
245
245
243
243
243
243
243
243
244
244
244
244
244
244
245
245
245
245
245
245
245
245
245
245
245
245
246
246
246
246
246
246
246
246
246
246
246
246
246
246
246
246
246
246
246
246
246
246
246
246
246
246
246
246
246
246
246
246
246
246
246
246
246
246
246
246
246
246
246
246
246
246
246
246
246
246
246
246
246
246
246
246
246
245
245
245
245
245
245
244
244
244
244
244
244
244
244
244
244
244
244
244
244
244
244
244
244
245
245
245
245
245
245
246
246
246
246
246
246
246
246
246
245
245
245
245
245
245
245
245
245
245
245
245
245
245
245
245
245
245
245
245
245
245
245
245
245
245
245
237
237
237
249
249
249
255
255
255
238
238
238
213
213
213
6
6
6
13
13
13
24
23
57
23
21
0
26
4
17
182
171
17
238
233
0
245
232
0
254
234
39
233
221
0
243
230
2
243
230
2
243
230
2
243
230
2
243
230
2
243
230
2
243
230
2
243
230
2
243
230
2
243
230
2
242
229
1
242
229
1
242
229
1
241
228
0
241
228
0
241
228
0
241
228
0
241
228
0
241
228
0
241
228
0
241
228
0
241
228
0
241
228
0
241
228
0
246
236
27
228
226
17
50
38
0
22
2
55
31
25
39
4
8
0
32
30
31
40
30
65
3
0
9
28
8
57
18
0
0
173
163
16
244
237
11
248
234
11
244
227
13
250
232
8
245
231
0
245
231
0
245
231
0
245
231
0
245
231
0
245
231
0
245
231
0
245
231
0
244
229
2
244
229
2
244
229
2
244
229
2
244
229
2
244
229
2
244
229
2
244
229
2
246
230
0
239
228
0
252
246
14
198
190
27
43
25
0
14
0
45
37
27
61
17
23
0
29
22
29
38
39
8
9
5
2
41
27
60
11
3
0
185
184
5
252
246
12
253
234
20
245
233
1
245
233
1
245
233
1
244
232
0
244
232
0
243
231
0
243
231
0
243
231
0
244
231
3
244
231
3
244
231
3
244
231
3
244
231
3
244
231
3
244
231
3
244
231
3
246
232
1
246
232
1
246
232
1
245
231
0
245
231
0
244
230
0
244
230
0
244
230
0
243
231
0
252
231
28
233
214
0
239
227
0
253
255
0
134
116
52
10
0
7
20
12
23
31
31
31
8
8
8
41
41
41
252
252
252
231
231
231
255
255
255
228
228
228
248
248
248
241
241
241
241
241
241
241
241
241
242
242
242
242
242
242
243
243
243
243
243
243
243
243
243
243
243
243
243
243
243
243
243
243
243
243
243
243
243
243
243
243
243
243
243
243
243
243
243
246
246
246
246
246
246
246
246
246
245
245
245
245
245
245
244
244
244
244
244
244
244
244
244
245
245
245
245
245
245
245
245
245
245
245
245
246
246
246
246
246
246
247
247
247
247
247
247
245
245
245
245
245
245
244
244
244
244
244
244
244
244
244
243
243
243
243
243
243
243
243
243
243
243
243
243
243
243
243
243
243
243
243
243
243
243
243
243
243
243
243
243
243
243
243
243
246
246
246
243
243
243
243
243
243
243
243
243
244
244
244
244
244
244
245
245
245
245
245
245
245
245
245
246
246
246
246
246
246
246
246
246
246
246
246
246
246
246
246
246
246
246
246
246
246
246
246
246
246
246
246
246
246
246
246
246
246
246
246
246
246
246
246
246
246
246
246
246
246
246
246
246
246
246
246
246
246
246
246
246
245
245
245
245
245
245
244
244
244
244
244
244
244
244
244
244
244
244
244
244
244
244
244
244
245
245
245
245
245
245
246
246
246
246
246
246
246
246
246
245
245
245
245
245
245
245
245
245
245
245
245
245
245
245
245
245
245
245
245
245
245
245
245
249
249
249
240
240
240
243
243
243
238
238
238
237
237
237
45
45
45
6
6
6
27
27
27
27
23
38
8
0
0
149
138
20
249
245
0
250
237
0
255
231
56
238
226
0
238
227
0
243
230
2
243
230
2
243
230
2
243
230
2
243
230
2
243
230
2
243
230
2
243
230
2
243
230
2
243
230
2
242
229
1
242
229
1
242
229
1
241
228
0
241
228
0
241
228
0
241
228
0
241
228
0
241
228
0
241
228
0
241
228
0
241
228
0
241
228
0
241
228
0
219
231
0
118
112
14
7
0
35
3
0
51
24
27
34
37
37
37
23
17
21
20
13
0
33
29
44
21
16
22
30
16
52
11
0
0
195
193
30
248
245
10
240
221
5
253
227
6
245
231
0
245
231
0
245
231
0
245
231
0
245
231
0
245
231
0
245
231
0
245
231
0
244
229
2
244
229
2
244
229
2
244
229
2
244
229
2
244
229
2
244
229
2
244
229
2
241
216
2
253
244
0
212
211
5
72
66
6
23
10
56
10
2
41
34
30
27
14
8
0
16
15
0
9
11
0
38
46
9
7
4
25
16
0
72
64
49
10
220
216
3
234
227
0
245
233
1
245
233
1
245
233
1
244
232
0
244
232
0
243
231
0
243
231
0
243
231
0
244
231
3
244
231
3
244
231
3
244
231
3
244
231
3
244
231
3
244
231
3
244
231
3
246
232
1
246
232
1
246
232
1
245
231
0
245
231
0
244
230
0
244
230
0
244
230
0
240
229
0
247
231
14
255
233
27
246
227
0
244
234
0
231
231
0
92
74
50
8
0
0
21
21
21
22
22
22
3
3
3
100
100
100
255
255
255
220
220
220
249
249
249
238
238
238
241
241
241
241
241
241
241
241
241
242
242
242
242
242
242
242
242
242
243
243
243
243
243
243
243
243
243
243
243
243
243
243
243
243
243
243
243
243
243
243
243
243
243
243
243
243
243
243
246
246
246
246
246
246
246
246
246
245
245
245
245
245
245
244
244
244
244
244
244
244
244
244
245
245
245
245
245
245
245
245
245
246
246
246
246
246
246
247
247
247
247
247
247
247
247
247
245
245
245
245
245
245
244
244
244
244
244
244
244
244
244
243
243
243
243
243
243
243
243
243
243
243
243
243
243
243
243
243
243
243
243
243
243
243
243
243
243
243
243
243
243
243
243
243
246
246
246
243
243
243
243
243
243
243
243
243
244
244
244
244
244
244
244
244
244
245
245
245
245
245
245
246
246
246
246
246
246
246
246
246
246
246
246
246
246
246
246
246
246
246
246
246
246
246
246
246
246
246
246
246
246
246
246
246
246
246
246
246
246
246
246
246
246
246
246
246
246
246
246
246
246
246
246
246
246
246
246
246
245
245
245
245
245
245
244
244
244
244
244
244
244
244
244
244
244
244
244
244
244
244
244
244
245
245
245
245
245
245
246
246
246
246
246
246
246
246
246
245
245
245
245
245
245
245
245
245
245
245
245
245
245
245
245
245
245
245
245
245
245
245
245
233
233
233
255
255
255
232
232
232
246
246
246
126
126
126
6
6
6
21
21
21
30
30
30
4
0
16
88
80
15
234
234
24
242
231
0
255
232
16
245
227
0
255
245
22
234
226
0
243
230
2
243
230
2
243
230
2
243
230
2
243
230
2
243
230
2
243
230
2
243
230
2
243
230
2
243
230
2
242
229
1
242
229
1
242
229
1
241
228
0
241
228
0
241
228
0
241
228
0
241
228
0
241
228
0
241
228
0
241
228
0
241
228
0
241
228
0
241
228
0
178
184
22
9
1
0
14
9
31
28
37
16
6
15
0
12
14
3
33
25
23
30
9
40
17
17
7
11
12
4
20
21
25
10
5
27
57
48
5
221
220
18
243
230
0
250
219
6
245
231
0
245
231
0
245
231
0
245
231
0
245
231
0
245
231
0
245
231
0
245
231
0
244
229
2
244
229
2
244
229
2
244
229
2
244
229
2
244
229
2
244
229
2
244
229
2
255
231
0
255
237
39
136
129
12
9
9
0
20
24
23
30
32
27
19
14
11
36
20
31
20
12
35
27
25
39
0
1
10
27
33
21
25
22
17
15
0
13
122
102
29
243
241
0
245
233
1
245
233
1
245
233
1
244
232
0
244
232
0
243
231
0
243
231
0
243
231
0
244
231
3
244
231
3
244
231
3
244
231
3
244
231
3
244
231
3
244
231
3
244
231
3
246
232
1
246
232
1
246
232
1
245
231
0
245
231
0
244
230
0
244
230
0
244
230
0
232
221
15
243
231
0
238
220
0
255
236
4
249
231
0
247
239
16
215
217
30
11
0
0
4
4
4
15
15
15
27
27
27
0
0
0
178
178
178
255
255
255
239
239
239
248
248
248
240
240
240
241
241
241
241
241
241
241
241
241
242
242
242
242
242
242
242
242
242
243
243
243
243
243
243
243
243
243
243
243
243
243
243
243
243
243
243
243
243
243
243
243
243
243
243
243
246
246
246
246
246
246
246
246
246
245
245
245
245
245
245
244
244
244
244
244
244
244
244
244
245
245
245
245
245
245
246
246
246
246
246
246
246
246
246
247
247
247
247
247
247
247
247
247
245
245
245
245
245
245
244
244
244
244
244
244
244
244
244
243
243
243
243
243
243
243
243
243
243
243
243
243
243
243
243
243
243
243
243
243
243
243
243
243
243
243
243
243
243
243
243
243
246
246
246
245
245
245
245
245
245
245
245
245
245
245
245
245
245
245
245
245
245
245
245
245
245
245
245
245
245
245
245
245
245
245
245
245
245
245
245
245
245
245
245
245
245
245
245
245
245
245
245
245
245
245
245
245
245
245
245
245
245
245
245
245
245
245
245
245
245
245
245
245
245
245
245
243
243
243
243
243
243
243
243
243
243
243
243
243
243
243
243
243
243
243
243
243
243
243
243
244
244
244
244
244
244
244
244
244
244
244
244
244
244
244
244
244
244
244
244
244
244
244
244
243
243
243
232
232
232
236
236
236
252
252
252
252
252
252
237
237
237
236
236
236
249
249
249
251
255
238
233
236
229
255
248
255
188
191
162
1
0
12
15
13
14
26
30
5
13
9
44
70
41
0
211
194
46
254
248
16
245
238
0
247
232
7
245
222
20
254
232
7
243
224
0
242
229
1
242
229
1
242
229
1
242
229
1
242
229
1
242
229
1
242
229
1
242
229
1
242
229
1
242
229
1
242
229
1
242
229
1
242
229
1
242
229
1
242
229
1
242
229
1
247
226
0
242
229
1
238
232
12
247
236
20
237
219
0
247
227
8
235
225
3
239
243
0
53
49
50
30
26
27
14
10
11
21
17
18
32
28
29
31
27
28
22
18
19
17
13
14
20
18
6
28
19
40
24
21
2
13
15
1
0
0
28
137
139
38
236
236
0
255
229
25
245
231
0
245
231
0
245
231
0
245
231
0
245
231
0
245
231
0
245
231
0
245
231
0
240
228
0
243
231
0
243
230
2
240
227
1
244
230
7
247
233
10
241
227
4
231
218
0
237
240
3
199
201
16
10
0
51
30
25
48
19
36
0
27
24
55
31
23
46
23
14
9
20
16
17
15
12
7
26
21
27
29
27
12
24
23
2
24
13
53
9
7
0
190
217
28
255
242
0
252
232
13
255
236
22
249
235
6
235
223
0
241
229
0
255
243
7
234
215
0
242
229
1
242
229
1
242
229
1
242
229
1
242
229
1
242
229
1
242
229
1
242
229
1
243
230
2
243
230
2
243
230
2
243
230
2
243
230
2
243
230
2
243
230
2
243
230
2
247
234
6
246
233
5
245
232
4
243
230
2
241
228
0
239
226
0
237
224
0
236
223
0
5
2
9
30
26
14
30
18
30
23
11
0
37
26
24
233
223
248
235
239
224
235
244
239
236
236
236
237
237
237
238
238
238
236
236
236
248
248
248
240
240
240
255
255
255
236
236
236
246
246
246
246
246
246
246
246
246
246
246
246
246
246
246
246
246
246
246
246
246
246
246
246
244
244
244
244
244
244
244
244
244
244
244
244
244
244
244
244
244
244
244
244
244
244
244
244
244
244
244
246
246
246
248
248
248
249
249
249
249
249
249
247
247
247
244
244
244
242
242
242
244
244
244
244
244
244
244
244
244
244
244
244
244
244
244
244
244
244
244
244
244
244
244
244
243
243
243
243
243
243
243
243
243
243
243
243
243
243
243
243
243
243
243
243
243
243
243
243
242
242
242
245
245
245
245
245
245
245
245
245
245
245
245
245
245
245
245
245
245
245
245
245
245
245
245
245
245
245
245
245
245
245
245
245
245
245
245
245
245
245
245
245
245
245
245
245
245
245
245
245
245
245
245
245
245
245
245
245
245
245
245
245
245
245
245
245
245
245
245
245
245
245
245
243
243
243
243
243
243
243
243
243
243
243
243
243
243
243
243
243
243
243
243
243
243
243
243
244
244
244
244
244
244
244
244
244
244
244
244
244
244
244
244
244
244
244
244
244
244
244
244
244
244
244
244
244
244
246
246
246
248
248
248
242
242
242
235
235
235
240
240
240
250
250
250
236
241
237
239
237
255
245
248
227
35
31
45
27
28
0
15
7
28
13
9
8
18
19
1
180
161
23
242
232
39
241
235
0
238
231
0
244
230
0
232
212
1
245
222
4
249
230
0
242
229
1
242
229
1
242
229
1
242
229
1
242
229
1
242
229
1
242
229
1
242
229
1
242
229
1
242
229
1
242
229
1
242
229
1
242
229
1
242
229
1
242
229
1
242
229
1
248
227
0
240
226
5
239
231
8
247
235
13
237
219
0
247
231
0
237
230
0
199
198
9
18
14
15
23
19
20
26
22
23
24
20
21
21
17
18
21
17
18
23
19
20
23
19
20
14
12
13
30
25
19
29
22
29
12
13
0
20
17
36
59
55
7
231
230
0
248
223
8
245
231
0
245
231
0
245
231
0
245
231
0
245
231
0
245
231
0
245
231
0
245
231
0
240
228
0
245
233
1
242
229
0
240
227
0
246
233
5
246
233
5
241
228
0
240
227
0
238
243
1
125
115
17
10
0
21
30
27
38
22
28
0
21
20
25
26
19
37
19
11
9
19
14
18
18
15
6
28
23
29
24
21
16
23
21
6
26
18
42
10
7
0
127
145
11
255
242
0
250
231
7
248
230
8
252
238
7
242
228
0
239
226
0
250
236
5
238
222
4
242
229
1
242
229
1
242
229
1
242
229
1
242
229
1
242
229
1
242
229
1
242
229
1
243
230
2
243
230
2
243
230
2
243
230
2
243
230
2
243
230
2
243
230
2
243
230
2
246
233
5
246
233
5
244
231
3
243
230
2
241
228
0
239
226
0
238
225
0
237
224
0
120
125
23
16
2
19
25
13
25
29
20
21
10
4
8
112
112
104
253
251
255
242
245
236
245
245
245
241
241
241
244
244
244
236
236
236
244
244
244
243
243
243
254
254
254
236
236
236
246
246
246
246
246
246
246
246
246
246
246
246
246
246
246
246
246
246
246
246
246
246
246
246
244
244
244
244
244
244
244
244
244
244
244
244
244
244
244
244
244
244
244
244
244
244
244
244
244
244
244
246
246
246
248
248
248
249
249
249
249
249
249
247
247
247
244
244
244
242
242
242
244
244
244
244
244
244
244
244
244
244
244
244
244
244
244
244
244
244
244
244
244
244
244
244
243
243
243
243
243
243
243
243
243
243
243
243
243
243
243
243
243
243
243
243
243
243
243
243
242
242
242
245
245
245
245
245
245
245
245
245
245
245
245
245
245
245
245
245
245
245
245
245
245
245
245
245
245
245
245
245
245
245
245
245
245
245
245
245
245
245
245
245
245
245
245
245
245
245
245
245
245
245
245
245
245
245
245
245
245
245
245
245
245
245
245
245
245
245
245
245
245
245
245
243
243
243
243
243
243
243
243
243
243
243
243
243
243
243
243
243
243
243
243
243
243
243
243
244
244
244
244
244
244
244
244
244
244
244
244
244
244
244
244
244
244
244
244
244
244
244
244
244
244
244
250
250
250
252
252
252
246
246
246
241
241
241
242
242
242
244
244
244
244
244
244
232
230
251
254
254
255
143
147
122
1
1
0
31
28
19
36
28
26
7
0
23
116
124
5
239
233
13
252
246
10
232
227
0
240
233
0
248
235
0
236
218
0
246
225
10
251
228
12
242
229
1
242
229
1
242
229
1
242
229
1
242
229
1
242
229
1
242
229
1
242
229
1
242
229
1
242
229
1
242
229
1
242
229
1
242
229
1
242
229
1
242
229
1
242
229
1
247
230
0
237
223
10
238
232
0
242
231
1
238
217
4
248
235
0
235
233
0
138
126
24
3
0
0
15
11
12
29
25
26
23
19
20
14
10
11
17
13
14
24
20
21
26
22
23
18
15
26
22
21
0
32
19
49
11
12
0
29
28
33
9
0
11
176
173
0
240
226
0
245
231
0
245
231
0
245
231
0
245
231
0
245
231
0
245
231
0
245
231
0
245
231
0
241
228
0
247
234
5
242
229
0
240
228
0
248
236
2
244
232
0
241
229
0
252
240
6
217
225
2
39
18
15
18
8
0
30
29
27
23
21
43
13
17
0
22
16
26
17
8
11
20
15
21
21
19
6
30
26
27
19
13
25
21
18
13
25
21
22
15
11
8
48
52
2
246
230
12
245
231
0
239
225
0
254
240
11
248
235
0
237
224
0
245
230
3
245
229
9
242
229
1
242
229
1
242
229
1
242
229
1
242
229
1
242
229
1
242
229
1
242
229
1
242
229
1
242
229
1
242
229
1
242
229
1
242
229
1
242
229
1
242
229
1
242
229
1
245
232
4
245
232
4
244
231
3
242
229
1
241
228
0
240
227
0
239
226
0
238
225
0
229
233
22
65
48
22
16
2
27
21
17
31
15
16
18
6
7
0
200
193
209
255
254
248
243
243
243
237
237
237
251
251
251
241
241
241
239
239
239
242
242
242
248
248
248
240
240
240
246
246
246
246
246
246
246
246
246
246
246
246
246
246
246
246
246
246
246
246
246
246
246
246
244
244
244
244
244
244
244
244
244
244
244
244
244
244
244
244
244
244
244
244
244
244
244
244
244
244
244
246
246
246
248
248
248
249
249
249
249
249
249
247
247
247
244
244
244
242
242
242
244
244
244
244
244
244
244
244
244
244
244
244
244
244
244
244
244
244
244
244
244
244
244
244
243
243
243
243
243
243
243
243
243
243
243
243
243
243
243
243
243
243
243
243
243
243
243
243
242
242
242
245
245
245
245
245
245
245
245
245
245
245
245
245
245
245
245
245
245
245
245
245
245
245
245
245
245
245
245
245
245
245
245
245
245
245
245
245
245
245
245
245
245
245
245
245
245
245
245
244
244
244
244
244
244
244
244
244
244
244
244
244
244
244
244
244
244
244
244
244
244
244
244
243
243
243
243
243
243
243
243
243
243
243
243
243
243
243
243
243
243
243
243
243
243
243
243
244
244
244
244
244
244
244
244
244
244
244
244
244
244
244
244
244
244
244
244
244
244
244
244
242
242
242
246
246
246
248
248
248
248
248
248
249
249
249
250
250
250
246
246
246
240
240
240
249
247
255
199
200
195
9
10
4
29
31
9
23
9
44
20
5
8
57
43
17
214
226
18
231
227
0
242
236
0
238
227
0
243
230
1
244
232
0
242
228
0
253
235
15
243
223
14
242
229
1
242
229
1
242
229
1
242
229
1
242
229
1
242
229
1
242
229
1
242
229
1
242
229
1
242
229
1
242
229
1
242
229
1
242
229
1
242
229
1
242
229
1
242
229
1
245
230
0
236
221
16
238
231
0
240
228
0
240
219
8
247
236
0
225
226
2
73
55
35
3
0
0
12
8
9
20
16
17
18
14
15
17
13
14
21
17
18
24
20
21
24
20
21
25
22
33
13
10
0
29
17
39
15
12
7
20
22
21
21
8
51
83
73
0
242
240
0
246
232
1
246
232
1
246
232
1
246
232
1
246
232
1
246
232
1
246
232
1
246
232
1
241
228
2
248
235
7
242
230
0
240
228
0
249
238
0
243
232
0
241
229
0
255
245
9
162
167
5
13
0
21
27
18
9
29
25
24
22
17
49
12
15
0
24
19
25
17
11
13
24
19
26
22
20
5
31
27
24
19
11
34
20
15
22
20
18
3
24
20
17
3
0
19
215
198
20
245
235
0
236
226
0
253
236
9
251
235
0
242
226
0
243
227
7
246
233
5
242
229
1
242
229
1
242
229
1
242
229
1
242
229
1
242
229
1
242
229
1
242
229
1
242
229
1
242
229
1
242
229
1
242
229
1
242
229
1
242
229
1
242
229
1
242
229
1
244
231
3
243
230
2
243
230
2
242
229
1
241
228
0
241
228
0
240
227
0
240
227
0
246
241
0
190
183
30
15
0
5
25
23
44
13
19
15
19
17
39
60
52
50
255
243
240
242
242
242
234
234
234
250
250
250
246
246
246
238
238
238
239
239
239
240
240
240
245
245
245
245
245
245
245
245
245
245
245
245
245
245
245
245
245
245
245
245
245
245
245
245
245
245
245
244
244
244
244
244
244
244
244
244
244
244
244
244
244
244
244
244
244
244
244
244
244
244
244
244
244
244
246
246
246
248
248
248
249
249
249
249
249
249
247
247
247
244
244
244
242
242
242
244
244
244
244
244
244
244
244
244
244
244
244
244
244
244
244
244
244
244
244
244
244
244
244
243
243
243
243
243
243
243
243
243
243
243
243
243
243
243
243
243
243
243
243
243
243
243
243
243
243
243
245
245
245
245
245
245
245
245
245
245
245
245
245
245
245
245
245
245
245
245
245
245
245
245
245
245
245
245
245
245
245
245
245
245
245
245
245
245
245
245
245
245
245
245
245
245
245
245
244
244
244
244
244
244
244
244
244
244
244
244
244
244
244
244
244
244
244
244
244
244
244
244
243
243
243
243
243
243
243
243
243
243
243
243
243
243
243
243
243
243
243
243
243
243
243
243
244
244
244
244
244
244
244
244
244
244
244
244
244
244
244
244
244
244
244
244
244
244
244
244
240
240
240
241
241
241
245
245
245
247
247
247
246
246
246
243
243
243
247
247
247
253
253
253
255
255
236
70
69
75
0
1
0
25
21
36
32
19
37
18
0
24
178
177
11
242
248
2
235
226
0
244
232
8
243
228
21
241
225
16
235
222
0
240
226
0
250
235
8
240
224
7
242
229
1
242
229
1
242
229
1
242
229
1
242
229
1
242
229
1
242
229
1
242
229
1
242
229
1
242
229
1
242
229
1
242
229
1
242
229
1
242
229
1
242
229
1
242
229
1
242
230
0
237
222
19
238
231
0
240
228
0
244
221
5
246
237
0
203
203
9
26
8
34
25
21
22
17
13
14
15
11
12
19
15
16
22
18
19
21
17
18
22
18
19
26
22
23
20
18
19
21
13
24
26
17
12
20
15
22
18
19
23
32
25
58
17
2
0
231
236
9
246
232
1
246
232
1
246
232
1
246
232
1
246
232
1
246
232
1
246
232
1
246
232
1
242
228
5
247
234
6
243
231
0
240
229
0
247
236
0
245
233
0
242
230
0
248
235
7
90
86
12
10
0
2
33
22
38
26
20
30
20
17
24
18
18
8
29
25
26
22
18
15
27
22
28
23
21
9
30
27
20
22
14
37
20
13
31
14
13
0
33
30
25
3
0
50
166
149
19
242
239
2
240
231
0
248
229
12
247
229
0
247
231
0
244
229
12
243
233
0
242
229
1
242
229
1
242
229
1
242
229
1
242
229
1
242
229
1
242
229
1
242
229
1
242
229
1
242
229
1
242
229
1
242
229
1
242
229
1
242
229
1
242
229
1
242
229
1
242
229
1
242
229
1
242
229
1
242
229
1
242
229
1
242
229
1
242
229
1
242
229
1
237
219
0
252
254
0
118
112
18
3
0
14
25
28
33
31
29
53
6
0
7
153
142
124
255
255
255
248
248
248
243
243
243
244
244
244
243
243
243
242
242
242
238
238
238
246
246
246
245
245
245
245
245
245
245
245
245
245
245
245
245
245
245
245
245
245
245
245
245
245
245
245
244
244
244
244
244
244
244
244
244
244
244
244
244
244
244
244
244
244
244
244
244
244
244
244
244
244
244
246
246
246
248
248
248
249
249
249
249
249
249
247
247
247
244
244
244
242
242
242
244
244
244
244
244
244
244
244
244
244
244
244
244
244
244
244
244
244
244
244
244
244
244
244
243
243
243
243
243
243
243
243
243
243
243
243
243
243
243
243
243
243
243
243
243
243
243
243
243
243
243
245
245
245
245
245
245
245
245
245
245
245
245
245
245
245
245
245
245
245
245
245
245
245
245
245
245
245
245
245
245
245
245
245
245
245
245
245
245
245
245
245
245
245
245
245
245
245
245
243
243
243
243
243
243
243
243
243
243
243
243
243
243
243
243
243
243
243
243
243
243
243
243
243
243
243
243
243
243
243
243
243
243
243
243
243
243
243
243
243
243
243
243
243
243
243
243
244
244
244
244
244
244
244
244
244
244
244
244
244
244
244
244
244
244
244
244
244
244
244
244
240
240
240
243
243
243
246
246
246
243
243
243
235
235
235
232
232
232
243
243
243
255
255
255
193
193
165
8
8
0
28
24
49
27
21
31
8
0
9
104
88
37
246
247
5
239
234
0
246
232
11
239
223
13
239
222
18
247
231
22
247
233
12
242
230
0
244
231
2
245
232
6
242
229
1
242
229
1
242
229
1
242
229
1
242
229
1
242
229
1
242
229
1
242
229
1
242
229
1
242
229
1
242
229
1
242
229
1
242
229
1
242
229
1
242
229
1
242
229
1
240
227
0
239
224
17
240
229
0
243
228
0
247
226
0
246
234
0
172
168
19
6
0
23
34
30
31
24
20
21
20
16
17
23
19
20
22
18
19
16
12
13
20
16
17
30
26
27
9
10
2
39
25
58
27
21
0
23
16
24
24
28
31
11
11
23
8
0
28
185
192
18
247
233
2
247
233
2
247
233
2
247
233
2
247
233
2
247
233
2
247
233
2
247
233
2
242
228
5
244
231
3
244
232
0
240
229
0
243
231
0
249
236
7
243
229
8
228
213
0
32
22
20
33
29
4
35
21
54
23
14
31
20
19
0
25
20
27
29
28
26
23
22
17
27
23
24
25
21
20
29
27
15
23
17
27
21
12
39
13
11
0
35
33
20
9
0
49
112
93
17
237
236
8
243
236
0
246
224
17
245
224
0
251
233
1
244
229
16
240
234
0
242
229
1
242
229
1
242
229
1
242
229
1
242
229
1
242
229
1
242
229
1
242
229
1
241
228
0
241
228
0
241
228
0
241
228
0
241
228
0
241
228
0
241
228
0
241
228
0
240
227
0
241
228
0
241
228
0
241
228
0
242
229
1
243
230
2
243
230
2
243
230
2
244
223
12
241
237
0
230
234
23
24
12
0
15
6
23
21
17
16
17
7
44
22
21
0
237
237
237
255
255
255
237
237
237
238
238
238
247
247
247
249
249
249
242
242
242
243
243
243
244
244
244
244
244
244
244
244
244
244
244
244
244
244
244
244
244
244
244
244
244
244
244
244
244
244
244
244
244
244
244
244
244
244
244
244
244
244
244
244
244
244
244
244
244
244
244
244
244
244
244
246
246
246
248
248
248
249
249
249
249
249
249
247
247
247
244
244
244
242
242
242
244
244
244
244
244
244
244
244
244
244
244
244
244
244
244
244
244
244
244
244
244
244
244
244
243
243
243
243
243
243
243
243
243
243
243
243
243
243
243
243
243
243
243
243
243
243
243
243
243
243
243
245
245
245
245
245
245
245
245
245
245
245
245
245
245
245
245
245
245
245
245
245
245
245
245
245
245
245
245
245
245
245
245
245
245
245
245
245
245
245
245
245
245
245
245
245
245
245
245
243
243
243
243
243
243
243
243
243
243
243
243
243
243
243
243
243
243
243
243
243
243
243
243
243
243
243
243
243
243
243
243
243
243
243
243
243
243
243
243
243
243
243
243
243
243
243
243
244
244
244
244
244
244
244
244
244
244
244
244
244
244
244
244
244
244
244
244
244
244
244
244
241
241
241
245
245
245
245
245
245
241
241
241
241
241
241
241
241
241
235
235
235
225
225
225
63
57
57
7
9
0
25
19
57
23
19
20
16
8
0
197
200
7
234
229
0
241
224
0
244
228
10
237
222
0
240
226
0
248
235
6
251
238
12
241
229
5
236
224
0
247
236
7
242
229
1
242
229
1
242
229
1
242
229
1
242
229
1
242
229
1
242
229
1
242
229
1
242
229
1
242
229
1
242
229
1
242
229
1
242
229
1
242
229
1
242
229
1
242
229
1
236
223
0
242
228
15
241
229
7
247
230
0
252
231
0
244
229
24
139
132
26
3
0
7
26
22
23
25
21
22
24
20
21
24
20
21
23
19
20
21
17
18
22
18
19
24
20
21
17
18
12
37
24
52
32
23
6
22
17
13
20
25
21
0
4
8
17
9
33
116
119
16
247
233
2
247
233
2
247
233
2
247
233
2
247
233
2
247
233
2
247
233
2
247
233
2
242
228
5
240
227
0
245
233
0
241
229
0
238
226
0
253
239
18
244
228
19
204
187
0
6
0
26
35
32
17
30
21
42
20
13
21
22
19
2
26
21
27
24
23
18
22
21
17
24
21
16
30
24
34
27
25
10
20
17
8
22
13
44
20
15
19
29
29
5
14
7
25
69
46
15
227
226
11
242
237
0
248
224
30
246
222
0
248
230
0
241
225
16
243
238
0
242
229
1
242
229
1
242
229
1
242
229
1
242
229
1
242
229
1
242
229
1
242
229
1
241
228
0
241
228
0
241
228
0
241
228
0
241
228
0
241
228
0
241
228
0
241
228
0
239
226
0
240
227
0
240
227
0
241
228
0
242
229
1
243
230
2
244
231
3
244
231
3
245
230
3
243
234
0
235
236
0
164
152
40
13
0
0
36
28
26
24
22
36
0
1
2
138
138
138
241
241
241
239
239
239
240
240
240
245
245
245
245
245
245
245
245
245
239
239
239
244
244
244
244
244
244
244
244
244
244
244
244
244
244
244
244
244
244
244
244
244
244
244
244
244
244
244
244
244
244
244
244
244
244
244
244
244
244
244
244
244
244
244
244
244
244
244
244
244
244
244
246
246
246
248
248
248
249
249
249
249
249
249
247
247
247
244
244
244
242
242
242
244
244
244
244
244
244
244
244
244
244
244
244
244
244
244
244
244
244
244
244
244
244
244
244
243
243
243
243
243
243
243
243
243
243
243
243
243
243
243
243
243
243
243
243
243
243
243
243
244
244
244
245
245
245
245
245
245
245
245
245
245
245
245
245
245
245
245
245
245
245
245
245
245
245
245
245
245
245
245
245
245
245
245
245
245
245
245
245
245
245
245
245
245
245
245
245
245
245
245
243
243
243
243
243
243
243
243
243
243
243
243
243
243
243
243
243
243
243
243
243
243
243
243
243
243
243
243
243
243
243
243
243
243
243
243
243
243
243
243
243
243
243
243
243
243
243
243
244
244
244
244
244
244
244
244
244
244
244
244
244
244
244
244
244
244
244
244
244
244
244
244
241
241
241
245
245
245
243
243
243
243
243
243
255
255
255
255
255
255
227
227
227
182
182
182
4
0
14
16
14
17
17
19
6
3
0
43
128
133
15
235
247
0
240
230
0
255
230
29
245
230
3
249
237
0
247
236
0
236
227
0
232
220
0
227
214
0
227
214
0
245
233
9
242
229
1
242
229
1
242
229
1
242
229
1
242
229
1
242
229
1
242
229
1
242
229
1
242
229
1
242
229
1
242
229
1
242
229
1
242
229
1
242
229
1
242
229
1
242
229
1
234
220
0
243
230
12
242
227
10
249
232
0
254
234
0
243
224
42
119
110
33
1
1
0
17
13
14
22
18
19
22
18
19
21
17
18
26
22
23
32
28
29
25
21
22
13
9
10
36
36
36
22
11
25
35
23
23
20
17
0
5
11
0
12
19
27
16
16
16
64
63
9
247
233
2
247
233
2
247
233
2
247
233
2
247
233
2
247
233
2
247
233
2
247
233
2
243
230
4
238
225
0
245
233
0
241
229
0
235
222
0
255
241
26
245
228
27
188
169
0
2
0
29
24
19
26
26
20
20
18
12
12
24
19
16
25
22
17
19
18
13
19
19
17
21
18
9
33
26
42
26
25
7
16
15
0
23
13
47
27
20
36
21
22
0
11
8
0
43
19
15
219
219
11
241
236
0
251
226
38
248
224
2
245
227
0
237
221
12
245
242
0
242
229
1
242
229
1
242
229
1
242
229
1
242
229
1
242
229
1
242
229
1
242
229
1
241
228
0
241
228
0
241
228
0
241
228
0
241
228
0
241
228
0
241
228
0
241
228
0
238
225
0
239
226
0
240
227
0
241
228
0
242
229
1
244
231
3
245
232
4
245
232
4
247
239
0
236
224
2
232
222
0
236
228
33
80
56
28
15
0
28
31
41
4
12
17
57
27
27
27
209
209
209
244
244
244
247
247
247
241
241
241
235
235
235
244
244
244
237
237
237
244
244
244
244
244
244
244
244
244
244
244
244
244
244
244
244
244
244
244
244
244
244
244
244
244
244
244
244
244
244
244
244
244
244
244
244
244
244
244
244
244
244
244
244
244
244
244
244
244
244
244
246
246
246
248
248
248
249
249
249
249
249
249
247
247
247
244
244
244
242
242
242
244
244
244
244
244
244
244
244
244
244
244
244
244
244
244
244
244
244
244
244
244
244
244
244
243
243
243
243
243
243
243
243
243
243
243
243
243
243
243
243
243
243
243
243
243
243
243
243
244
244
244
245
245
245
245
245
245
245
245
245
245
245
245
245
245
245
245
245
245
245
245
245
245
245
245
246
246
246
246
246
246
246
246
246
246
246
246
246
246
246
246
246
246
246
246
246
246
246
246
245
245
245
245
245
245
245
245
245
245
245
245
245
245
245
245
245
245
245
245
245
245
245
245
244
244
244
244
244
244
244
244
244
244
244
244
244
244
244
244
244
244
244
244
244
244
244
244
245
245
245
245
245
245
244
244
244
244
244
244
244
244
244
243
243
243
243
243
243
243
243
243
239
239
239
240
240
240
243
243
243
242
242
242
247
247
247
248
248
248
241
241
241
57
57
57
17
2
7
23
20
15
20
20
22
46
28
28
233
219
24
255
242
0
244
229
0
241
232
29
242
229
1
242
229
1
242
229
1
242
229
1
242
229
1
242
229
1
242
229
1
242
229
1
242
229
1
242
229
1
242
229
1
242
229
1
242
229
1
242
229
1
242
229
1
242
229
1
242
229
1
242
229
1
242
229
1
242
229
1
242
229
1
242
229
1
242
229
1
242
229
1
242
226
0
246
230
20
235
224
0
234
220
0
255
243
7
238
237
0
74
60
33
9
13
0
23
19
20
23
19
20
23
19
20
23
19
20
23
19
20
23
19
20
23
19
20
23
19
20
23
21
26
25
23
26
23
22
20
19
18
16
21
20
18
25
23
26
18
15
24
6
3
14
237
225
15
250
238
12
241
232
0
251
241
0
239
227
0
245
231
2
250
236
7
246
230
0
250
232
10
239
227
5
240
231
6
239
227
0
243
223
6
241
230
0
241
249
0
112
107
25
18
13
19
18
13
17
19
14
18
20
16
17
21
17
18
22
18
17
23
19
18
24
20
17
24
20
21
24
20
21
24
20
21
23
19
20
23
19
20
22
18
19
22
18
19
22
18
19
13
2
19
191
198
0
245
235
0
250
227
11
246
231
0
240
227
11
240
231
6
240
228
0
241
228
0
241
228
0
241
228
0
241
228
0
242
229
1
242
229
1
243
230
2
243
230
2
244
230
0
244
230
0
244
230
0
245
231
0
245
231
0
246
232
1
246
232
1
246
232
1
243
230
2
243
230
2
243
230
2
243
230
2
243
230
2
243
230
2
243
230
2
243
230
2
243
228
0
255
240
7
255
236
39
249
241
0
188
182
0
22
4
0
25
20
27
8
17
0
0
0
0
138
138
138
242
242
242
238
238
238
249
249
249
247
247
247
233
233
233
244
244
244
245
245
245
245
245
245
245
245
245
245
245
245
245
245
245
245
245
245
245
245
245
245
245
245
244
244
244
244
244
244
244
244
244
244
244
244
244
244
244
244
244
244
244
244
244
244
244
244
245
245
245
245
245
245
245
245
245
245
245
245
245
245
245
245
245
245
245
245
245
245
245
245
243
243
243
243
243
243
243
243
243
244
244
244
244
244
244
244
244
244
245
245
245
245
245
245
243
243
243
243
243
243
243
243
243
243
243
243
243
243
243
243
243
243
243
243
243
243
243
243
244
244
244
245
245
245
245
245
245
245
245
245
245
245
245
245
245
245
245
245
245
245
245
245
245
245
245
246
246
246
246
246
246
246
246
246
246
246
246
246
246
246
246
246
246
246
246
246
246
246
246
245
245
245
245
245
245
245
245
245
245
245
245
245
245
245
245
245
245
245
245
245
245
245
245
244
244
244
244
244
244
244
244
244
244
244
244
244
244
244
244
244
244
244
244
244
244
244
244
245
245
245
245
245
245
244
244
244
244
244
244
244
244
244
243
243
243
243
243
243
243
243
243
238
238
238
254
254
254
245
245
245
243
243
243
252
252
252
246
246
246
177
177
177
16
16
16
24
10
9
26
22
13
4
0
7
141
137
29
250
236
25
250
228
0
235
218
0
241
235
3
242
229
1
242
229
1
242
229
1
242
229
1
242
229
1
242
229
1
242
229
1
242
229
1
242
229
1
242
229
1
242
229
1
242
229
1
242
229
1
242
229
1
242
229
1
242
229
1
242
229
1
242
229
1
242
229
1
242
229
1
242
229
1
242
229
1
242
229
1
242
229
1
243
227
0
245
230
17
236
224
0
236
221
0
255
239
4
237
235
0
61
46
25
13
15
10
23
19
20
23
19
20
23
19
20
23
19
20
23
19
20
23
19
20
23
19
20
23
19
20
23
21
26
25
23
26
23
22
20
19
18
16
21
20
18
24
22
25
18
15
24
6
3
14
227
215
9
246
234
12
240
231
0
251
240
0
240
228
0
246
231
6
248
233
6
245
228
0
250
232
8
238
226
2
239
230
5
239
227
0
245
224
11
243
231
0
236
243
0
99
92
22
18
13
19
18
13
17
19
14
18
20
16
17
21
17
18
23
19
18
23
19
18
24
20
17
24
20
21
24
20
21
24
20
21
23
19
20
23
19
20
22
18
19
22
18
19
22
18
19
13
2
19
191
198
0
245
235
0
250
227
11
246
231
0
240
227
11
240
231
6
240
228
0
241
228
0
241
228
0
241
228
0
242
229
1
242
229
1
242
229
1
243
230
2
243
230
2
244
230
0
244
230
0
244
230
0
245
231
0
245
231
0
246
232
1
246
232
1
246
232
1
243
230
2
243
230
2
243
230
2
243
230
2
243
230
2
243
230
2
243
230
2
243
230
2
240
226
0
248
232
0
251
233
13
243
230
11
226
221
15
96
87
8
4
0
25
14
17
6
15
15
15
34
34
34
227
227
227
248
248
248
236
236
236
242
242
242
255
255
255
247
247
247
245
245
245
245
245
245
245
245
245
245
245
245
245
245
245
245
245
245
245
245
245
245
245
245
244
244
244
244
244
244
244
244
244
244
244
244
244
244
244
244
244
244
244
244
244
244
244
244
245
245
245
245
245
245
245
245
245
245
245
245
245
245
245
245
245
245
245
245
245
245
245
245
243
243
243
243
243
243
243
243
243
244
244
244
244
244
244
244
244
244
245
245
245
245
245
245
243
243
243
243
243
243
243
243
243
243
243
243
243
243
243
243
243
243
243
243
243
243
243
243
244
244
244
245
245
245
245
245
245
245
245
245
245
245
245
245
245
245
245
245
245
245
245
245
245
245
245
246
246
246
246
246
246
246
246
246
246
246
246
246
246
246
246
246
246
246
246
246
246
246
246
245
245
245
245
245
245
245
245
245
245
245
245
245
245
245
245
245
245
245
245
245
245
245
245
244
244
244
244
244
244
244
244
244
244
244
244
244
244
244
244
244
244
244
244
244
244
244
244
245
245
245
245
245
245
244
244
244
244
244
244
244
244
244
243
243
243
243
243
243
243
243
243
241
241
241
255
255
255
246
246
246
241
241
241
245
245
245
245
245
245
78
78
78
0
0
0
25
14
12
23
13
14
42
31
11
214
223
0
246
235
5
254
232
11
238
220
0
236
232
0
242
229
1
242
229
1
242
229
1
242
229
1
242
229
1
242
229
1
242
229
1
242
229
1
242
229
1
242
229
1
242
229
1
242
229
1
242
229
1
242
229
1
242
229
1
242
229
1
242
229
1
242
229
1
242
229
1
242
229
1
242
229
1
242
229
1
242
229
1
242
229
1
243
228
0
244
229
16
238
226
0
240
225
0
249
232
4
235
232
0
43
27
14
18
19
24
23
19
20
23
19
20
23
19
20
23
19
20
23
19
20
23
19
20
23
19
20
23
19
20
22
20
25
25
23
26
23
22
20
19
18
16
21
20
18
24
22
25
17
14
23
6
3
14
211
198
0
239
226
10
238
227
0
250
238
2
241
228
0
247
231
11
246
231
8
242
225
0
249
231
7
237
225
0
237
228
3
238
225
0
249
227
20
245
231
0
227
231
0
78
68
17
18
13
19
19
14
18
19
14
18
21
17
18
22
18
19
23
19
18
24
20
19
24
20
17
24
20
21
24
20
21
24
20
21
23
19
20
23
19
20
22
18
19
22
18
19
22
18
19
13
2
19
191
198
0
245
235
0
250
227
11
246
231
0
240
227
11
240
231
6
240
228
0
241
228
0
241
228
0
242
229
1
242
229
1
242
229
1
243
230
2
243
230
2
243
230
2
244
230
0
244
230
0
244
230
0
245
231
0
245
231
0
246
232
1
246
232
1
246
232
1
243
230
2
243
230
2
243
230
2
243
230
2
243
230
2
243
230
2
243
230
2
243
230
2
239
223
6
242
229
0
248
234
0
237
219
21
253
251
16
180
181
18
10
0
20
19
17
22
21
21
21
0
0
0
149
149
149
250
250
250
241
241
241
243
243
243
249
249
249
255
255
255
245
245
245
245
245
245
245
245
245
245
245
245
245
245
245
245
245
245
245
245
245
245
245
245
244
244
244
244
244
244
244
244
244
244
244
244
244
244
244
244
244
244
244
244
244
244
244
244
245
245
245
245
245
245
245
245
245
245
245
245
245
245
245
245
245
245
245
245
245
245
245
245
243
243
243
243
243
243
243
243
243
244
244
244
244
244
244
244
244
244
245
245
245
245
245
245
243
243
243
243
243
243
243
243
243
243
243
243
243
243
243
243
243
243
243
243
243
243
243
243
244
244
244
245
245
245
245
245
245
245
245
245
245
245
245
245
245
245
245
245
245
245
245
245
245
245
245
246
246
246
246
246
246
246
246
246
246
246
246
246
246
246
246
246
246
246
246
246
246
246
246
245
245
245
245
245
245
245
245
245
245
245
245
245
245
245
245
245
245
245
245
245
245
245
245
244
244
244
244
244
244
244
244
244
244
244
244
244
244
244
244
244
244
244
244
244
244
244
244
245
245
245
245
245
245
244
244
244
244
244
244
244
244
244
243
243
243
243
243
243
243
243
243
246
246
246
242
242
242
242
242
242
238
238
238
238
238
238
211
211
211
4
4
4
12
12
12
28
18
26
10
0
12
139
133
21
233
236
0
239
227
0
255
238
16
238
220
12
245
238
0
243
230
2
243
230
2
243
230
2
243
230
2
243
230
2
243
230
2
243
230
2
243
230
2
242
229
1
242
229
1
242
229
1
242
229
1
242
229
1
242
229
1
242
229
1
242
229
1
242
229
1
242
229
1
242
229
1
242
229
1
242
229
1
242
229
1
242
229
1
242
229
1
244
229
0
243
228
13
240
228
2
243
228
5
245
227
3
233
229
0
31
13
9
21
21
33
23
19
20
23
19
20
23
19
20
23
19
20
23
19
20
23
19
20
23
19
20
23
19
20
22
20
25
24
22
25
22
21
19
18
17
15
20
19
17
24
22
25
17
14
23
5
2
13
196
182
0
234
220
10
237
225
0
249
237
5
243
230
4
248
232
14
244
228
8
240
222
0
249
232
5
237
225
0
236
227
0
238
225
0
252
229
27
247
232
7
219
221
0
59
46
12
19
14
20
19
14
18
20
15
19
21
17
18
22
18
19
23
19
18
24
20
19
25
21
18
24
20
21
24
20
21
24
20
21
23
19
20
23
19
20
22
18
19
22
18
19
22
18
19
13
2
19
191
198
0
245
235
0
250
227
11
246
231
0
240
227
11
240
231
6
240
228
0
242
229
1
242
229
1
242
229
1
242
229
1
243
230
2
243
230
2
244
231
3
244
231
3
244
230
0
244
230
0
244
230
0
245
231
0
245
231
0
246
232
1
246
232
1
246
232
1
243
230
2
243
230
2
243
230
2
243
230
2
243
230
2
243
230
2
243
230
2
243
230
2
238
222
12
246
233
0
250
236
0
236
219
5
251
247
0
221
224
11
74
64
15
19
5
31
20
20
20
21
21
21
43
43
43
240
240
240
246
246
246
243
243
243
238
238
238
246
246
246
245
245
245
245
245
245
245
245
245
245
245
245
245
245
245
245
245
245
245
245
245
245
245
245
244
244
244
244
244
244
244
244
244
244
244
244
244
244
244
244
244
244
244
244
244
244
244
244
245
245
245
245
245
245
245
245
245
245
245
245
245
245
245
245
245
245
245
245
245
245
245
245
243
243
243
243
243
243
243
243
243
244
244
244
244
244
244
244
244
244
245
245
245
245
245
245
243
243
243
243
243
243
243
243
243
243
243
243
243
243
243
243
243
243
243
243
243
243
243
243
244
244
244
245
245
245
245
245
245
245
245
245
245
245
245
245
245
245
245
245
245
245
245
245
245
245
245
246
246
246
246
246
246
246
246
246
246
246
246
246
246
246
246
246
246
246
246
246
246
246
246
245
245
245
245
245
245
245
245
245
245
245
245
245
245
245
245
245
245
245
245
245
245
245
245
244
244
244
244
244
244
244
244
244
244
244
244
244
244
244
244
244
244
244
244
244
244
244
244
245
245
245
245
245
245
244
244
244
244
244
244
244
244
244
243
243
243
243
243
243
243
243
243
245
245
245
239
239
239
239
239
239
242
242
242
248
248
248
115
115
115
0
0
0
21
21
21
23
14
33
19
0
11
212
212
0
248
238
3
244
229
6
242
228
0
238
222
13
255
242
14
243
230
2
243
230
2
243
230
2
243
230
2
243
230
2
243
230
2
243
230
2
243
230
2
242
229
1
242
229
1
242
229
1
242
229
1
242
229
1
242
229
1
242
229
1
242
229
1
242
229
1
242
229
1
242
229
1
242
229
1
242
229
1
242
229
1
242
229
1
242
229
1
246
231
0
241
226
11
241
229
3
245
230
7
243
225
1
233
229
0
34
16
12
20
20
32
23
19
20
23
19
20
23
19
20
23
19
20
23
19
20
23
19
20
23
19
20
23
19
20
21
19
24
24
22
25
22
21
19
18
17
15
20
19
17
23
21
24
16
13
22
5
2
13
186
171
0
235
220
15
239
227
3
246
233
4
242
228
5
248
232
14
242
226
6
240
223
0
248
231
4
238
226
0
237
228
1
238
225
0
252
229
27
248
232
12
215
216
1
47
32
9
19
14
20
19
14
18
20
15
19
21
17
18
23
19
20
24
20
19
25
21
20
25
21
18
24
20
21
24
20
21
24
20
21
23
19
20
23
19
20
22
18
19
22
18
19
22
18
19
13
2
19
191
198
0
245
235
0
250
227
11
246
231
0
240
227
11
240
231
6
240
228
0
242
229
1
242
229
1
243
230
2
243
230
2
243
230
2
244
231
3
244
231
3
244
231
3
244
230
0
244
230
0
244
230
0
245
231
0
245
231
0
246
232
1
246
232
1
246
232
1
243
230
2
243
230
2
243
230
2
243
230
2
243
230
2
243
230
2
243
230
2
243
230
2
238
225
9
247
234
5
248
231
3
245
231
0
241
232
0
231
231
9
168
168
12
13
0
12
26
26
26
28
28
28
0
0
0
180
180
180
248
248
248
240
240
240
253
253
253
228
228
228
245
245
245
245
245
245
245
245
245
245
245
245
245
245
245
245
245
245
245
245
245
245
245
245
244
244
244
244
244
244
244
244
244
244
244
244
244
244
244
244
244
244
244
244
244
244
244
244
245
245
245
245
245
245
245
245
245
245
245
245
245
245
245
245
245
245
245
245
245
245
245
245
243
243
243
243
243
243
243
243
243
244
244
244
244
244
244
244
244
244
245
245
245
245
245
245
243
243
243
243
243
243
243
243
243
243
243
243
243
243
243
243
243
243
243
243
243
243
243
243
244
244
244
245
245
245
245
245
245
245
245
245
245
245
245
245
245
245
245
245
245
245
245
245
245
245
245
246
246
246
246
246
246
246
246
246
246
246
246
246
246
246
246
246
246
246
246
246
246
246
246
245
245
245
245
245
245
245
245
245
245
245
245
245
245
245
245
245
245
245
245
245
245
245
245
244
244
244
244
244
244
244
244
244
244
244
244
244
244
244
244
244
244
244
244
244
244
244
244
245
245
245
245
245
245
244
244
244
244
244
244
244
244
244
243
243
243
243
243
243
243
243
243
241
241
241
249
249
249
239
239
239
250
250
250
235
235
235
14
14
14
19
19
19
8
8
8
4
0
8
107
91
40
245
241
0
255
235
33
242
223
6
240
230
0
252
240
18
242
225
13
244
231
3
244
231
3
244
231
3
244
231
3
244
231
3
244
231
3
244
231
3
244
231
3
242
229
1
242
229
1
242
229
1
242
229
1
242
229
1
242
229
1
242
229
1
242
229
1
242
229
1
242
229
1
242
229
1
242
229
1
242
229
1
242
229
1
242
229
1
242
229
1
248
233
0
240
225
12
241
229
3
246
231
6
246
229
1
235
232
0
50
34
21
16
17
22
23
19
20
23
19
20
23
19
20
23
19
20
23
19
20
23
19
20
23
19
20
23
19
20
21
19
24
23
21
24
21
20
18
17
16
14
19
18
16
23
21
24
16
13
22
4
1
12
185
170
0
240
225
20
242
230
6
244
231
2
240
227
1
247
231
11
241
226
1
242
225
0
247
229
5
240
228
2
240
231
2
238
226
0
251
228
24
249
233
13
216
216
4
46
31
12
19
14
20
20
15
19
21
16
20
22
18
19
23
19
20
24
20
19
25
21
20
26
22
19
24
20
21
24
20
21
24
20
21
23
19
20
23
19
20
22
18
19
22
18
19
22
18
19
13
2
19
191
198
0
245
235
0
250
227
11
246
231
0
240
227
11
240
231
6
240
228
0
243
230
2
243
230
2
243
230
2
243
230
2
244
231
3
244
231
3
244
231
3
245
232
4
244
230
0
244
230
0
244
230
0
245
231
0
245
231
0
246
232
1
246
232
1
246
232
1
243
230
2
243
230
2
243
230
2
243
230
2
243
230
2
243
230
2
243
230
2
243
230
2
238
230
0
243
230
12
243
224
8
253
238
0
244
229
4
236
231
9
234
239
12
42
24
0
15
15
15
21
21
21
13
13
13
62
62
62
255
255
255
246
246
246
247
247
247
238
238
238
245
245
245
245
245
245
245
245
245
245
245
245
245
245
245
245
245
245
245
245
245
245
245
245
244
244
244
244
244
244
244
244
244
244
244
244
244
244
244
244
244
244
244
244
244
244
244
244
245
245
245
245
245
245
245
245
245
245
245
245
245
245
245
245
245
245
245
245
245
245
245
245
243
243
243
243
243
243
243
243
243
244
244
244
244
244
244
244
244
244
245
245
245
245
245
245
243
243
243
243
243
243
243
243
243
243
243
243
243
243
243
243
243
243
243
243
243
243
243
243
244
244
244
245
245
245
245
245
245
245
245
245
245
245
245
245
245
245
245
245
245
245
245
245
245
245
245
246
246
246
246
246
246
246
246
246
246
246
246
246
246
246
246
246
246
246
246
246
246
246
246
245
245
245
245
245
245
245
245
245
245
245
245
245
245
245
245
245
245
245
245
245
245
245
245
244
244
244
244
244
244
244
244
244
244
244
244
244
244
244
244
244
244
244
244
244
244
244
244
245
245
245
245
245
245
244
244
244
244
244
244
244
244
244
243
243
243
243
243
243
243
243
243
243
243
243
250
250
250
242
242
242
251
251
251
155
155
155
0
0
0
27
27
27
9
9
9
14
15
0
198
198
38
255
242
6
250
224
3
239
222
0
245
237
4
255
247
4
237
219
0
244
231
3
244
231
3
244
231
3
244
231
3
244
231
3
244
231
3
244
231
3
244
231
3
242
229
1
242
229
1
242
229
1
242
229
1
242
229
1
242
229
1
242
229
1
242
229
1
242
229
1
242
229
1
242
229
1
242
229
1
242
229
1
242
229
1
242
229
1
242
229
1
249
233
0
239
224
11
240
228
2
245
230
3
250
234
0
237
235
0
72
57
36
10
12
7
23
19
20
23
19
20
23
19
20
23
19
20
23
19
20
23
19
20
23
19
20
23
19
20
20
18
23
23
21
24
21
20
18
17
16
14
19
18
16
22
20
23
15
12
21
4
1
12
188
173
0
247
232
25
245
233
7
242
230
0
238
225
0
246
231
6
241
227
0
245
229
0
245
227
7
243
231
7
244
236
5
238
226
0
249
227
19
249
234
9
219
220
4
51
36
15
20
15
21
20
15
19
21
16
20
22
18
19
24
20
21
25
21
20
26
22
21
26
22
19
24
20
21
24
20
21
24
20
21
23
19
20
23
19
20
22
18
19
22
18
19
22
18
19
13
2
19
191
198
0
245
235
0
250
227
11
246
231
0
240
227
11
240
231
6
240
228
0
243
230
2
243
230
2
243
230
2
244
231
3
244
231
3
244
231
3
245
232
4
245
232
4
244
230
0
244
230
0
244
230
0
245
231
0
245
231
0
246
232
1
246
232
1
246
232
1
243
230
2
243
230
2
243
230
2
243
230
2
243
230
2
243
230
2
243
230
2
243
230
2
240
235
0
242
228
18
243
225
3
249
233
0
250
232
12
238
231
0
246
248
17
131
122
0
0
0
0
23
23
23
23
23
23
0
0
0
217
217
217
252
252
252
236
236
236
248
248
248
245
245
245
245
245
245
245
245
245
245
245
245
245
245
245
245
245
245
245
245
245
245
245
245
244
244
244
244
244
244
244
244
244
244
244
244
244
244
244
244
244
244
244
244
244
244
244
244
245
245
245
245
245
245
245
245
245
245
245
245
245
245
245
245
245
245
245
245
245
245
245
245
243
243
243
243
243
243
243
243
243
244
244
244
244
244
244
244
244
244
245
245
245
245
245
245
243
243
243
243
243
243
243
243
243
243
243
243
243
243
243
243
243
243
243
243
243
243
243
243
244
244
244
245
245
245
245
245
245
245
245
245
245
245
245
245
245
245
245
245
245
245
245
245
245
245
245
246
246
246
246
246
246
246
246
246
246
246
246
246
246
246
246
246
246
246
246
246
246
246
246
245
245
245
245
245
245
245
245
245
245
245
245
245
245
245
245
245
245
245
245
245
245
245
245
244
244
244
244
244
244
244
244
244
244
244
244
244
244
244
244
244
244
244
244
244
244
244
244
245
245
245
245
245
245
244
244
244
244
244
244
244
244
244
243
243
243
243
243
243
243
243
243
248
248
248
240
240
240
245
245
245
248
248
248
65
65
65
25
25
25
14
14
14
27
27
27
57
64
23
234
245
1
255
229
42
244
218
0
251
234
0
238
231
3
234
230
0
255
241
5
244
231
3
244
231
3
244
231
3
244
231
3
244
231
3
244
231
3
244
231
3
244
231
3
242
229
1
242
229
1
242
229
1
242
229
1
242
229
1
242
229
1
242
229
1
242
229
1
242
229
1
242
229
1
242
229
1
242
229
1
242
229
1
242
229
1
242
229
1
242
229
1
251
235
0
239
223
13
240
229
0
245
231
2
253
237
1
239
238
0
87
73
46
6
10
0
23
19
20
23
19
20
23
19
20
23
19
20
23
19
20
23
19
20
23
19
20
23
19
20
20
18
23
23
21
24
21
20
18
17
16
14
19
18
16
22
20
23
15
12
21
4
1
12
191
176
0
252
237
30
248
237
8
241
229
0
237
225
0
245
231
2
241
227
0
247
232
0
245
226
9
245
233
9
247
239
8
238
227
0
247
226
13
248
234
5
222
223
5
56
42
16
20
15
21
20
15
19
21
16
20
22
18
19
24
20
21
25
21
20
26
22
21
26
22
19
24
20
21
24
20
21
24
20
21
23
19
20
23
19
20
22
18
19
22
18
19
22
18
19
13
2
19
191
198
0
245
235
0
250
227
11
246
231
0
240
227
11
240
231
6
240
228
0
243
230
2
243
230
2
243
230
2
244
231
3
244
231
3
245
232
4
245
232
4
245
232
4
244
230
0
244
230
0
244
230
0
245
231
0
245
231
0
246
232
1
246
232
1
246
232
1
243
230
2
243
230
2
243
230
2
243
230
2
243
230
2
243
230
2
243
230
2
243
230
2
241
240
0
244
229
24
248
232
0
243
220
4
250
230
11
236
229
0
235
228
24
218
219
17
0
0
0
17
17
17
13
13
13
14
14
14
140
140
140
249
249
249
253
253
253
232
232
232
245
245
245
245
245
245
245
245
245
245
245
245
245
245
245
245
245
245
245
245
245
245
245
245
244
244
244
244
244
244
244
244
244
244
244
244
244
244
244
244
244
244
244
244
244
244
244
244
245
245
245
245
245
245
245
245
245
245
245
245
245
245
245
245
245
245
245
245
245
245
245
245
243
243
243
243
243
243
243
243
243
244
244
244
244
244
244
244
244
244
245
245
245
245
245
245
243
243
243
243
243
243
243
243
243
243
243
243
243
243
243
243
243
243
243
243
243
243
243
243
244
244
244
247
247
247
247
247
247
247
247
247
246
246
246
246
246
246
246
246
246
245
245
245
245
245
245
246
246
246
246
246
246
246
246
246
246
246
246
246
246
246
246
246
246
246
246
246
246
246
246
244
244
244
244
244
244
244
244
244
244
244
244
244
244
244
244
244
244
244
244
244
244
244
244
244
244
244
244
244
244
244
244
244
245
245
245
245
245
245
246
246
246
246
246
246
246
246
246
245
245
245
245
245
245
245
245
245
245
245
245
245
245
245
245
245
245
245
245
245
245
245
245
239
244
255
239
243
210
255
244
253
205
195
206
8
7
21
7
15
18
24
34
0
3
0
46
176
158
0
240
224
17
255
242
25
236
223
0
239
227
0
243
232
0
240
228
0
249
237
3
244
232
0
244
232
0
244
232
0
244
232
0
244
232
0
244
232
0
244
232
0
244
232
0
243
230
2
243
230
2
243
230
2
243
230
2
243
230
2
243
230
2
243
230
2
243
230
2
242
229
1
242
229
1
242
229
1
242
229
1
242
229
1
242
229
1
242
229
1
242
229
1
240
224
14
244
236
0
241
228
0
242
219
15
251
231
0
243
235
0
136
133
16
1
0
41
11
6
13
24
19
23
28
24
21
21
18
11
17
14
7
23
19
16
27
22
26
26
20
30
15
17
0
15
14
12
18
13
19
14
9
16
29
24
31
27
27
17
8
11
4
3
3
31
216
201
0
228
214
0
241
227
6
248
234
11
246
233
7
242
229
1
242
229
0
243
231
0
239
233
0
247
231
24
253
237
0
245
223
0
245
219
34
235
230
0
231
234
3
86
70
21
10
2
25
17
15
0
23
22
2
27
20
36
21
13
37
36
33
24
18
16
1
28
23
30
11
14
5
23
22
28
20
12
25
30
28
0
27
17
25
28
19
66
11
21
0
3
13
5
67
50
7
227
229
5
241
235
0
246
220
37
242
220
0
255
239
0
250
234
25
239
234
0
243
230
2
243
230
2
243
230
2
244
231
3
244
231
3
245
232
4
245
232
4
245
232
4
246
232
1
246
232
1
246
232
1
246
232
1
246
232
1
246
232
1
246
232
1
246
232
1
244
229
2
244
229
2
244
229
2
244
229
2
244
229
2
244
229
2
244
229
2
244
229
2
245
231
0
245
231
0
245
231
0
245
231
0
245
231
0
245
231
0
245
231
0
245
231
0
107
96
16
8
0
9
13
11
24
12
16
1
36
29
45
247
241
251
252
255
243
235
250
243
246
246
246
246
246
246
246
246
246
246
246
246
246
246
246
246
246
246
246
246
246
246
246
246
244
244
244
244
244
244
244
244
244
244
244
244
244
244
244
244
244
244
244
244
244
244
244
244
244
244
244
244
244
244
244
244
244
244
244
244
244
244
244
244
244
244
244
244
244
244
244
244
243
243
243
243
243
243
243
243
243
243
243
243
243
243
243
243
243
243
243
243
243
243
243
243
243
243
243
243
243
243
243
243
243
243
243
243
243
243
243
243
243
243
243
243
243
243
243
243
245
245
245
247
247
247
247
247
247
247
247
247
246
246
246
246
246
246
246
246
246
245
245
245
245
245
245
246
246
246
246
246
246
246
246
246
246
246
246
246
246
246
246
246
246
246
246
246
246
246
246
244
244
244
244
244
244
244
244
244
244
244
244
244
244
244
244
244
244
244
244
244
244
244
244
244
244
244
244
244
244
245
245
245
245
245
245
245
245
245
246
246
246
246
246
246
246
246
246
245
245
245
245
245
245
245
245
245
245
245
245
245
245
245
245
245
245
245
245
245
245
245
245
235
241
253
240
242
220
255
244
251
146
135
151
13
15
14
17
23
21
23
24
16
28
18
29
214
198
0
244
229
16
249
235
14
239
226
0
243
231
0
242
230
0
241
229
0
251
239
7
244
232
0
244
232
0
244
232
0
244
232
0
244
232
0
244
232
0
244
232
0
244
232
0
243
230
2
243
230
2
243
230
2
243
230
2
243
230
2
243
230
2
243
230
2
243
230
2
242
229
1
242
229
1
242
229
1
242
229
1
242
229
1
242
229
1
242
229
1
242
229
1
239
225
6
242
231
0
242
231
0
242
222
5
251
229
0
243
235
0
158
156
19
3
0
27
16
10
22
26
21
28
27
23
24
26
22
19
28
25
20
26
22
21
20
15
19
21
16
22
23
24
10
22
21
19
25
20
24
18
14
15
24
20
21
17
16
11
15
15
15
0
0
18
223
209
0
232
218
0
241
227
6
245
231
8
243
230
4
240
227
0
241
228
0
243
230
1
238
231
0
245
229
20
251
235
0
245
223
0
246
221
32
237
232
0
233
235
4
103
85
21
15
6
35
23
20
13
20
18
5
26
20
32
24
17
33
32
29
20
18
16
3
27
21
33
15
18
11
21
19
24
21
13
26
32
29
0
27
17
25
23
13
47
21
27
0
9
12
31
95
77
13
232
234
1
239
234
0
247
222
33
244
222
0
253
237
0
247
231
22
239
232
0
243
230
2
243
230
2
243
230
2
244
231
3
244
231
3
244
231
3
245
232
4
245
232
4
246
232
1
246
232
1
246
232
1
246
232
1
246
232
1
246
232
1
246
232
1
246
232
1
244
229
2
244
229
2
244
229
2
244
229
2
244
229
2
244
229
2
244
229
2
244
229
2
245
231
0
245
231
0
245
231
0
245
231
0
245
231
0
245
231
0
245
231
0
245
231
0
166
162
29
15
0
17
28
26
31
8
9
11
15
8
24
199
196
187
246
248
255
234
248
231
246
246
246
246
246
246
246
246
246
246
246
246
246
246
246
246
246
246
246
246
246
246
246
246
244
244
244
244
244
244
244
244
244
244
244
244
244
244
244
244
244
244
244
244
244
244
244
244
244
244
244
244
244
244
244
244
244
244
244
244
244
244
244
244
244
244
244
244
244
244
244
244
243
243
243
243
243
243
243
243
243
243
243
243
243
243
243
243
243
243
243
243
243
243
243
243
243
243
243
243
243
243
243
243
243
243
243
243
243
243
243
243
243
243
243
243
243
243
243
243
245
245
245
247
247
247
247
247
247
247
247
247
246
246
246
246
246
246
246
246
246
245
245
245
245
245
245
246
246
246
246
246
246
246
246
246
246
246
246
246
246
246
246
246
246
246
246
246
246
246
246
244
244
244
244
244
244
244
244
244
244
244
244
244
244
244
244
244
244
244
244
244
244
244
244
244
244
244
245
245
245
245
245
245
245
245
245
246
246
246
246
246
246
246
246
246
246
246
246
245
245
245
245
245
245
245
245
245
245
245
245
245
245
245
245
245
245
245
245
245
245
245
245
234
239
242
244
244
234
248
237
243
67
55
77
18
23
1
25
30
24
16
8
31
90
86
23
254
239
22
246
232
11
241
228
2
244
231
2
245
233
1
241
228
0
243
230
2
252
239
13
244
232
0
244
232
0
244
232
0
244
232
0
244
232
0
244
232
0
244
232
0
244
232
0
243
230
2
243
230
2
243
230
2
243
230
2
243
230
2
243
230
2
243
230
2
243
230
2
242
229
1
242
229
1
242
229
1
242
229
1
242
229
1
242
229
1
242
229
1
242
229
1
238
224
0
240
226
15
244
234
0
242
226
0
250
227
11
245
234
0
192
191
21
12
3
4
21
14
30
29
23
37
25
20
27
23
18
22
31
27
26
25
21
20
16
12
13
22
17
21
27
23
22
25
21
20
24
22
23
18
17
12
19
19
11
15
13
16
21
15
27
8
3
7
235
221
0
238
224
1
241
227
4
241
228
2
238
225
0
238
225
0
240
227
0
243
230
1
235
228
0
243
228
15
248
231
0
244
223
0
247
223
27
240
232
0
238
237
5
129
112
20
11
2
33
27
22
28
18
15
10
25
20
26
26
21
25
26
24
12
20
17
10
24
17
33
20
20
18
20
18
19
22
16
28
34
28
16
26
17
22
17
11
23
29
29
17
10
4
50
139
125
20
241
242
0
239
232
0
248
225
23
247
226
0
249
232
0
243
227
17
237
229
0
243
230
2
243
230
2
243
230
2
243
230
2
244
231
3
244
231
3
244
231
3
245
232
4
246
232
1
246
232
1
246
232
1
246
232
1
246
232
1
246
232
1
246
232
1
246
232
1
244
229
2
244
229
2
244
229
2
244
229
2
244
229
2
244
229
2
244
229
2
244
229
2
245
231
0
245
231
0
245
231
0
245
231
0
245
231
0
245
231
0
245
231
0
245
231
0
217
218
18
35
16
20
29
24
31
11
10
26
4
0
8
134
133
112
250
246
255
242
255
233
246
246
246
246
246
246
246
246
246
246
246
246
246
246
246
246
246
246
246
246
246
246
246
246
244
244
244
244
244
244
244
244
244
244
244
244
244
244
244
244
244
244
244
244
244
244
244
244
244
244
244
244
244
244
244
244
244
244
244
244
244
244
244
244
244
244
244
244
244
244
244
244
243
243
243
243
243
243
243
243
243
243
243
243
243
243
243
243
243
243
243
243
243
243
243
243
243
243
243
243
243
243
243
243
243
243
243
243
243
243
243
243
243
243
243
243
243
243
243
243
245
245
245
247
247
247
247
247
247
247
247
247
246
246
246
246
246
246
246
246
246
245
245
245
245
245
245
246
246
246
246
246
246
246
246
246
246
246
246
246
246
246
246
246
246
246
246
246
246
246
246
245
245
245
245
245
245
245
245
245
245
245
245
245
245
245
245
245
245
245
245
245
245
245
245
245
245
245
245
245
245
245
245
245
246
246
246
246
246
246
246
246
246
247
247
247
247
247
247
245
245
245
245
245
245
245
245
245
245
245
245
245
245
245
245
245
245
245
245
245
245
245
245
236
243
236
252
250
253
221
210
216
9
0
21
17
23
0
24
25
17
13
0
30
160
159
17
255
253
25
243
230
1
239
226
0
248
235
6
243
230
2
240
227
1
247
234
8
251
237
14
244
232
0
244
232
0
244
232
0
244
232
0
244
232
0
244
232
0
244
232
0
244
232
0
243
230
2
243
230
2
243
230
2
243
230
2
243
230
2
243
230
2
243
230
2
243
230
2
242
229
1
242
229
1
242
229
1
242
229
1
242
229
1
242
229
1
242
229
1
242
229
1
237
224
0
238
222
25
243
236
0
241
230
0
249
224
20
244
231
2
223
224
22
43
36
0
14
7
25
29
22
38
25
19
31
15
10
17
22
17
21
22
18
19
19
15
14
27
23
22
23
15
26
20
16
13
18
17
15
18
19
11
21
22
4
29
23
35
11
0
16
60
56
21
245
232
6
244
231
5
241
228
0
237
224
0
235
222
0
236
223
0
240
227
0
242
229
0
236
226
0
242
227
10
245
229
0
243
224
0
247
227
19
241
230
0
242
238
7
165
148
18
3
0
16
24
18
32
23
18
25
23
19
20
22
19
12
21
19
6
23
19
18
19
12
30
21
21
19
21
20
18
23
17
27
28
21
29
24
18
20
19
14
10
30
24
26
5
0
40
187
173
24
249
248
0
239
230
0
248
229
13
247
229
0
244
228
0
240
225
10
237
226
0
242
229
1
242
229
1
243
230
2
243
230
2
243
230
2
244
231
3
244
231
3
244
231
3
246
232
1
246
232
1
246
232
1
246
232
1
246
232
1
246
232
1
246
232
1
246
232
1
244
229
2
244
229
2
244
229
2
244
229
2
244
229
2
244
229
2
244
229
2
244
229
2
245
231
0
245
231
0
245
231
0
245
231
0
245
231
0
245
231
0
245
231
0
245
231
0
240
241
0
92
76
24
14
4
28
23
20
39
10
9
4
65
62
55
240
235
255
245
255
239
245
245
245
245
245
245
245
245
245
245
245
245
245
245
245
245
245
245
245
245
245
245
245
245
244
244
244
244
244
244
244
244
244
244
244
244
244
244
244
244
244
244
244
244
244
244
244
244
244
244
244
244
244
244
244
244
244
244
244
244
244
244
244
244
244
244
244
244
244
244
244
244
244
244
244
244
244
244
244
244
244
244
244
244
244
244
244
244
244
244
244
244
244
244
244
244
244
244
244
244
244
244
244
244
244
244
244
244
244
244
244
244
244
244
244
244
244
244
244
244
245
245
245
247
247
247
247
247
247
247
247
247
246
246
246
246
246
246
246
246
246
245
245
245
245
245
245
246
246
246
246
246
246
246
246
246
246
246
246
246
246
246
246
246
246
246
246
246
246
246
246
245
245
245
245
245
245
245
245
245
245
245
245
245
245
245
245
245
245
245
245
245
245
245
245
245
245
245
245
245
245
246
246
246
246
246
246
247
247
247
247
247
247
247
247
247
247
247
247
245
245
245
245
245
245
245
245
245
245
245
245
245
245
245
245
245
245
245
245
245
245
245
245
241
248
240
255
252
255
169
160
165
4
0
11
12
18
0
17
12
8
32
10
22
217
214
11
251
239
3
237
225
0
243
231
0
249
236
8
239
226
0
240
227
1
250
237
11
248
235
9
244
232
0
244
232
0
244
232
0
244
232
0
244
232
0
244
232
0
244
232
0
244
232
0
243
230
2
243
230
2
243
230
2
243
230
2
243
230
2
243
230
2
243
230
2
243
230
2
242
229
1
242
229
1
242
229
1
242
229
1
242
229
1
242
229
1
242
229
1
242
229
1
240
225
0
238
221
27
241
234
0
240
231
0
248
225
23
244
229
4
241
242
18
93
88
0
3
0
7
23
17
27
28
22
32
16
11
18
17
12
18
22
17
21
21
17
16
24
20
17
23
14
31
21
18
11
13
13
13
18
21
14
23
27
4
40
31
50
8
0
5
124
123
33
251
238
9
246
233
4
240
227
0
236
223
0
236
223
0
238
225
0
240
227
0
242
229
1
238
226
0
243
227
7
243
226
0
244
226
2
247
228
12
241
230
0
247
236
6
200
182
12
3
0
0
16
10
22
28
21
37
22
18
19
17
15
2
19
16
7
26
21
25
16
10
24
20
19
15
24
22
27
21
18
27
22
15
31
25
20
17
28
21
13
23
11
23
18
5
12
224
209
20
255
247
0
239
230
0
249
232
5
248
231
3
242
225
0
240
224
6
237
224
0
242
229
1
242
229
1
242
229
1
242
229
1
243
230
2
243
230
2
244
231
3
244
231
3
246
232
1
246
232
1
246
232
1
246
232
1
246
232
1
246
232
1
246
232
1
246
232
1
244
229
2
244
229
2
244
229
2
244
229
2
244
229
2
244
229
2
244
229
2
244
229
2
245
231
0
245
231
0
245
231
0
245
231
0
245
231
0
245
231
0
245
231
0
245
231
0
252
245
0
178
170
35
6
0
23
25
23
36
20
22
0
9
0
21
206
204
207
245
250
246
245
245
245
245
245
245
245
245
245
245
245
245
245
245
245
245
245
245
245
245
245
245
245
245
244
244
244
244
244
244
244
244
244
244
244
244
244
244
244
244
244
244
244
244
244
244
244
244
244
244
244
244
244
244
244
244
244
244
244
244
244
244
244
244
244
244
244
244
244
244
244
244
244
244
244
244
244
244
244
244
244
244
244
244
244
244
244
244
244
244
244
244
244
244
244
244
244
244
244
244
244
244
244
244
244
244
244
244
244
244
244
244
244
244
244
244
244
244
244
244
245
245
245
247
247
247
247
247
247
247
247
247
246
246
246
246
246
246
246
246
246
245
245
245
245
245
245
246
246
246
246
246
246
246
246
246
246
246
246
246
246
246
246
246
246
246
246
246
246
246
246
246
246
246
246
246
246
246
246
246
246
246
246
246
246
246
246
246
246
246
246
246
246
246
246
246
246
246
246
246
246
246
246
246
247
247
247
247
247
247
247
247
247
248
248
248
248
248
248
245
245
245
245
245
245
245
245
245
245
245
245
245
245
245
245
245
245
245
245
245
245
245
245
245
249
248
249
247
250
102
95
102
4
0
1
14
15
0
12
1
7
83
62
17
246
241
1
237
226
0
235
223
0
245
232
3
248
235
9
237
224
0
240
227
0
250
237
8
246
234
2
244
232
0
244
232
0
244
232
0
244
232
0
244
232
0
244
232
0
244
232
0
244
232
0
243
230
2
243
230
2
243
230
2
243
230
2
243
230
2
243
230
2
243
230
2
243
230
2
242
229
1
242
229
1
242
229
1
242
229
1
242
229
1
242
229
1
242
229
1
242
229
1
245
228
0
239
224
21
235
230
0
239
232
0
248
227
16
243
225
3
245
243
11
153
152
0
3
0
0
16
12
11
28
23
27
27
22
28
22
17
23
23
18
22
22
18
17
15
11
8
30
19
36
25
23
10
15
14
20
21
25
24
22
26
1
34
22
46
11
0
0
177
181
24
252
240
6
246
234
0
239
227
0
237
225
0
239
226
0
241
228
0
242
229
1
241
228
2
242
228
0
246
231
6
241
226
3
243
227
7
245
230
5
240
227
0
246
232
3
229
211
3
32
35
0
10
6
5
29
21
44
22
17
21
15
13
0
20
17
12
25
20
26
17
12
16
20
17
8
26
22
37
20
17
24
18
15
24
26
23
14
35
25
26
16
0
17
73
67
0
244
228
10
254
241
2
242
230
0
247
233
2
245
230
5
239
224
1
242
227
2
238
224
0
241
228
0
241
228
0
242
229
1
242
229
1
242
229
1
243
230
2
243
230
2
243
230
2
246
232
1
246
232
1
246
232
1
246
232
1
246
232
1
246
232
1
246
232
1
246
232
1
244
229
2
244
229
2
244
229
2
244
229
2
244
229
2
244
229
2
244
229
2
244
229
2
245
231
0
245
231
0
245
231
0
245
231
0
245
231
0
245
231
0
245
231
0
245
231
0
250
235
0
234
231
28
24
12
16
11
10
16
22
24
2
4
0
23
164
163
145
254
254
255
244
244
244
244
244
244
244
244
244
244
244
244
244
244
244
244
244
244
244
244
244
244
244
244
244
244
244
244
244
244
244
244
244
244
244
244
244
244
244
244
244
244
244
244
244
244
244
244
244
244
244
244
244
244
244
244
244
244
244
244
244
244
244
244
244
244
244
244
244
244
244
244
245
245
245
245
245
245
245
245
245
245
245
245
245
245
245
245
245
245
245
245
245
245
245
245
245
245
245
245
245
245
245
245
245
245
245
245
245
245
245
245
245
245
245
245
245
245
245
245
245
245
245
247
247
247
247
247
247
247
247
247
246
246
246
246
246
246
246
246
246
245
245
245
245
245
245
246
246
246
246
246
246
246
246
246
246
246
246
246
246
246
246
246
246
246
246
246
246
246
246
246
246
246
246
246
246
246
246
246
246
246
246
246
246
246
246
246
246
246
246
246
246
246
246
246
246
246
246
246
246
247
247
247
247
247
247
247
247
247
248
248
248
248
248
248
248
248
248
245
245
245
245
245
245
245
245
245
245
245
245
245
245
245
245
245
245
245
245
245
245
245
245
244
247
254
234
234
226
41
34
41
19
17
5
21
19
22
13
0
14
153
136
28
251
240
0
242
230
0
239
227
0
243
230
2
246
233
7
241
228
2
240
227
0
246
234
0
248
237
0
244
232
0
244
232
0
244
232
0
244
232
0
244
232
0
244
232
0
244
232
0
244
232
0
243
230
2
243
230
2
243
230
2
243
230
2
243
230
2
243
230
2
243
230
2
243
230
2
242
229
1
242
229
1
242
229
1
242
229
1
242
229
1
242
229
1
242
229
1
242
229
1
250
229
2
241
227
8
231
225
0
239
230
0
248
230
6
240
222
0
239
232
4
207
211
0
43
42
22
19
17
4
20
17
12
31
27
28
24
19
23
21
16
20
24
20
21
16
12
11
27
15
29
22
21
1
16
16
26
25
28
37
20
25
2
16
4
28
44
28
5
215
222
5
249
237
1
243
231
0
238
226
0
239
227
0
243
230
1
246
233
5
243
230
4
240
227
1
246
232
0
250
236
7
242
226
8
245
229
11
244
230
0
239
223
0
246
228
0
250
233
0
99
108
25
10
8
0
23
14
41
23
17
27
18
15
6
22
18
19
21
16
22
23
20
11
21
17
5
27
18
45
17
16
22
20
20
18
28
26
11
36
23
41
14
0
10
157
162
0
250
233
0
251
233
3
246
230
0
247
233
0
243
227
7
239
223
5
245
231
2
239
225
0
241
228
0
241
228
0
241
228
0
242
229
1
242
229
1
242
229
1
243
230
2
243
230
2
246
232
1
246
232
1
246
232
1
246
232
1
246
232
1
246
232
1
246
232
1
246
232
1
244
229
2
244
229
2
244
229
2
244
229
2
244
229
2
244
229
2
244
229
2
244
229
2
245
231
0
245
231
0
245
231
0
245
231
0
245
231
0
245
231
0
245
231
0
245
231
0
248
225
0
242
240
8
77
72
16
0
0
9
21
22
14
11
3
14
110
108
95
255
252
255
244
244
244
244
244
244
244
244
244
244
244
244
244
244
244
244
244
244
244
244
244
244
244
244
244
244
244
244
244
244
244
244
244
244
244
244
244
244
244
244
244
244
244
244
244
244
244
244
244
244
244
244
244
244
244
244
244
244
244
244
244
244
244
244
244
244
244
244
244
244
244
244
245
245
245
245
245
245
245
245
245
245
245
245
245
245
245
245
245
245
245
245
245
245
245
245
245
245
245
245
245
245
245
245
245
245
245
245
245
245
245
245
245
245
245
245
245
245
245
245
245
245
245
247
247
247
247
247
247
247
247
247
246
246
246
246
246
246
246
246
246
245
245
245
245
245
245
246
246
246
246
246
246
246
246
246
246
246
246
246
246
246
246
246
246
246
246
246
246
246
246
246
246
246
246
246
246
246
246
246
246
246
246
246
246
246
246
246
246
246
246
246
246
246
246
246
246
246
246
246
246
247
247
247
247
247
247
248
248
248
248
248
248
248
248
248
248
248
248
245
245
245
245
245
245
245
245
245
245
245
245
245
245
245
245
245
245
245
245
245
245
245
245
242
244
255
221
222
208
4
0
4
25
27
6
29
25
42
18
0
22
205
191
40
246
231
0
254
242
8
244
232
0
240
227
1
245
231
8
245
232
6
240
228
0
242
231
0
250
240
0
244
232
0
244
232
0
244
232
0
244
232
0
244
232
0
244
232
0
244
232
0
244
232
0
243
230
2
243
230
2
243
230
2
243
230
2
243
230
2
243
230
2
243
230
2
243
230
2
242
229
1
242
229
1
242
229
1
242
229
1
242
229
1
242
229
1
242
229
1
242
229
1
253
231
10
242
229
0
225
221
0
237
229
0
248
232
0
240
220
0
232
222
0
241
245
0
87
87
59
25
24
3
9
7
0
27
23
20
21
16
20
17
12
16
27
23
24
25
21
20
17
5
15
14
12
0
15
14
28
27
30
45
18
23
1
7
0
19
91
75
41
236
247
0
246
235
0
241
230
0
238
226
0
240
228
0
246
233
4
249
236
8
245
232
6
239
226
0
250
234
1
252
238
7
241
226
9
245
231
12
244
231
0
237
220
0
244
226
0
255
244
0
155
168
60
13
13
0
17
8
37
24
18
30
23
20
13
24
19
25
18
13
19
28
27
9
22
19
2
26
16
51
16
15
20
25
27
16
30
29
9
34
19
50
15
0
8
224
234
13
251
233
0
248
229
5
248
231
4
246
232
0
241
226
9
238
223
6
248
234
1
241
225
0
241
228
0
241
228
0
241
228
0
241
228
0
242
229
1
242
229
1
243
230
2
243
230
2
246
232
1
246
232
1
246
232
1
246
232
1
246
232
1
246
232
1
246
232
1
246
232
1
244
229
2
244
229
2
244
229
2
244
229
2
244
229
2
244
229
2
244
229
2
244
229
2
245
231
0
245
231
0
245
231
0
245
231
0
245
231
0
245
231
0
245
231
0
245
231
0
255
229
6
238
235
0
133
136
29
0
0
14
21
20
26
27
23
11
60
54
54
232
230
231
244
244
244
244
244
244
244
244
244
244
244
244
244
244
244
244
244
244
244
244
244
244
244
244
244
244
244
244
244
244
244
244
244
244
244
244
244
244
244
244
244
244
244
244
244
244
244
244
244
244
244
244
244
244
244
244
244
244
244
244
244
244
244
244
244
244
244
244
244
244
244
244
245
245
245
245
245
245
245
245
245
245
245
245
245
245
245
245
245
245
245
245
245
245
245
245
245
245
245
245
245
245
245
245
245
245
245
245
245
245
245
245
245
245
245
245
245
245
245
245
245
245
245
246
246
246
246
246
246
246
246
246
246
246
246
246
246
246
246
246
246
246
246
246
246
246
246
245
245
245
245
245
245
245
245
245
245
245
245
245
245
245
245
245
245
245
245
245
245
245
245
246
246
246
246
246
246
246
246
246
246
246
246
246
246
246
246
246
246
246
246
246
246
246
246
248
248
248
248
248
248
248
248
248
248
248
248
248
248
248
248
248
248
248
248
248
248
248
248
246
246
246
246
246
246
246
246
246
246
246
246
246
246
246
246
246
246
246
246
246
246
246
246
245
246
232
152
150
163
0
1
0
22
20
34
30
23
4
44
23
20
225
226
2
246
243
0
246
232
1
246
232
1
246
232
1
246
232
1
246
232
1
246
232
1
246
232
1
246
232
1
245
231
0
245
231
0
245
231
0
245
231
0
245
231
0
245
231
0
245
231
0
245
231
0
243
230
2
243
230
2
243
230
2
243
230
2
243
230
2
243
230
2
243
230
2
243
230
2
241
228
0
241
228
0
241
228
0
242
229
1
242
229
1
242
229
1
243
230
2
243
230
2
242
229
1
242
229
1
242
229
1
242
229
1
242
229
1
242
229
1
242
229
1
242
229
1
199
201
12
14
0
35
12
0
23
17
21
0
8
15
0
19
18
0
41
20
76
21
5
0
26
22
0
31
24
16
20
15
19
21
22
6
23
14
17
18
0
0
195
177
69
241
237
0
243
230
2
243
230
2
243
230
2
243
230
2
243
230
2
243
230
2
243
230
2
243
230
2
243
230
2
243
230
2
243
230
2
243
230
2
243
230
2
243
230
2
243
230
2
243
230
2
239
243
26
49
25
21
37
25
25
7
12
0
4
6
1
22
21
16
24
14
23
37
19
45
31
22
0
29
23
1
19
13
27
29
27
40
26
22
23
10
0
7
148
135
56
241
249
0
245
233
1
245
233
1
244
231
2
243
230
1
242
229
1
242
229
3
241
228
2
241
228
2
242
229
1
242
229
1
242
229
1
243
230
2
243
230
2
243
230
2
244
231
3
244
231
3
246
232
1
246
232
1
246
232
1
245
231
0
245
231
0
244
230
0
244
230
0
244
230
0
243
231
0
243
231
0
243
231
0
243
231
0
243
231
0
243
231
0
243
231
0
243
231
0
245
231
0
245
231
0
245
231
0
245
231
0
245
231
0
245
231
0
245
231
0
245
231
0
249
236
0
249
236
8
195
191
0
13
0
4
7
7
31
23
31
44
3
5
0
214
203
207
238
238
238
233
233
233
255
255
255
248
248
248
236
236
236
249
249
249
245
245
245
241
241
241
244
244
244
244
244
244
244
244
244
244
244
244
244
244
244
244
244
244
244
244
244
244
244
244
243
243
243
243
243
243
243
243
243
243
243
243
243
243
243
243
243
243
243
243
243
243
243
243
245
245
245
245
245
245
245
245
245
245
245
245
245
245
245
245
245
245
245
245
245
245
245
245
244
244
244
244
244
244
244
244
244
244
244
244
244
244
244
244
244
244
244
244
244
244
244
244
244
244
244
246
246
246
246
246
246
246
246
246
246
246
246
246
246
246
246
246
246
246
246
246
246
246
246
245
245
245
245
245
245
245
245
245
245
245
245
245
245
245
245
245
245
245
245
245
245
245
245
246
246
246
246
246
246
246
246
246
246
246
246
246
246
246
246
246
246
246
246
246
246
246
246
248
248
248
248
248
248
248
248
248
248
248
248
248
248
248
248
248
248
248
248
248
248
248
248
246
246
246
246
246
246
246
246
246
246
246
246
246
246
246
246
246
246
246
246
246
246
246
246
241
240
238
110
111
106
2
3
5
22
20
31
29
19
20
76
58
18
237
236
8
245
240
0
246
232
1
246
232
1
246
232
1
246
232
1
246
232
1
246
232
1
246
232
1
246
232
1
245
231
0
245
231
0
245
231
0
245
231
0
245
231
0
245
231
0
245
231
0
245
231
0
243
230
2
243
230
2
243
230
2
243
230
2
243
230
2
243
230
2
243
230
2
243
230
2
241
228
0
241
228
0
241
228
0
242
229
1
242
229
1
242
229
1
243
230
2
243
230
2
242
229
1
242
229
1
242
229
1
242
229
1
242
229
1
242
229
1
242
229
1
242
229
1
223
229
0
133
127
0
14
0
43
27
15
65
29
30
35
16
12
37
4
0
0
50
39
45
30
15
58
19
15
12
21
20
15
23
16
49
10
0
17
96
85
3
235
230
24
238
231
0
243
230
2
243
230
2
243
230
2
243
230
2
243
230
2
243
230
2
243
230
2
243
230
2
243
230
2
243
230
2
243
230
2
243
230
2
243
230
2
243
230
2
243
230
2
243
230
2
232
233
0
174
171
4
11
0
27
27
9
91
43
44
49
7
10
3
14
15
0
32
29
12
27
13
46
26
19
37
28
28
26
11
6
38
34
20
69
39
30
0
227
230
15
236
236
0
245
233
1
245
233
1
244
231
2
243
230
1
242
229
1
242
229
3
241
228
2
241
228
2
242
229
1
242
229
1
242
229
1
243
230
2
243
230
2
243
230
2
244
231
3
244
231
3
246
232
1
246
232
1
246
232
1
245
231
0
245
231
0
244
230
0
244
230
0
244
230
0
243
231
0
243
231
0
243
231
0
243
231
0
243
231
0
243
231
0
243
231
0
243
231
0
245
231
0
245
231
0
245
231
0
245
231
0
245
231
0
245
231
0
245
231
0
245
231
0
245
233
0
250
237
11
215
210
0
38
19
13
10
8
30
18
26
39
5
7
2
190
179
183
245
245
245
237
237
237
253
253
253
248
248
248
239
239
239
248
248
248
245
245
245
243
243
243
244
244
244
244
244
244
244
244
244
244
244
244
244
244
244
244
244
244
244
244
244
244
244
244
243
243
243
243
243
243
243
243
243
243
243
243
243
243
243
243
243
243
243
243
243
243
243
243
245
245
245
245
245
245
245
245
245
245
245
245
245
245
245
245
245
245
245
245
245
245
245
245
244
244
244
244
244
244
244
244
244
244
244
244
244
244
244
244
244
244
244
244
244
244
244
244
244
244
244
246
246
246
246
246
246
246
246
246
246
246
246
246
246
246
246
246
246
246
246
246
246
246
246
245
245
245
245
245
245
245
245
245
245
245
245
245
245
245
245
245
245
245
245
245
245
245
245
247
247
247
247
247
247
247
247
247
247
247
247
247
247
247
247
247
247
247
247
247
247
247
247
249
249
249
249
249
249
249
249
249
249
249
249
249
249
249
249
249
249
249
249
249
249
249
249
247
247
247
247
247
247
247
247
247
247
247
247
247
247
247
247
247
247
247
247
247
247
247
247
237
235
249
53
59
31
13
14
18
24
22
25
22
5
37
126
117
12
247
245
10
245
235
0
246
232
1
246
232
1
246
232
1
246
232
1
246
232
1
246
232
1
246
232
1
246
232
1
245
231
0
245
231
0
245
231
0
245
231
0
245
231
0
245
231
0
245
231
0
245
231
0
243
230
2
243
230
2
243
230
2
243
230
2
243
230
2
243
230
2
243
230
2
243
230
2
241
228
0
241
228
0
241
228
0
242
229
1
242
229
1
242
229
1
243
230
2
243
230
2
242
229
1
242
229
1
242
229
1
242
229
1
242
229
1
242
229
1
242
229
1
242
229
1
254
241
38
223
222
0
29
8
0
10
0
26
1
3
0
9
12
19
31
39
0
4
2
16
20
11
40
23
23
11
1
0
0
17
7
42
15
4
0
202
200
38
252
249
14
237
223
0
243
230
2
243
230
2
243
230
2
243
230
2
243
230
2
243
230
2
243
230
2
243
230
2
243
230
2
243
230
2
243
230
2
243
230
2
243
230
2
243
230
2
243
230
2
243
230
2
254
241
15
228
230
0
65
49
0
15
0
56
0
0
0
26
34
19
27
32
36
14
15
36
16
14
36
30
30
42
1
2
7
14
7
40
8
0
0
187
183
32
231
230
0
252
235
21
245
233
1
245
233
1
244
231
2
243
230
1
242
229
1
242
229
3
241
228
2
241
228
2
242
229
1
242
229
1
242
229
1
243
230
2
243
230
2
243
230
2
244
231
3
244
231
3
246
232
1
246
232
1
246
232
1
245
231
0
245
231
0
244
230
0
244
230
0
244
230
0
243
231
0
243
231
0
243
231
0
243
231
0
243
231
0
243
231
0
243
231
0
243
231
0
245
231
0
245
231
0
245
231
0
245
231
0
245
231
0
245
231
0
245
231
0
245
231
0
241
230
0
248
234
13
239
233
17
75
60
21
12
7
29
13
20
30
7
9
8
142
133
136
254
254
254
242
242
242
248
248
248
247
247
247
243
243
243
247
247
247
245
245
245
245
245
245
244
244
244
244
244
244
244
244
244
244
244
244
244
244
244
244
244
244
244
244
244
244
244
244
243
243
243
243
243
243
243
243
243
243
243
243
243
243
243
243
243
243
243
243
243
243
243
243
245
245
245
245
245
245
245
245
245
245
245
245
245
245
245
245
245
245
245
245
245
245
245
245
243
243
243
243
243
243
243
243
243
243
243
243
243
243
243
243
243
243
243
243
243
243
243
243
243
243
243
246
246
246
246
246
246
246
246
246
246
246
246
246
246
246
246
246
246
246
246
246
246
246
246
246
246
246
246
246
246
246
246
246
246
246
246
246
246
246
246
246
246
246
246
246
246
246
246
248
248
248
248
248
248
248
248
248
248
248
248
248
248
248
248
248
248
248
248
248
248
248
248
249
249
249
249
249
249
249
249
249
249
249
249
249
249
249
249
249
249
249
249
249
249
249
249
248
248
248
248
248
248
248
248
248
248
248
248
248
248
248
248
248
248
248
248
248
248
248
248
233
229
255
11
20
0
20
20
28
27
26
21
9
0
40
177
176
6
251
246
4
246
231
6
246
232
1
246
232
1
246
232
1
246
232
1
246
232
1
246
232
1
246
232
1
246
232
1
245
231
0
245
231
0
245
231
0
245
231
0
245
231
0
245
231
0
245
231
0
245
231
0
243
230
2
243
230
2
243
230
2
243
230
2
243
230
2
243
230
2
243
230
2
243
230
2
241
228
0
241
228
0
241
228
0
242
229
1
242
229
1
242
229
1
243
230
2
243
230
2
242
229
1
242
229
1
242
229
1
242
229
1
242
229
1
242
229
1
242
229
1
242
229
1
248
229
15
240
233
0
219
211
48
26
11
0
32
21
51
7
6
12
7
12
5
19
28
0
16
18
0
8
3
23
22
13
40
34
31
0
153
155
10
230
230
18
244
234
15
239
218
17
243
230
2
243
230
2
243
230
2
243
230
2
243
230
2
243
230
2
243
230
2
243
230
2
243
230
2
243
230
2
243
230
2
243
230
2
243
230
2
243
230
2
243
230
2
243
230
2
255
234
22
236
219
17
207
199
28
14
0
0
24
9
64
14
17
6
14
24
0
4
18
0
17
24
17
3
6
15
30
23
64
23
17
1
148
151
0
239
235
22
230
212
8
249
224
9
245
233
1
245
233
1
244
231
2
243
230
1
242
229
1
242
229
3
241
228
2
241
228
2
242
229
1
242
229
1
242
229
1
243
230
2
243
230
2
243
230
2
244
231
3
244
231
3
246
232
1
246
232
1
246
232
1
245
231
0
245
231
0
244
230
0
244
230
0
244
230
0
243
231
0
243
231
0
243
231
0
243
231
0
243
231
0
243
231
0
243
231
0
243
231
0
245
231
0
245
231
0
245
231
0
245
231
0
245
231
0
245
231
0
245
231
0
245
231
0
239
230
0
242
227
10
251
243
20
114
102
20
15
6
25
13
17
26
8
8
10
83
74
75
255
255
255
247
247
247
245
245
245
246
246
246
246
246
246
246
246
246
245
245
245
246
246
246
244
244
244
244
244
244
244
244
244
244
244
244
244
244
244
244
244
244
244
244
244
244
244
244
243
243
243
243
243
243
243
243
243
243
243
243
243
243
243
243
243
243
243
243
243
243
243
243
244
244
244
244
244
244
244
244
244
244
244
244
244
244
244
244
244
244
244
244
244
244
244
244
243
243
243
243
243
243
243
243
243
243
243
243
243
243
243
243
243
243
243
243
243
243
243
243
243
243
243
246
246
246
246
246
246
246
246
246
246
246
246
246
246
246
246
246
246
246
246
246
246
246
246
246
246
246
246
246
246
246
246
246
246
246
246
246
246
246
246
246
246
246
246
246
246
246
246
249
249
249
249
249
249
249
249
249
249
249
249
249
249
249
249
249
249
249
249
249
249
249
249
250
250
250
250
250
250
250
250
250
250
250
250
250
250
250
250
250
250
250
250
250
250
250
250
249
249
249
249
249
249
249
249
249
249
249
249
249
249
249
249
249
249
249
249
249
249
249
249
217
214
241
0
7
0
22
22
30
32
29
22
10
0
35
214
220
0
246
241
0
250
230
11
246
232
1
246
232
1
246
232
1
246
232
1
246
232
1
246
232
1
246
232
1
246
232
1
245
231
0
245
231
0
245
231
0
245
231
0
245
231
0
245
231
0
245
231
0
245
231
0
243
230
2
243
230
2
243
230
2
243
230
2
243
230
2
243
230
2
243
230
2
243
230
2
241
228
0
241
228
0
241
228
0
242
229
1
242
229
1
242
229
1
243
230
2
243
230
2
242
229
1
242
229
1
242
229
1
242
229
1
242
229
1
242
229
1
242
229
1
242
229
1
237
219
0
244
230
1
232
232
0
187
182
30
41
27
1
22
14
1
18
4
53
26
15
55
26
16
24
10
0
30
10
0
0
121
123
0
226
235
0
255
255
15
234
222
0
255
246
0
243
230
2
243
230
2
243
230
2
243
230
2
243
230
2
243
230
2
243
230
2
243
230
2
243
230
2
243
230
2
243
230
2
243
230
2
243
230
2
243
230
2
243
230
2
243
230
2
250
230
0
249
228
25
245
242
0
197
195
24
29
14
0
7
0
0
22
19
30
43
37
75
14
10
27
23
15
36
7
0
0
126
126
2
233
242
0
255
250
6
243
223
4
255
234
0
245
233
1
245
233
1
244
231
2
243
230
1
242
229
1
242
229
3
241
228
2
241
228
2
242
229
1
242
229
1
242
229
1
243
230
2
243
230
2
243
230
2
244
231
3
244
231
3
246
232
1
246
232
1
246
232
1
245
231
0
245
231
0
244
230
0
244
230
0
244
230
0
243
231
0
243
231
0
243
231
0
243
231
0
243
231
0
243
231
0
243
231
0
243
231
0
245
231
0
245
231
0
245
231
0
245
231
0
245
231
0
245
231
0
245
231
0
245
231
0
238
232
0
235
220
7
249
240
11
151
142
13
16
3
20
19
20
25
9
8
14
30
24
24
247
247
247
249
249
249
245
245
245
245
245
245
247
247
247
245
245
245
246
246
246
246
246
246
244
244
244
244
244
244
244
244
244
244
244
244
244
244
244
244
244
244
244
244
244
244
244
244
243
243
243
243
243
243
243
243
243
243
243
243
243
243
243
243
243
243
243
243
243
243
243
243
244
244
244
244
244
244
244
244
244
244
244
244
244
244
244
244
244
244
244
244
244
244
244
244
243
243
243
243
243
243
243
243
243
243
243
243
243
243
243
243
243
243
243
243
243
243
243
243
243
243
243
246
246
246
246
246
246
246
246
246
246
246
246
246
246
246
246
246
246
246
246
246
246
246
246
247
247
247
247
247
247
247
247
247
247
247
247
247
247
247
247
247
247
247
247
247
247
247
247
250
250
250
250
250
250
250
250
250
250
250
250
250
250
250
250
250
250
250
250
250
250
250
250
250
250
250
250
250
250
250
250
250
250
250
250
250
250
250
250
250
250
250
250
250
250
250
250
250
250
250
250
250
250
250
250
250
250
250
250
250
250
250
250
250
250
250
250
250
250
250
250
183
182
198
0
5
0
25
26
31
31
28
21
23
3
28
234
240
0
243
234
0
255
231
9
246
232
1
246
232
1
246
232
1
246
232
1
246
232
1
246
232
1
246
232
1
246
232
1
245
231
0
245
231
0
245
231
0
245
231
0
245
231
0
245
231
0
245
231
0
245
231
0
243
230
2
243
230
2
243
230
2
243
230
2
243
230
2
243
230
2
243
230
2
243
230
2
241
228
0
241
228
0
241
228
0
242
229
1
242
229
1
242
229
1
243
230
2
243
230
2
242
229
1
242
229
1
242
229
1
242
229
1
242
229
1
242
229
1
242
229
1
242
229
1
237
219
0
247
228
28
255
251
0
228
230
0
212
205
36
128
118
7
18
0
0
16
0
28
23
5
0
82
71
0
177
175
13
238
240
19
250
248
15
215
202
0
243
228
5
245
228
0
243
230
2
243
230
2
243
230
2
243
230
2
243
230
2
243
230
2
243
230
2
243
230
2
243
230
2
243
230
2
243
230
2
243
230
2
243
230
2
243
230
2
243
230
2
243
230
2
254
233
6
248
233
0
230
220
0
233
235
0
214
215
13
109
95
22
19
2
0
13
0
39
14
0
0
92
78
17
178
176
14
255
255
27
251
242
27
220
205
0
243
227
0
248
227
0
245
233
1
245
233
1
244
231
2
243
230
1
242
229
1
242
229
3
241
228
2
241
228
2
242
229
1
242
229
1
242
229
1
243
230
2
243
230
2
243
230
2
244
231
3
244
231
3
246
232
1
246
232
1
246
232
1
245
231
0
245
231
0
244
230
0
244
230
0
244
230
0
243
231
0
243
231
0
243
231
0
243
231
0
243
231
0
243
231
0
243
231
0
243
231
0
245
231
0
245
231
0
245
231
0
245
231
0
245
231
0
245
231
0
245
231
0
245
231
0
241
235
0
233
217
10
245
235
0
187
180
11
16
0
13
24
24
26
13
12
20
3
0
0
228
228
228
250
250
250
248
248
248
245
245
245
245
245
245
243
243
243
247
247
247
244
244
244
244
244
244
244
244
244
244
244
244
244
244
244
244
244
244
244
244
244
244
244
244
244
244
244
243
243
243
243
243
243
243
243
243
243
243
243
243
243
243
243
243
243
243
243
243
243
243
243
243
243
243
243
243
243
243
243
243
243
243
243
243
243
243
243
243
243
243
243
243
243
243
243
242
242
242
242
242
242
242
242
242
242
242
242
242
242
242
242
242
242
242
242
242
242
242
242
242
242
242
246
246
246
246
246
246
246
246
246
246
246
246
246
246
246
246
246
246
246
246
246
246
246
246
247
247
247
247
247
247
247
247
247
247
247
247
247
247
247
247
247
247
247
247
247
247
247
247
250
250
250
250
250
250
250
250
250
250
250
250
250
250
250
250
250
250
250
250
250
250
250
250
251
251
251
251
251
251
251
251
251
251
251
251
251
251
251
251
251
251
251
251
251
251
251
251
250
250
250
250
250
250
250
250
250
250
250
250
250
250
250
250
250
250
250
250
250
250
250
250
135
139
138
1
5
4
31
32
36
27
24
19
61
44
36
238
243
0
243
232
0
255
232
5
246
232
1
246
232
1
246
232
1
246
232
1
246
232
1
246
232
1
246
232
1
246
232
1
245
231
0
245
231
0
245
231
0
245
231
0
245
231
0
245
231
0
245
231
0
245
231
0
243
230
2
243
230
2
243
230
2
243
230
2
243
230
2
243
230
2
243
230
2
243
230
2
241
228
0
241
228
0
241
228
0
242
229
1
242
229
1
242
229
1
243
230
2
243
230
2
242
229
1
242
229
1
242
229
1
242
229
1
242
229
1
242
229
1
242
229
1
242
229
1
229
216
0
247
236
7
220
203
1
244
228
18
246
231
28
228
214
21
238
228
19
212
198
31
208
198
41
235
230
24
231
229
0
240
232
0
218
203
0
252
236
18
255
237
23
231
209
10
243
230
2
243
230
2
243
230
2
243
230
2
243
230
2
243
230
2
243
230
2
243
230
2
243
230
2
243
230
2
243
230
2
243
230
2
243
230
2
243
230
2
243
230
2
243
230
2
243
223
28
232
216
0
249
226
52
253
238
23
244
236
0
239
226
33
216
207
8
224
217
13
220
207
32
222
209
16
255
255
9
234
224
0
228
209
8
255
237
23
253
237
4
240
217
23
245
233
1
245
233
1
244
231
2
243
230
1
242
229
1
242
229
3
241
228
2
241
228
2
242
229
1
242
229
1
242
229
1
243
230
2
243
230
2
243
230
2
244
231
3
244
231
3
246
232
1
246
232
1
246
232
1
245
231
0
245
231
0
244
230
0
244
230
0
244
230
0
243
231
0
243
231
0
243
231
0
243
231
0
243
231
0
243
231
0
243
231
0
243
231
0
245
231
0
245
231
0
245
231
0
245
231
0
245
231
0
245
231
0
245
231
0
245
231
0
243
239
0
238
221
17
246
235
0
220
215
12
15
0
8
29
27
28
19
17
30
3
0
0
205
205
205
248
248
248
252
252
252
244
244
244
243
243
243
242
242
242
249
249
249
242
242
242
244
244
244
244
244
244
244
244
244
244
244
244
244
244
244
244
244
244
244
244
244
244
244
244
243
243
243
243
243
243
243
243
243
243
243
243
243
243
243
243
243
243
243
243
243
243
243
243
243
243
243
243
243
243
243
243
243
243
243
243
243
243
243
243
243
243
243
243
243
243
243
243
242
242
242
242
242
242
242
242
242
242
242
242
242
242
242
242
242
242
242
242
242
242
242
242
242
242
242
246
246
246
246
246
246
246
246
246
246
246
246
246
246
246
246
246
246
246
246
246
246
246
246
247
247
247
247
247
247
247
247
247
247
247
247
247
247
247
247
247
247
247
247
247
247
247
247
251
251
251
251
251
251
251
251
251
251
251
251
251
251
251
251
251
251
251
251
251
251
251
251
251
251
251
251
251
251
251
251
251
251
251
251
251
251
251
251
251
251
251
251
251
251
251
251
251
251
251
251
251
251
251
251
251
251
251
251
251
251
251
251
251
251
251
251
251
251
251
251
101
107
95
3
4
22
35
36
38
25
19
19
91
78
46
236
241
0
247
234
0
255
233
0
246
232
1
246
232
1
246
232
1
246
232
1
246
232
1
246
232
1
246
232
1
246
232
1
245
231
0
245
231
0
245
231
0
245
231
0
245
231
0
245
231
0
245
231
0
245
231
0
243
230
2
243
230
2
243
230
2
243
230
2
243
230
2
243
230
2
243
230
2
243
230
2
241
228
0
241
228
0
241
228
0
242
229
1
242
229
1
242
229
1
243
230
2
243
230
2
242
229
1
242
229
1
242
229
1
242
229
1
242
229
1
242
229
1
242
229
1
242
229
1
239
227
29
230
226
0
246
237
0
243
224
8
243
224
0
251
231
0
253
234
0
252
234
0
233
229
0
244
232
8
253
235
39
234
213
8
255
246
3
238
223
0
232
218
0
251
232
16
243
230
2
243
230
2
243
230
2
243
230
2
243
230
2
243
230
2
243
230
2
243
230
2
243
230
2
243
230
2
243
230
2
243
230
2
243
230
2
243
230
2
243
230
2
243
230
2
238
231
0
240
231
0
238
227
0
249
236
0
252
234
2
244
227
0
255
242
26
244
231
0
248
233
0
255
248
0
234
208
10
255
228
37
255
238
0
248
235
0
235
221
0
254
241
13
245
233
1
245
233
1
244
231
2
243
230
1
242
229
1
242
229
3
241
228
2
241
228
2
242
229
1
242
229
1
242
229
1
243
230
2
243
230
2
243
230
2
244
231
3
244
231
3
246
232
1
246
232
1
246
232
1
245
231
0
245
231
0
244
230
0
244
230
0
244
230
0
243
231
0
243
231
0
243
231
0
243
231
0
243
231
0
243
231
0
243
231
0
243
231
0
245
231
0
245
231
0
245
231
0
245
231
0
245
231
0
245
231
0
245
231
0
245
231
0
244
241
0
244
227
25
250
238
0
240
236
15
16
0
5
30
29
27
24
22
35
5
4
0
191
191
191
247
247
247
254
254
254
244
244
244
241
241
241
241
241
241
250
250
250
240
240
240
244
244
244
244
244
244
244
244
244
244
244
244
244
244
244
244
244
244
244
244
244
244
244
244
243
243
243
243
243
243
243
243
243
243
243
243
243
243
243
243
243
243
243
243
243
243
243
243
243
243
243
243
243
243
243
243
243
243
243
243
243
243
243
243
243
243
243
243
243
243
243
243
242
242
242
242
242
242
242
242
242
242
242
242
242
242
242
242
242
242
242
242
242
242
242
242
242
242
242
246
246
246
246
246
246
246
246
246
246
246
246
246
246
246
246
246
246
246
246
246
246
246
246
247
247
247
247
247
247
247
247
247
247
247
247
247
247
247
247
247
247
247
247
247
247
247
247
253
253
253
252
252
252
252
252
252
251
251
251
250
250
250
250
250
250
249
249
249
249
249
249
251
251
251
251
251
251
251
251
251
252
252
252
252
252
252
252
252
252
253
253
253
253
253
253
251
251
251
252
252
252
251
251
251
251
251
251
253
253
253
250
250
250
251
251
251
255
255
255
60
55
52
23
24
26
28
31
40
14
0
42
145
139
0
242
232
0
254
234
15
245
230
0
247
233
2
247
233
2
247
233
2
246
232
1
246
232
1
246
232
1
245
231
0
245
231
0
244
230
9
243
230
2
253
241
7
240
229
0
240
228
0
251
238
10
241
227
8
244
229
16
250
233
5
249
232
5
247
229
7
245
226
9
244
225
8
244
226
6
245
227
5
245
228
1
244
232
0
243
230
2
241
225
7
242
222
11
243
222
11
246
225
10
251
229
6
254
233
4
243
230
2
243
230
2
242
229
1
242
229
1
242
229
1
241
228
0
241
228
0
241
228
0
241
228
0
241
228
0
241
228
0
241
228
0
241
228
0
241
228
0
241
228
0
241
228
0
242
229
1
242
229
1
242
229
1
242
229
1
242
229
1
242
229
1
242
229
1
242
229
1
242
229
1
242
229
1
242
229
1
242
229
1
242
229
1
242
229
1
242
229
1
242
229
1
241
228
0
241
228
0
241
228
0
241
228
0
242
229
1
242
229
1
243
230
2
243
230
2
242
229
1
242
229
1
242
229
1
242
229
1
242
229
1
242
229
1
242
229
1
242
229
1
243
230
2
243
230
2
243
230
2
243
230
2
243
230
2
243
230
2
243
230
2
243
230
2
246
234
2
246
234
2
246
234
2
246
234
2
245
233
1
245
233
1
244
232
0
244
232
0
251
223
15
249
222
11
246
221
6
244
222
1
242
223
0
244
225
0
245
228
0
247
230
3
246
228
4
240
225
0
238
224
0
240
226
0
245
233
0
248
236
2
243
232
0
238
227
0
242
229
1
242
229
1
242
229
1
242
229
1
242
229
1
242
229
1
242
229
1
242
229
1
244
229
2
244
229
2
244
229
2
244
229
2
244
229
2
244
229
2
244
229
2
244
229
2
242
233
4
252
237
0
243
223
4
247
239
8
42
20
9
23
13
21
21
25
0
6
0
20
143
143
143
253
253
253
248
248
248
244
244
244
248
248
248
241
241
241
251
251
251
248
248
248
243
243
243
243
243
243
243
243
243
244
244
244
244
244
244
244
244
244
245
245
245
245
245
245
245
245
245
245
245
245
244
244
244
244
244
244
244
244
244
243
243
243
243
243
243
243
243
243
244
244
244
244
244
244
243
243
243
243
243
243
243
243
243
242
242
242
242
242
242
242
242
242
242
242
242
242
242
242
242
242
242
243
243
243
243
243
243
243
243
243
244
244
244
244
244
244
243
243
243
246
246
246
246
246
246
246
246
246
246
246
246
246
246
246
246
246
246
246
246
246
246
246
246
247
247
247
247
247
247
247
247
247
247
247
247
247
247
247
247
247
247
247
247
247
247
247
247
253
253
253
252
252
252
252
252
252
251
251
251
250
250
250
249
249
249
249
249
249
248
248
248
251
251
251
251
251
251
251
251
251
251
251
251
252
252
252
252
252
252
253
253
253
253
253
253
251
251
251
252
252
252
251
251
251
251
251
251
252
252
252
251
251
251
251
251
251
254
254
254
49
44
41
23
24
26
27
30
37
13
0
40
155
150
0
246
236
0
252
232
13
247
231
0
247
233
2
247
233
2
247
233
2
246
232
1
246
232
1
246
232
1
245
231
0
245
231
0
249
236
8
240
227
0
244
232
0
242
230
0
249
237
5
248
235
6
229
216
0
235
221
0
233
220
0
237
223
0
243
229
10
249
234
17
251
236
19
251
237
18
248
234
11
246
233
7
233
226
0
236
227
0
239
229
0
241
231
0
242
233
0
242
234
0
242
233
0
242
233
0
243
230
2
243
230
2
242
229
1
242
229
1
242
229
1
241
228
0
241
228
0
241
228
0
241
228
0
241
228
0
241
228
0
241
228
0
241
228
0
241
228
0
241
228
0
241
228
0
242
229
1
242
229
1
242
229
1
242
229
1
242
229
1
242
229
1
242
229
1
242
229
1
242
229
1
242
229
1
242
229
1
242
229
1
242
229
1
242
229
1
242
229
1
242
229
1
241
228
0
241
228
0
241
228
0
242
229
1
242
229
1
242
229
1
243
230
2
243
230
2
242
229
1
242
229
1
242
229
1
242
229
1
242
229
1
242
229
1
242
229
1
242
229
1
243
230
2
243
230
2
243
230
2
243
230
2
243
230
2
243
230
2
243
230
2
243
230
2
246
234
2
246
234
2
246
234
2
245
233
1
245
233
1
244
232
0
244
232
0
244
232
0
238
226
0
240
228
0
244
232
0
247
235
0
247
237
0
246
235
0
244
233
0
243
232
0
248
237
8
248
237
8
245
234
5
240
229
0
239
230
3
244
235
10
244
234
12
240
232
11
242
229
1
242
229
1
242
229
1
242
229
1
242
229
1
242
229
1
242
229
1
242
229
1
244
229
2
244
229
2
244
229
2
244
229
2
244
229
2
244
229
2
244
229
2
244
229
2
242
233
4
251
236
0
246
226
5
248
240
9
62
42
18
21
11
20
19
22
0
9
0
19
134
134
134
253
253
253
247
247
247
243
243
243
248
248
248
241
241
241
250
250
250
248
248
248
243
243
243
243
243
243
243
243
243
244
244
244
244
244
244
244
244
244
245
245
245
245
245
245
245
245
245
245
245
245
244
244
244
244
244
244
244
244
244
243
243
243
243
243
243
243
243
243
244
244
244
244
244
244
243
243
243
243
243
243
243
243
243
242
242
242
242
242
242
242
242
242
242
242
242
242
242
242
242
242
242
243
243
243
243
243
243
243
243
243
244
244
244
244
244
244
243
243
243
246
246
246
246
246
246
246
246
246
246
246
246
246
246
246
246
246
246
246
246
246
246
246
246
247
247
247
247
247
247
247
247
247
247
247
247
247
247
247
247
247
247
247
247
247
247
247
247
252
252
252
252
252
252
251
251
251
251
251
251
250
250
250
249
249
249
248
248
248
248
248
248
250
250
250
250
250
250
251
251
251
251
251
251
252
252
252
252
252
252
252
252
252
252
252
252
251
251
251
250
250
250
251
251
251
251
251
251
250
250
250
252
252
252
251
251
251
247
247
247
32
26
26
22
23
25
25
28
33
13
0
38
171
166
2
251
242
0
249
229
10
248
232
0
247
233
2
247
233
2
247
233
2
246
232
1
246
232
1
246
232
1
245
231
0
245
231
0
245
233
0
248
236
4
247
234
6
240
227
0
247
234
6
247
235
3
237
225
0
251
240
0
250
240
3
248
238
3
244
233
3
241
230
0
238
227
0
237
227
0
236
227
0
236
227
0
246
232
22
245
231
18
244
231
12
240
231
6
239
232
2
240
233
5
239
234
8
240
235
11
243
230
2
243
230
2
242
229
1
242
229
1
242
229
1
241
228
0
241
228
0
241
228
0
241
228
0
241
228
0
241
228
0
241
228
0
241
228
0
241
228
0
241
228
0
241
228
0
242
229
1
242
229
1
242
229
1
242
229
1
242
229
1
242
229
1
242
229
1
242
229
1
242
229
1
242
229
1
242
229
1
242
229
1
242
229
1
242
229
1
242
229
1
242
229
1
241
228
0
241
228
0
242
229
1
242
229
1
242
229
1
243
230
2
243
230
2
243
230
2
242
229
1
242
229
1
242
229
1
242
229
1
242
229
1
242
229
1
242
229
1
242
229
1
242
229
1
242
229
1
242
229
1
242
229
1
242
229
1
242
229
1
242
229
1
242
229
1
245
232
3
245
232
3
245
232
3
244
231
2
244
231
2
244
231
2
243
230
1
243
230
1
244
238
2
241
235
1
239
231
0
237
228
1
242
230
8
248
234
15
255
240
25
255
244
29
242
238
0
247
243
0
244
239
0
234
228
0
234
226
0
243
234
9
246
236
16
241
230
14
242
229
1
242
229
1
242
229
1
242
229
1
242
229
1
242
229
1
242
229
1
242
229
1
244
229
2
244
229
2
244
229
2
244
229
2
244
229
2
244
229
2
244
229
2
244
229
2
242
233
4
250
234
0
249
230
4
249
240
11
92
75
29
18
7
21
16
18
0
14
6
21
117
117
117
254
254
254
245
245
245
243
243
243
247
247
247
242
242
242
249
249
249
248
248
248
243
243
243
243
243
243
243
243
243
244
244
244
244
244
244
244
244
244
245
245
245
245
245
245
245
245
245
245
245
245
244
244
244
244
244
244
244
244
244
243
243
243
243
243
243
243
243
243
244
244
244
244
244
244
243
243
243
243
243
243
243
243
243
242
242
242
242
242
242
242
242
242
242
242
242
242
242
242
242
242
242
243
243
243
243
243
243
243
243
243
244
244
244
244
244
244
243
243
243
246
246
246
246
246
246
246
246
246
246
246
246
246
246
246
246
246
246
246
246
246
246
246
246
247
247
247
247
247
247
247
247
247
247
247
247
247
247
247
247
247
247
247
247
247
247
247
247
252
252
252
252
252
252
251
251
251
250
250
250
249
249
249
249
249
249
248
248
248
248
248
248
250
250
250
250
250
250
250
250
250
251
251
251
251
251
251
251
251
251
252
252
252
252
252
252
251
251
251
249
249
249
251
251
251
251
251
251
248
248
248
253
253
253
251
251
251
239
239
239
15
9
9
22
23
25
24
28
31
12
0
33
188
184
15
255
246
0
247
227
8
249
233
0
247
233
2
247
233
2
247
233
2
246
232
1
246
232
1
246
232
1
245
231
0
245
231
0
239
228
0
254
242
8
249
236
8
235
221
0
244
231
5
249
237
5
240
229
0
243
234
0
247
230
0
244
227
0
240
222
0
237
219
0
238
220
0
243
226
0
249
233
0
253
237
2
239
220
0
241
223
0
244
228
0
244
231
0
244
233
0
242
231
1
237
227
7
235
224
10
243
230
2
243
230
2
242
229
1
242
229
1
242
229
1
241
228
0
241
228
0
241
228
0
241
228
0
241
228
0
241
228
0
241
228
0
241
228
0
241
228
0
241
228
0
241
228
0
242
229
1
242
229
1
242
229
1
242
229
1
242
229
1
242
229
1
242
229
1
242
229
1
243
230
2
243
230
2
243
230
2
243
230
2
243
230
2
243
230
2
243
230
2
243
230
2
242
229
1
242
229
1
242
229
1
242
229
1
243
230
2
243
230
2
244
231
3
244
231
3
242
229
1
242
229
1
242
229
1
242
229
1
242
229
1
242
229
1
242
229
1
242
229
1
242
229
1
242
229
1
242
229
1
242
229
1
242
229
1
242
229
1
242
229
1
242
229
1
244
231
2
244
231
2
244
231
2
244
231
2
243
230
1
243
230
1
242
229
0
242
229
0
241
234
0
244
233
1
244
233
3
244
231
3
242
227
0
239
222
0
236
218
0
233
215
0
245
227
23
249
231
25
246
229
19
239
220
3
241
224
0
249
234
0
247
232
0
235
220
0
242
229
1
242
229
1
242
229
1
242
229
1
242
229
1
242
229
1
242
229
1
242
229
1
244
229
2
244
229
2
244
229
2
244
229
2
244
229
2
244
229
2
244
229
2
244
229
2
242
233
4
249
233
0
252
234
4
248
239
10
123
112
33
14
2
22
15
15
3
18
11
19
96
96
96
255
255
255
244
244
244
242
242
242
247
247
247
243
243
243
247
247
247
247
247
247
243
243
243
243
243
243
243
243
243
244
244
244
244
244
244
244
244
244
245
245
245
245
245
245
245
245
245
245
245
245
244
244
244
244
244
244
244
244
244
243
243
243
243
243
243
243
243
243
244
244
244
244
244
244
243
243
243
243
243
243
243
243
243
242
242
242
242
242
242
242
242
242
242
242
242
242
242
242
242
242
242
243
243
243
243
243
243
243
243
243
244
244
244
244
244
244
243
243
243
246
246
246
246
246
246
246
246
246
246
246
246
246
246
246
246
246
246
246
246
246
246
246
246
247
247
247
247
247
247
247
247
247
247
247
247
247
247
247
247
247
247
247
247
247
247
247
247
251
251
251
251
251
251
250
250
250
250
250
250
249
249
249
248
248
248
247
247
247
247
247
247
249
249
249
250
250
250
250
250
250
250
250
250
251
251
251
251
251
251
251
251
251
251
251
251
251
251
251
247
247
247
251
251
251
250
250
250
246
246
246
254
254
254
252
252
252
230
230
230
4
0
0
22
23
25
23
27
28
12
0
30
199
196
23
255
247
0
247
227
8
249
233
0
247
233
2
247
233
2
247
233
2
246
232
1
246
232
1
246
232
1
245
231
0
245
231
0
243
231
0
248
236
4
239
226
0
238
225
0
248
235
9
245
233
1
233
222
0
226
215
0
252
231
2
251
230
3
251
229
8
250
227
9
249
226
10
248
225
7
247
225
2
247
225
0
254
232
0
250
228
0
242
222
0
238
218
0
238
219
0
244
224
7
252
230
23
255
236
35
243
230
2
243
230
2
242
229
1
242
229
1
242
229
1
241
228
0
241
228
0
241
228
0
241
228
0
241
228
0
241
228
0
241
228
0
241
228
0
241
228
0
241
228
0
241
228
0
242
229
1
242
229
1
242
229
1
242
229
1
242
229
1
242
229
1
242
229
1
242
229
1
243
230
2
243
230
2
243
230
2
243
230
2
243
230
2
243
230
2
243
230
2
243
230
2
242
229
1
242
229
1
243
230
2
243
230
2
243
230
2
244
231
3
244
231
3
244
231
3
242
229
1
242
229
1
242
229
1
242
229
1
242
229
1
242
229
1
242
229
1
242
229
1
242
229
1
242
229
1
242
229
1
242
229
1
242
229
1
242
229
1
242
229
1
242
229
1
243
230
2
243
230
2
243
230
2
243
230
2
242
229
1
242
229
1
242
229
1
241
228
0
244
226
6
244
225
8
245
224
11
244
223
10
247
224
8
248
226
3
250
229
0
252
230
0
240
224
0
241
224
0
241
222
0
244
221
3
254
229
14
255
236
19
255
229
8
243
215
0
242
229
1
242
229
1
242
229
1
242
229
1
242
229
1
242
229
1
242
229
1
242
229
1
244
229
2
244
229
2
244
229
2
244
229
2
244
229
2
244
229
2
244
229
2
244
229
2
242
233
4
248
232
0
252
234
0
247
238
11
143
137
27
12
0
27
17
16
14
20
14
16
73
73
73
255
255
255
242
242
242
241
241
241
247
247
247
244
244
244
245
245
245
246
246
246
243
243
243
243
243
243
243
243
243
244
244
244
244
244
244
244
244
244
245
245
245
245
245
245
245
245
245
245
245
245
244
244
244
244
244
244
244
244
244
243
243
243
243
243
243
243
243
243
244
244
244
244
244
244
243
243
243
243
243
243
243
243
243
242
242
242
242
242
242
242
242
242
242
242
242
242
242
242
242
242
242
243
243
243
243
243
243
243
243
243
244
244
244
244
244
244
243
243
243
246
246
246
246
246
246
246
246
246
246
246
246
246
246
246
246
246
246
246
246
246
246
246
246
247
247
247
247
247
247
247
247
247
247
247
247
247
247
247
247
247
247
247
247
247
247
247
247
251
251
251
251
251
251
250
250
250
249
249
249
248
248
248
248
248
248
247
247
247
247
247
247
249
249
249
249
249
249
249
249
249
250
250
250
250
250
250
251
251
251
251
251
251
251
251
251
251
251
251
246
246
246
251
251
251
250
250
250
244
244
244
255
255
255
252
252
252
222
222
222
4
0
2
22
23
25
23
27
26
12
0
26
205
202
25
254
245
0
249
229
10
247
231
0
247
233
2
247
233
2
247
233
2
246
232
1
246
232
1
246
232
1
245
231
0
245
231
0
247
234
6
244
231
2
240
228
0
249
237
5
245
233
1
236
223
0
249
235
12
255
243
24
247
240
0
245
237
0
243
234
0
241
231
0
243
232
3
247
236
7
251
240
11
254
243
13
242
232
0
242
231
0
242
230
0
243
229
0
245
228
0
246
230
0
247
230
0
248
232
0
243
230
2
243
230
2
242
229
1
242
229
1
242
229
1
241
228
0
241
228
0
241
228
0
241
228
0
241
228
0
241
228
0
241
228
0
241
228
0
241
228
0
241
228
0
241
228
0
242
229
1
242
229
1
242
229
1
242
229
1
242
229
1
242
229
1
242
229
1
242
229
1
244
231
3
244
231
3
244
231
3
244
231
3
244
231
3
244
231
3
244
231
3
244
231
3
243
230
2
243
230
2
243
230
2
243
230
2
244
231
3
244
231
3
244
231
3
245
232
4
242
229
1
242
229
1
242
229
1
242
229
1
242
229
1
242
229
1
242
229
1
242
229
1
241
228
0
241
228
0
241
228
0
241
228
0
241
228
0
241
228
0
241
228
0
241
228
0
243
230
4
242
229
3
242
229
3
242
229
3
241
228
2
241
228
2
241
228
2
240
227
1
251
236
0
249
233
0
244
229
4
242
226
8
240
225
10
240
227
9
241
232
7
242
233
4
250
250
0
247
244
0
244
238
0
247
237
2
252
238
9
251
235
2
246
229
0
241
224
0
242
229
1
242
229
1
242
229
1
242
229
1
242
229
1
242
229
1
242
229
1
242
229
1
244
229
2
244
229
2
244
229
2
244
229
2
244
229
2
244
229
2
244
229
2
244
229
2
243
234
5
247
230
0
250
233
0
244
235
10
150
149
7
11
0
32
20
17
26
21
16
12
51
51
51
255
255
255
240
240
240
241
241
241
246
246
246
245
245
245
243
243
243
246
246
246
243
243
243
243
243
243
243
243
243
244
244
244
244
244
244
244
244
244
245
245
245
245
245
245
245
245
245
245
245
245
244
244
244
244
244
244
244
244
244
243
243
243
243
243
243
243
243
243
244
244
244
244
244
244
243
243
243
243
243
243
243
243
243
242
242
242
242
242
242
242
242
242
242
242
242
242
242
242
242
242
242
243
243
243
243
243
243
243
243
243
244
244
244
244
244
244
243
243
243
246
246
246
246
246
246
246
246
246
246
246
246
246
246
246
246
246
246
246
246
246
246
246
246
247
247
247
247
247
247
247
247
247
247
247
247
247
247
247
247
247
247
247
247
247
247
247
247
251
251
251
250
250
250
250
250
250
249
249
249
248
248
248
247
247
247
247
247
247
246
246
246
249
249
249
249
249
249
249
249
249
249
249
249
250
250
250
250
250
250
250
250
250
251
251
251
251
251
251
245
245
245
251
251
251
250
250
250
242
242
242
255
255
255
252
252
252
215
215
215
4
0
2
22
23
25
23
28
24
12
0
23
206
204
23
250
241
0
252
232
13
245
228
0
247
233
2
247
233
2
247
233
2
246
232
1
246
232
1
246
232
1
245
231
0
245
231
0
243
229
10
246
233
5
245
233
0
248
237
0
236
225
0
241
227
4
255
242
35
237
219
25
208
212
39
195
198
31
175
176
20
154
154
8
139
137
0
131
128
0
129
126
0
130
127
0
154
161
0
170
174
1
195
195
21
218
216
33
233
230
27
238
236
4
236
233
0
233
229
0
243
230
2
243
230
2
242
229
1
242
229
1
242
229
1
241
228
0
241
228
0
241
228
0
241
228
0
241
228
0
241
228
0
241
228
0
241
228
0
241
228
0
241
228
0
241
228
0
242
229
1
242
229
1
242
229
1
242
229
1
242
229
1
242
229
1
242
229
1
242
229
1
244
231
3
244
231
3
244
231
3
244
231
3
244
231
3
244
231
3
244
231
3
244
231
3
243
230
2
243
230
2
243
230
2
244
231
3
244
231
3
244
231
3
245
232
4
245
232
4
242
229
1
242
229
1
242
229
1
242
229
1
242
229
1
242
229
1
242
229
1
242
229
1
241
228
0
241
228
0
241
228
0
241
228
0
241
228
0
241
228
0
241
228
0
241
228
0
242
229
3
242
229
3
241
228
2
241
228
2
241
228
2
240
227
1
240
227
1
240
227
1
247
244
0
243
240
1
234
231
14
218
215
24
195
195
21
171
173
10
149
153
0
136
142
0
115
112
17
116
112
13
130
126
16
155
150
20
171
169
9
185
185
0
212
214
0
240
243
4
242
229
1
242
229
1
242
229
1
242
229
1
242
229
1
242
229
1
242
229
1
242
229
1
244
229
2
244
229
2
244
229
2
244
229
2
244
229
2
244
229
2
244
229
2
244
229
2
243
234
5
246
229
0
247
231
0
241
231
9
148
151
0
10
0
34
25
21
36
19
15
4
35
35
35
255
255
255
239
239
239
240
240
240
246
246
246
245
245
245
241
241
241
245
245
245
243
243
243
243
243
243
243
243
243
244
244
244
244
244
244
244
244
244
245
245
245
245
245
245
245
245
245
245
245
245
244
244
244
244
244
244
244
244
244
243
243
243
243
243
243
243
243
243
244
244
244
244
244
244
243
243
243
243
243
243
243
243
243
242
242
242
242
242
242
242
242
242
242
242
242
242
242
242
242
242
242
243
243
243
243
243
243
243
243
243
244
244
244
244
244
244
243
243
243
246
246
246
246
246
246
246
246
246
246
246
246
246
246
246
246
246
246
246
246
246
246
246
246
247
247
247
247
247
247
247
247
247
247
247
247
247
247
247
247
247
247
247
247
247
247
247
247
250
250
250
250
250
250
249
249
249
249
249
249
248
248
248
247
247
247
247
247
247
246
246
246
248
248
248
249
249
249
249
249
249
249
249
249
250
250
250
250
250
250
250
250
250
250
250
250
251
251
251
244
244
244
251
251
251
249
249
249
242
242
242
255
255
255
252
252
252
212
212
212
5
0
5
23
24
26
23
28
22
12
0
23
205
203
20
248
239
0
254
234
15
244
227
0
247
233
2
247
233
2
247
233
2
246
232
1
246
232
1
246
232
1
245
231
0
245
231
0
238
223
10
245
231
8
238
227
0
235
226
0
237
226
0
255
243
24
235
217
23
138
117
0
12
9
0
9
5
2
4
0
8
3
0
18
3
0
28
3
0
34
3
0
37
4
0
40
9
6
27
7
0
22
9
0
15
26
12
11
64
50
13
119
105
17
170
160
26
203
195
32
243
230
2
243
230
2
242
229
1
242
229
1
242
229
1
241
228
0
241
228
0
241
228
0
241
228
0
241
228
0
241
228
0
241
228
0
241
228
0
241
228
0
241
228
0
241
228
0
242
229
1
242
229
1
242
229
1
242
229
1
242
229
1
242
229
1
242
229
1
242
229
1
244
231
3
244
231
3
244
231
3
244
231
3
244
231
3
244
231
3
244
231
3
244
231
3
243
230
2
243
230
2
243
230
2
244
231
3
244
231
3
245
232
4
245
232
4
245
232
4
242
229
1
242
229
1
242
229
1
242
229
1
242
229
1
242
229
1
242
229
1
242
229
1
241
228
0
241
228
0
241
228
0
241
228
0
241
228
0
241
228
0
241
228
0
241
228
0
241
228
2
241
228
2
241
228
2
241
228
2
240
227
1
240
227
1
240
227
1
239
226
0
151
139
17
125
113
11
84
71
3
43
29
0
12
1
5
3
0
21
0
0
35
2
0
44
9
9
21
3
2
18
7
2
25
13
3
30
6
0
14
8
0
4
30
15
10
70
57
41
242
229
1
242
229
1
242
229
1
242
229
1
242
229
1
242
229
1
242
229
1
242
229
1
244
229
2
244
229
2
244
229
2
244
229
2
244
229
2
244
229
2
244
229
2
244
229
2
243
234
5
246
229
1
244
228
0
240
230
8
144
149
0
10
0
38
28
23
43
18
14
2
26
26
26
255
255
255
238
238
238
240
240
240
246
246
246
246
246
246
241
241
241
245
245
245
243
243
243
243
243
243
243
243
243
244
244
244
244
244
244
244
244
244
245
245
245
245
245
245
245
245
245
245
245
245
244
244
244
244
244
244
244
244
244
243
243
243
243
243
243
243
243
243
244
244
244
244
244
244
243
243
243
243
243
243
243
243
243
242
242
242
242
242
242
242
242
242
242
242
242
242
242
242
242
242
242
243
243
243
243
243
243
243
243
243
244
244
244
244
244
244
243
243
243
245
245
245
245
245
245
245
245
245
245
245
245
245
245
245
245
245
245
245
245
245
245
245
245
246
246
246
246
246
246
246
246
246
246
246
246
246
246
246
246
246
246
246
246
246
246
246
246
250
250
250
249
249
249
249
249
249
249
249
249
248
248
248
248
248
248
248
248
248
247
247
247
247
247
247
248
248
248
248
248
248
248
248
248
249
249
249
249
249
249
249
249
249
250
250
250
247
247
247
251
251
251
241
241
241
251
251
251
243
243
243
245
245
245
255
255
255
205
205
205
10
4
6
25
27
24
21
26
19
13
0
22
211
209
28
245
236
0
247
227
10
251
234
7
246
231
4
246
231
4
246
231
4
245
230
3
245
230
3
244
229
2
244
229
2
244
229
2
241
224
12
243
227
0
252
232
0
249
224
9
245
232
0
237
237
1
147
143
36
17
0
59
2
25
17
5
18
0
27
21
35
33
28
35
17
20
29
29
34
54
1
8
0
29
23
33
14
18
0
21
7
24
31
13
9
30
21
0
11
8
15
2
4
16
8
8
18
10
0
57
200
182
48
245
242
7
237
234
0
236
225
0
243
225
19
253
236
0
242
223
0
248
221
20
241
228
0
241
228
0
241
228
0
241
228
0
241
228
0
241
228
0
241
228
0
241
228
0
241
228
0
241
228
0
241
228
0
242
229
1
242
229
1
242
229
1
243
230
2
243
230
2
242
229
1
242
229
1
242
229
1
243
230
2
243
230
2
243
230
2
244
231
3
244
231
3
245
231
0
245
231
0
246
232
1
246
232
1
246
232
1
247
233
2
247
233
2
247
233
2
243
230
2
243
230
2
243
230
2
243
230
2
243
230
2
243
230
2
243
230
2
243
230
2
243
230
2
243
230
2
242
229
1
242
229
1
242
229
1
241
228
0
241
228
0
241
228
0
247
235
3
244
238
0
240
230
10
247
227
36
228
209
0
248
241
0
209
206
49
20
11
6
9
0
49
6
0
37
15
5
30
29
23
11
21
13
0
23
15
2
43
39
10
17
9
7
24
15
18
28
21
13
26
16
25
29
18
35
26
21
15
20
17
8
17
15
28
6
4
28
144
118
34
252
242
48
241
238
0
232
220
0
245
227
19
254
238
0
245
227
0
242
214
17
243
230
2
243
230
2
243
230
2
243
230
2
243
230
2
243
230
2
243
230
2
243
230
2
244
235
6
247
229
7
236
221
0
243
234
9
146
144
7
6
0
25
30
32
11
22
14
29
31
31
31
255
255
255
246
246
246
236
236
236
244
244
244
245
245
245
253
253
253
240
240
240
244
244
244
244
244
244
244
244
244
244
244
244
244
244
244
244
244
244
244
244
244
244
244
244
244
244
244
244
244
244
244
244
244
244
244
244
244
244
244
244
244
244
244
244
244
244
244
244
243
243
243
243
243
243
243
243
243
243
243
243
243
243
243
243
243
243
243
243
243
243
243
243
243
243
243
243
243
243
243
243
243
243
243
243
243
243
243
243
243
243
243
243
243
243
243
243
243
243
243
245
245
245
245
245
245
245
245
245
245
245
245
245
245
245
245
245
245
245
245
245
245
245
245
246
246
246
246
246
246
246
246
246
246
246
246
246
246
246
246
246
246
246
246
246
246
246
246
249
249
249
249
249
249
249
249
249
248
248
248
248
248
248
248
248
248
247
247
247
247
247
247
247
247
247
247
247
247
248
248
248
248
248
248
248
248
248
249
249
249
249
249
249
249
249
249
247
247
247
251
251
251
242
242
242
251
251
251
243
243
243
246
246
246
255
255
255
209
209
209
5
0
1
25
27
24
20
25
19
12
0
23
212
210
31
248
239
0
246
226
9
251
234
6
246
231
4
246
231
4
246
231
4
245
230
3
245
230
3
244
229
2
244
229
2
244
229
2
253
237
20
254
240
0
254
235
0
245
221
7
244
231
0
237
236
0
137
133
0
11
0
11
4
13
46
16
15
20
24
10
36
18
8
9
13
14
6
27
31
34
11
17
0
7
4
0
17
23
19
20
6
65
28
8
61
20
9
26
10
10
20
9
23
0
8
20
0
9
6
23
114
91
0
232
224
15
240
236
0
239
226
10
251
232
31
251
236
0
247
229
0
244
220
8
241
228
0
241
228
0
241
228
0
241
228
0
241
228
0
241
228
0
241
228
0
241
228
0
241
228
0
241
228
0
241
228
0
242
229
1
242
229
1
242
229
1
243
230
2
243
230
2
242
229
1
242
229
1
242
229
1
243
230
2
243
230
2
243
230
2
244
231
3
244
231
3
245
231
0
245
231
0
246
232
1
246
232
1
246
232
1
247
233
2
247
233
2
247
233
2
243
230
2
243
230
2
243
230
2
243
230
2
243
230
2
243
230
2
243
230
2
243
230
2
243
230
2
243
230
2
242
229
1
242
229
1
242
229
1
241
228
0
241
228
0
241
228
0
249
235
14
232
226
0
241
235
3
240
224
15
244
226
0
234
226
0
132
125
0
14
0
24
5
14
0
11
14
0
23
20
27
34
26
47
23
14
45
12
6
32
21
20
28
13
12
26
27
27
25
23
23
15
29
25
26
18
12
26
21
15
27
25
21
35
23
22
38
6
8
20
118
94
0
230
222
15
248
244
0
250
237
18
248
230
24
245
230
0
246
228
0
251
226
22
243
230
2
243
230
2
243
230
2
243
230
2
243
230
2
243
230
2
243
230
2
243
230
2
243
234
5
247
229
5
239
224
0
245
236
11
152
149
18
6
0
23
27
28
10
22
14
29
31
31
31
252
252
252
248
248
248
239
239
239
245
245
245
245
245
245
253
253
253
243
243
243
244
244
244
244
244
244
244
244
244
244
244
244
244
244
244
244
244
244
244
244
244
244
244
244
244
244
244
244
244
244
244
244
244
244
244
244
244
244
244
244
244
244
244
244
244
244
244
244
243
243
243
243
243
243
243
243
243
243
243
243
243
243
243
243
243
243
243
243
243
243
243
243
243
243
243
243
243
243
243
243
243
243
243
243
243
243
243
243
243
243
243
243
243
243
243
243
243
243
243
245
245
245
245
245
245
245
245
245
245
245
245
245
245
245
245
245
245
245
245
245
245
245
245
246
246
246
246
246
246
246
246
246
246
246
246
246
246
246
246
246
246
246
246
246
246
246
246
249
249
249
249
249
249
249
249
249
248
248
248
248
248
248
247
247
247
247
247
247
247
247
247
247
247
247
247
247
247
247
247
247
248
248
248
248
248
248
249
249
249
249
249
249
249
249
249
247
247
247
250
250
250
243
243
243
250
250
250
244
244
244
246
246
246
255
255
255
215
215
215
4
0
0
23
25
24
20
25
21
11
0
25
211
208
31
253
244
0
244
224
7
252
235
7
246
231
4
246
231
4
246
231
4
245
230
3
245
230
3
244
229
2
244
229
2
244
229
2
243
229
6
250
235
0
251
231
0
240
216
4
243
229
0
247
246
0
169
167
0
48
36
0
11
5
41
18
5
12
17
0
11
14
0
0
12
5
0
8
4
31
35
30
34
36
22
45
10
25
2
10
10
10
16
6
4
7
0
0
10
5
35
25
31
43
8
13
6
3
0
16
104
81
0
244
231
39
238
230
0
235
220
15
247
228
28
238
223
0
241
226
0
244
222
1
241
228
0
241
228
0
241
228
0
241
228
0
241
228
0
241
228
0
241
228
0
241
228
0
241
228
0
241
228
0
241
228
0
242
229
1
242
229
1
242
229
1
243
230
2
243
230
2
242
229
1
242
229
1
242
229
1
243
230
2
243
230
2
243
230
2
244
231
3
244
231
3
245
231
0
245
231
0
246
232
1
246
232
1
246
232
1
247
233
2
247
233
2
247
233
2
243
230
2
243
230
2
243
230
2
243
230
2
243
230
2
243
230
2
243
230
2
243
230
2
243
230
2
243
230
2
242
229
1
242
229
1
242
229
1
241
228
0
241
228
0
241
228
0
231
214
0
229
222
0
238
233
0
231
219
0
252
237
0
255
244
12
139
127
9
11
0
14
14
19
0
18
19
13
21
18
27
23
16
34
19
15
16
7
10
0
3
11
0
32
46
23
30
31
59
0
0
18
18
14
15
7
0
0
8
0
18
8
0
27
7
1
15
5
4
0
169
152
0
236
229
3
240
236
0
245
232
14
245
226
25
245
229
0
247
231
0
245
222
6
243
230
2
243
230
2
243
230
2
243
230
2
243
230
2
243
230
2
243
230
2
243
230
2
242
233
6
246
229
2
245
230
0
247
238
11
156
151
31
6
0
21
22
23
9
22
14
27
35
35
35
249
249
249
250
250
250
244
244
244
247
247
247
244
244
244
252
252
252
246
246
246
244
244
244
244
244
244
244
244
244
244
244
244
244
244
244
244
244
244
244
244
244
244
244
244
244
244
244
244
244
244
244
244
244
244
244
244
244
244
244
244
244
244
244
244
244
244
244
244
243
243
243
243
243
243
243
243
243
243
243
243
243
243
243
243
243
243
243
243
243
243
243
243
243
243
243
243
243
243
243
243
243
243
243
243
243
243
243
243
243
243
243
243
243
243
243
243
243
243
243
244
244
244
244
244
244
244
244
244
244
244
244
244
244
244
244
244
244
244
244
244
244
244
244
246
246
246
246
246
246
246
246
246
246
246
246
246
246
246
246
246
246
246
246
246
246
246
246
249
249
249
248
248
248
248
248
248
248
248
248
247
247
247
247
247
247
247
247
247
246
246
246
246
246
246
247
247
247
247
247
247
247
247
247
248
248
248
248
248
248
248
248
248
249
249
249
247
247
247
249
249
249
244
244
244
249
249
249
244
244
244
246
246
246
252
252
252
224
224
224
4
0
0
21
23
22
20
24
23
10
0
26
205
202
29
255
248
0
243
223
6
251
234
4
246
231
4
246
231
4
246
231
4
245
230
3
245
230
3
244
229
2
244
229
2
244
229
2
230
217
0
241
229
0
248
232
0
238
219
3
238
226
0
253
250
0
225
223
14
164
154
20
89
94
0
117
112
0
153
140
12
179
173
25
139
140
38
27
23
11
28
24
15
20
6
19
0
4
16
69
70
13
120
116
9
78
64
3
29
9
34
10
0
40
8
0
12
20
4
4
185
164
13
253
241
35
234
223
0
238
223
10
245
229
20
235
222
0
236
221
0
246
228
8
241
228
0
241
228
0
241
228
0
241
228
0
241
228
0
241
228
0
241
228
0
241
228
0
241
228
0
241
228
0
241
228
0
242
229
1
242
229
1
242
229
1
243
230
2
243
230
2
242
229
1
242
229
1
242
229
1
243
230
2
243
230
2
243
230
2
244
231
3
244
231
3
245
231
0
245
231
0
246
232
1
246
232
1
246
232
1
247
233
2
247
233
2
247
233
2
243
230
2
243
230
2
243
230
2
243
230
2
243
230
2
243
230
2
243
230
2
243
230
2
243
230
2
243
230
2
242
229
1
242
229
1
242
229
1
241
228
0
241
228
0
241
228
0
251
233
13
255
249
12
242
239
4
245
233
11
235
219
0
246
234
2
205
194
42
39
26
0
7
0
34
10
0
18
14
0
0
61
47
12
114
111
30
100
102
27
13
12
18
11
15
27
13
14
8
18
16
0
132
132
32
174
174
26
156
146
33
113
102
13
121
115
1
161
163
28
241
227
34
251
244
5
237
229
0
240
225
10
243
226
22
247
233
2
252
237
0
237
220
0
243
230
2
243
230
2
243
230
2
243
230
2
243
230
2
243
230
2
243
230
2
243
230
2
241
232
7
245
228
0
249
232
0
250
242
11
152
145
39
6
0
18
19
19
11
20
12
23
46
46
46
247
247
247
251
251
251
248
248
248
247
247
247
243
243
243
250
250
250
249
249
249
244
244
244
244
244
244
244
244
244
244
244
244
244
244
244
244
244
244
244
244
244
244
244
244
244
244
244
244
244
244
244
244
244
244
244
244
244
244
244
244
244
244
244
244
244
244
244
244
243
243
243
243
243
243
243
243
243
243
243
243
243
243
243
243
243
243
243
243
243
243
243
243
243
243
243
243
243
243
243
243
243
243
243
243
243
243
243
243
243
243
243
243
243
243
243
243
243
243
243
244
244
244
244
244
244
244
244
244
244
244
244
244
244
244
244
244
244
244
244
244
244
244
244
246
246
246
246
246
246
246
246
246
246
246
246
246
246
246
246
246
246
246
246
246
246
246
246
248
248
248
248
248
248
248
248
248
247
247
247
247
247
247
246
246
246
246
246
246
246
246
246
246
246
246
246
246
246
246
246
246
247
247
247
247
247
247
248
248
248
248
248
248
248
248
248
247
247
247
249
249
249
246
246
246
248
248
248
245
245
245
246
246
246
249
249
249
233
233
233
4
0
0
20
22
21
21
25
26
10
0
31
193
189
20
255
249
0
245
225
8
249
233
0
246
231
4
246
231
4
246
231
4
245
230
3
245
230
3
244
229
2
244
229
2
244
229
2
239
226
0
244
232
0
250
236
5
244
228
8
237
225
0
243
238
0
247
241
9
234
226
31
236
242
10
239
238
0
250
239
25
253
252
22
169
173
18
8
4
0
25
20
16
37
26
34
9
3
7
148
150
7
255
255
12
241
232
7
204
192
20
187
178
21
181
176
0
216
211
8
245
231
20
240
231
0
236
228
0
247
234
5
245
231
10
253
239
8
239
225
0
243
226
14
241
228
0
241
228
0
241
228
0
241
228
0
241
228
0
241
228
0
241
228
0
241
228
0
241
228
0
241
228
0
241
228
0
242
229
1
242
229
1
242
229
1
243
230
2
243
230
2
242
229
1
242
229
1
242
229
1
243
230
2
243
230
2
243
230
2
244
231
3
244
231
3
245
231
0
245
231
0
246
232
1
246
232
1
246
232
1
247
233
2
247
233
2
247
233
2
243
230
2
243
230
2
243
230
2
243
230
2
243
230
2
243
230
2
243
230
2
243
230
2
243
230
2
243
230
2
242
229
1
242
229
1
242
229
1
241
228
0
241
228
0
241
228
0
236
218
0
233
223
0
224
219
0
246
235
23
232
217
0
236
223
0
255
255
45
207
204
37
163
154
13
190
181
16
228
222
6
243
235
26
238
239
0
162
167
0
19
7
0
31
24
32
30
21
26
13
0
0
138
132
0
245
242
0
255
255
30
248
230
36
229
216
0
236
227
8
241
229
5
243
234
0
247
238
0
252
237
20
247
231
21
244
230
1
254
241
2
244
230
0
243
230
2
243
230
2
243
230
2
243
230
2
243
230
2
243
230
2
243
230
2
243
230
2
240
231
6
244
228
0
251
232
5
251
243
10
136
127
36
6
0
14
18
17
15
16
9
17
67
67
67
248
248
248
249
249
249
247
247
247
246
246
246
243
243
243
247
247
247
250
250
250
244
244
244
244
244
244
244
244
244
244
244
244
244
244
244
244
244
244
244
244
244
244
244
244
244
244
244
244
244
244
244
244
244
244
244
244
244
244
244
244
244
244
244
244
244
244
244
244
243
243
243
243
243
243
243
243
243
243
243
243
243
243
243
243
243
243
243
243
243
243
243
243
243
243
243
243
243
243
243
243
243
243
243
243
243
243
243
243
243
243
243
243
243
243
243
243
243
243
243
243
243
243
243
243
243
243
243
243
243
243
243
243
243
243
243
243
243
243
243
243
243
243
243
246
246
246
246
246
246
246
246
246
246
246
246
246
246
246
246
246
246
246
246
246
246
246
246
248
248
248
247
247
247
247
247
247
247
247
247
246
246
246
246
246
246
246
246
246
246
246
246
246
246
246
246
246
246
246
246
246
246
246
246
247
247
247
247
247
247
247
247
247
248
248
248
248
248
248
248
248
248
247
247
247
247
247
247
246
246
246
246
246
246
247
247
247
242
242
242
15
10
6
18
20
19
23
27
30
9
0
34
176
171
7
255
246
0
248
228
11
246
230
0
246
231
4
246
231
4
246
231
4
245
230
3
245
230
3
244
229
2
244
229
2
244
229
2
244
232
8
243
230
1
246
234
0
248
235
6
243
230
1
238
226
0
242
230
0
248
235
6
235
228
15
241
226
11
249
226
34
246
237
20
154
152
15
6
0
4
18
10
31
22
11
25
14
0
35
162
151
33
252
235
21
253
229
5
253
237
0
250
241
0
241
229
0
249
230
13
255
252
3
236
227
0
245
236
0
245
233
0
228
215
0
254
241
13
241
227
6
237
221
11
241
228
0
241
228
0
241
228
0
241
228
0
241
228
0
241
228
0
241
228
0
241
228
0
241
228
0
241
228
0
241
228
0
242
229
1
242
229
1
242
229
1
243
230
2
243
230
2
242
229
1
242
229
1
242
229
1
243
230
2
243
230
2
243
230
2
244
231
3
244
231
3
245
231
0
245
231
0
246
232
1
246
232
1
246
232
1
247
233
2
247
233
2
247
233
2
243
230
2
243
230
2
243
230
2
243
230
2
243
230
2
243
230
2
243
230
2
243
230
2
243
230
2
243
230
2
242
229
1
242
229
1
242
229
1
241
228
0
241
228
0
241
228
0
253
234
0
248
238
3
243
239
18
237
227
16
244
228
8
238
223
0
225
220
0
252
255
13
251
241
19
241
228
0
246
231
0
244
219
15
248
236
2
189
182
6
14
0
25
18
1
45
29
14
57
27
0
47
145
124
17
247
234
0
250
225
0
245
215
5
249
227
0
255
239
22
234
222
0
233
222
0
249
237
3
250
236
13
245
231
8
237
224
0
248
236
2
242
229
0
243
230
2
243
230
2
243
230
2
243
230
2
243
230
2
243
230
2
243
230
2
243
230
2
238
228
6
244
228
0
251
231
14
251
244
6
109
97
21
9
0
15
20
18
23
9
2
9
93
93
93
251
251
251
245
245
245
243
243
243
243
243
243
243
243
243
245
245
245
249
249
249
244
244
244
244
244
244
244
244
244
244
244
244
244
244
244
244
244
244
244
244
244
244
244
244
244
244
244
244
244
244
244
244
244
244
244
244
244
244
244
244
244
244
244
244
244
244
244
244
243
243
243
243
243
243
243
243
243
243
243
243
243
243
243
243
243
243
243
243
243
243
243
243
243
243
243
243
243
243
243
243
243
243
243
243
243
243
243
243
243
243
243
243
243
243
243
243
243
243
243
243
243
243
243
243
243
243
243
243
243
243
243
243
243
243
243
243
243
243
243
243
243
243
243
246
246
246
246
246
246
246
246
246
246
246
246
246
246
246
246
246
246
246
246
246
246
246
246
247
247
247
247
247
247
247
247
247
246
246
246
246
246
246
246
246
246
245
245
245
245
245
245
245
245
245
245
245
245
246
246
246
246
246
246
246
246
246
247
247
247
247
247
247
247
247
247
248
248
248
247
247
247
248
248
248
247
247
247
247
247
247
246
246
246
245
245
245
249
249
249
28
23
17
18
20
19
25
28
33
9
0
36
160
154
0
253
243
0
251
231
14
243
227
0
246
231
4
246
231
4
246
231
4
245
230
3
245
230
3
244
229
2
244
229
2
244
229
2
237
224
6
238
226
0
241
231
0
246
237
0
247
234
5
241
226
3
243
226
0
250
233
0
240
231
0
243
225
0
251
227
17
244
237
0
148
149
0
9
4
0
22
21
19
20
20
0
5
0
4
176
176
18
249
236
7
243
216
2
239
221
0
230
219
0
243
228
5
253
232
29
252
240
0
247
234
0
244
229
4
241
228
2
225
212
0
240
228
2
236
224
2
236
223
4
241
228
0
241
228
0
241
228
0
241
228
0
241
228
0
241
228
0
241
228
0
241
228
0
241
228
0
241
228
0
241
228
0
242
229
1
242
229
1
242
229
1
243
230
2
243
230
2
242
229
1
242
229
1
242
229
1
243
230
2
243
230
2
243
230
2
244
231
3
244
231
3
245
231
0
245
231
0
246
232
1
246
232
1
246
232
1
247
233
2
247
233
2
247
233
2
243
230
2
243
230
2
243
230
2
243
230
2
243
230
2
243
230
2
243
230
2
243
230
2
243
230
2
243
230
2
242
229
1
242
229
1
242
229
1
241
228
0
241
228
0
241
228
0
234
214
0
245
234
4
240
237
8
227
222
0
252
239
13
255
241
15
232
222
0
238
238
0
238
231
0
233
221
0
253
235
0
244
216
31
246
235
0
197
195
0
13
0
13
24
20
19
20
26
12
14
0
36
113
99
2
250
241
0
255
236
0
255
237
6
255
237
0
239
224
0
251
238
2
240
226
0
248
233
8
238
226
0
242
230
0
237
226
0
244
232
6
234
222
0
243
230
2
243
230
2
243
230
2
243
230
2
243
230
2
243
230
2
243
230
2
243
230
2
237
227
7
244
229
0
249
227
19
250
243
4
81
67
2
11
0
14
23
20
31
4
0
4
117
117
117
255
255
255
240
240
240
238
238
238
240
240
240
243
243
243
242
242
242
246
246
246
244
244
244
244
244
244
244
244
244
244
244
244
244
244
244
244
244
244
244
244
244
244
244
244
244
244
244
244
244
244
244
244
244
244
244
244
244
244
244
244
244
244
244
244
244
244
244
244
243
243
243
243
243
243
243
243
243
243
243
243
243
243
243
243
243
243
243
243
243
243
243
243
243
243
243
243
243
243
243
243
243
243
243
243
243
243
243
243
243
243
243
243
243
243
243
243
243
243
243
243
243
243
243
243
243
243
243
243
243
243
243
243
243
243
243
243
243
243
243
243
243
243
243
246
246
246
246
246
246
246
246
246
246
246
246
246
246
246
246
246
246
246
246
246
246
246
246
247
247
247
247
247
247
247
247
247
246
246
246
246
246
246
245
245
245
245
245
245
245
245
245
245
245
245
245
245
245
245
245
245
246
246
246
246
246
246
247
247
247
247
247
247
247
247
247
248
248
248
247
247
247
249
249
249
246
246
246
247
247
247
246
246
246
244
244
244
252
252
252
36
31
25
18
20
19
27
30
37
9
0
37
150
144
0
250
240
0
253
233
16
241
225
0
246
231
4
246
231
4
246
231
4
245
230
3
245
230
3
244
229
2
244
229
2
244
229
2
234
220
7
243
231
9
246
239
0
246
237
0
244
231
2
244
225
11
247
227
6
255
236
0
253
243
0
249
228
0
253
226
25
245
236
11
138
135
4
4
0
23
9
6
35
18
19
14
4
6
21
180
190
16
241
237
0
242
219
17
251
231
23
240
228
6
243
232
20
233
220
0
228
213
0
246
228
20
231
212
11
248
233
20
247
233
10
237
225
1
235
223
0
243
232
2
241
228
0
241
228
0
241
228
0
241
228
0
241
228
0
241
228
0
241
228
0
241
228
0
241
228
0
241
228
0
241
228
0
242
229
1
242
229
1
242
229
1
243
230
2
243
230
2
242
229
1
242
229
1
242
229
1
243
230
2
243
230
2
243
230
2
244
231
3
244
231
3
245
231
0
245
231
0
246
232
1
246
232
1
246
232
1
247
233
2
247
233
2
247
233
2
243
230
2
243
230
2
243
230
2
243
230
2
243
230
2
243
230
2
243
230
2
243
230
2
243
230
2
243
230
2
242
229
1
242
229
1
242
229
1
241
228
0
241
228
0
241
228
0
240
216
0
247
236
7
228
227
0
244
242
0
239
227
0
235
214
3
255
245
38
229
220
3
244
242
10
231
222
0
247
236
0
239
215
27
246
243
0
205
214
1
6
0
21
8
13
16
12
37
0
0
0
43
84
73
17
243
238
24
243
222
17
244
221
21
247
234
0
245
232
16
249
235
4
245
229
9
255
242
22
243
231
0
247
237
0
241
231
0
247
235
13
241
228
9
243
230
2
243
230
2
243
230
2
243
230
2
243
230
2
243
230
2
243
230
2
243
230
2
237
227
7
243
228
0
247
224
22
249
242
3
63
49
0
12
1
15
25
21
35
4
0
2
133
133
133
255
255
255
237
237
237
234
234
234
238
238
238
244
244
244
241
241
241
245
245
245
244
244
244
244
244
244
244
244
244
244
244
244
244
244
244
244
244
244
244
244
244
244
244
244
244
244
244
244
244
244
244
244
244
244
244
244
244
244
244
244
244
244
244
244
244
244
244
244
243
243
243
243
243
243
243
243
243
243
243
243
243
243
243
243
243
243
243
243
243
243
243
243
243
243
243
243
243
243
243
243
243
243
243
243
243
243
243
243
243
243
243
243
243
243
243
243
243
243
243
244
244
244
244
244
244
244
244
244
244
244
244
244
244
244
244
244
244
244
244
244
244
244
244
244
244
244
244
244
244
244
244
244
244
244
244
244
244
244
244
244
244
244
244
244
244
244
244
247
247
247
247
247
247
247
247
247
246
246
246
246
246
246
246
246
246
245
245
245
245
245
245
245
245
245
245
245
245
245
245
245
245
245
245
245
245
245
245
245
245
245
245
245
245
245
245
244
244
244
244
244
244
244
244
244
245
245
245
245
245
245
246
246
246
246
246
246
246
246
246
81
80
62
22
17
21
16
7
36
12
0
20
114
111
4
244
242
36
243
232
0
251
229
0
244
231
3
244
231
3
243
230
2
243
230
2
243
230
2
242
229
1
242
229
1
242
229
1
243
230
2
243
230
2
243
230
2
243
230
2
243
230
2
243
230
2
243
230
2
243
230
2
239
231
0
241
223
1
249
229
8
239
227
17
130
130
0
10
0
29
17
14
25
29
24
21
10
0
42
176
188
0
240
229
0
245
218
27
244
229
0
251
240
0
239
229
0
250
232
12
243
230
2
243
230
2
242
229
1
242
229
1
242
229
1
241
228
0
241
228
0
241
228
0
240
227
0
240
227
0
240
227
0
240
227
0
241
228
0
241
228
0
242
229
1
242
229
1
242
229
1
242
229
1
242
229
1
242
229
1
242
229
1
242
229
1
242
229
1
242
229
1
242
229
1
242
229
1
242
229
1
243
230
2
243
230
2
243
230
2
244
231
3
244
231
3
245
230
3
245
230
3
245
230
3
245
230
3
245
230
3
245
230
3
245
230
3
245
230
3
242
229
1
242
229
1
242
229
1
242
229
1
242
229
1
242
229
1
242
229
1
242
229
1
243
230
2
243
230
2
242
229
1
242
229
1
242
229
1
241
228
0
241
228
0
241
228
0
241
228
0
241
228
0
241
228
0
242
229
1
242
229
1
242
229
1
243
230
2
243
230
2
229
218
0
252
238
9
254
233
20
243
228
0
243
234
7
213
222
0
19
0
54
27
28
20
18
19
21
24
14
22
106
90
28
252
247
5
248
226
29
248
234
0
247
238
0
244
232
22
245
231
0
245
231
0
245
231
0
245
231
0
245
231
0
245
231
0
245
231
0
245
231
0
243
230
2
243
230
2
243
230
2
243
230
2
243
230
2
243
230
2
243
230
2
243
230
2
245
236
0
249
227
30
247
232
0
244
241
16
13
0
0
12
12
10
15
17
32
9
9
9
165
165
165
241
241
241
247
247
247
241
241
241
241
241
241
232
232
232
245
245
245
240
240
240
244
244
244
244
244
244
244
244
244
244
244
244
244
244
244
244
244
244
244
244
244
244
244
244
244
244
244
244
244
244
244
244
244
244
244
244
244
244
244
244
244
244
244
244
244
244
244
244
243
243
243
243
243
243
243
243
243
243
243
243
243
243
243
243
243
243
243
243
243
243
243
243
243
243
243
243
243
243
242
242
242
242
242
242
241
241
241
241
241
241
241
241
241
241
241
241
242
242
242
244
244
244
244
244
244
244
244
244
244
244
244
244
244
244
244
244
244
244
244
244
244
244
244
244
244
244
244
244
244
244
244
244
244
244
244
244
244
244
244
244
244
244
244
244
244
244
244
247
247
247
247
247
247
247
247
247
246
246
246
246
246
246
245
245
245
245
245
245
245
245
245
245
245
245
245
245
245
245
245
245
245
245
245
245
245
245
245
245
245
245
245
245
245
245
245
244
244
244
244
244
244
244
244
244
245
245
245
245
245
245
246
246
246
246
246
246
246
246
246
114
111
102
10
6
5
29
22
40
17
6
23
74
66
0
247
249
25
233
221
0
255
237
9
244
231
3
244
231
3
243
230
2
243
230
2
243
230
2
242
229
1
242
229
1
242
229
1
243
230
2
243
230
2
243
230
2
243
230
2
243
230
2
243
230
2
243
230
2
243
230
2
240
232
0
241
223
1
248
229
5
244
233
21
131
132
0
12
0
29
18
15
24
28
23
20
7
0
34
179
189
0
242
231
1
245
218
23
243
228
0
247
236
0
240
229
0
247
228
12
243
230
2
243
230
2
242
229
1
242
229
1
242
229
1
241
228
0
241
228
0
241
228
0
240
227
0
240
227
0
240
227
0
240
227
0
241
228
0
241
228
0
242
229
1
242
229
1
242
229
1
242
229
1
242
229
1
242
229
1
242
229
1
242
229
1
242
229
1
242
229
1
242
229
1
242
229
1
242
229
1
243
230
2
243
230
2
243
230
2
244
231
3
244
231
3
245
230
3
245
230
3
245
230
3
245
230
3
245
230
3
245
230
3
245
230
3
245
230
3
242
229
1
242
229
1
242
229
1
242
229
1
242
229
1
242
229
1
242
229
1
242
229
1
243
230
2
243
230
2
242
229
1
242
229
1
242
229
1
241
228
0
241
228
0
241
228
0
241
228
0
241
228
0
241
228
0
242
229
1
242
229
1
242
229
1
243
230
2
243
230
2
233
222
0
249
235
4
252
231
18
243
228
0
241
232
3
214
221
0
14
0
45
26
27
19
19
20
22
20
10
21
108
94
21
248
243
3
248
227
26
249
235
0
246
236
0
239
228
16
245
231
0
245
231
0
245
231
0
245
231
0
245
231
0
245
231
0
245
231
0
245
231
0
243
230
2
243
230
2
243
230
2
243
230
2
243
230
2
243
230
2
243
230
2
243
230
2
246
237
0
244
225
24
248
236
0
232
227
21
11
0
0
14
14
12
14
16
29
3
3
3
182
182
182
244
244
244
243
243
243
240
240
240
243
243
243
233
233
233
244
244
244
242
242
242
244
244
244
244
244
244
244
244
244
244
244
244
244
244
244
244
244
244
244
244
244
244
244
244
244
244
244
244
244
244
244
244
244
244
244
244
244
244
244
244
244
244
244
244
244
244
244
244
243
243
243
243
243
243
243
243
243
243
243
243
243
243
243
243
243
243
243
243
243
243
243
243
243
243
243
243
243
243
242
242
242
242
242
242
241
241
241
241
241
241
241
241
241
241
241
241
242
242
242
244
244
244
244
244
244
244
244
244
244
244
244
244
244
244
244
244
244
244
244
244
244
244
244
244
244
244
244
244
244
244
244
244
244
244
244
244
244
244
244
244
244
244
244
244
244
244
244
247
247
247
247
247
247
246
246
246
246
246
246
245
245
245
245
245
245
245
245
245
245
245
245
245
245
245
245
245
245
245
245
245
245
245
245
245
245
245
245
245
245
245
245
245
245
245
245
244
244
244
244
244
244
244
244
244
245
245
245
245
245
245
246
246
246
246
246
246
246
246
246
156
151
155
2
2
0
28
26
29
30
20
31
31
15
0
235
241
0
239
225
2
255
238
13
244
231
3
244
231
3
243
230
2
243
230
2
243
230
2
242
229
1
242
229
1
242
229
1
243
230
2
243
230
2
243
230
2
243
230
2
243
230
2
243
230
2
243
230
2
243
230
2
241
233
0
241
223
0
245
226
0
250
239
23
135
136
0
14
1
29
20
17
26
25
20
17
3
0
23
180
187
0
244
234
0
245
220
16
243
227
0
240
229
0
241
229
0
244
225
11
243
230
2
243
230
2
242
229
1
242
229
1
242
229
1
241
228
0
241
228
0
241
228
0
240
227
0
240
227
0
240
227
0
240
227
0
241
228
0
241
228
0
242
229
1
242
229
1
242
229
1
242
229
1
242
229
1
242
229
1
242
229
1
242
229
1
242
229
1
242
229
1
242
229
1
242
229
1
242
229
1
243
230
2
243
230
2
243
230
2
244
231
3
244
231
3
245
230
3
245
230
3
245
230
3
245
230
3
245
230
3
245
230
3
245
230
3
245
230
3
242
229
1
242
229
1
242
229
1
242
229
1
242
229
1
242
229
1
242
229
1
242
229
1
243
230
2
243
230
2
242
229
1
242
229
1
242
229
1
241
228
0
241
228
0
241
228
0
241
228
0
241
228
0
241
228
0
242
229
1
242
229
1
242
229
1
243
230
2
243
230
2
240
229
0
245
232
0
249
228
13
243
227
0
237
228
0
212
215
10
8
0
34
25
26
20
20
22
21
14
3
20
113
103
8
244
239
0
248
227
22
249
234
0
245
234
0
233
222
8
245
231
0
245
231
0
245
231
0
245
231
0
245
231
0
245
231
0
245
231
0
245
231
0
243
230
2
243
230
2
243
230
2
243
230
2
243
230
2
243
230
2
243
230
2
243
230
2
246
237
0
239
221
15
249
238
0
209
202
26
8
0
2
16
18
17
12
15
24
1
0
0
209
209
209
247
247
247
239
239
239
240
240
240
246
246
246
235
235
235
243
243
243
244
244
244
244
244
244
244
244
244
244
244
244
244
244
244
244
244
244
244
244
244
244
244
244
244
244
244
244
244
244
244
244
244
244
244
244
244
244
244
244
244
244
244
244
244
244
244
244
244
244
244
243
243
243
243
243
243
243
243
243
243
243
243
243
243
243
243
243
243
243
243
243
243
243
243
243
243
243
243
243
243
242
242
242
242
242
242
241
241
241
241
241
241
241
241
241
241
241
241
242
242
242
244
244
244
244
244
244
244
244
244
244
244
244
244
244
244
244
244
244
244
244
244
244
244
244
244
244
244
244
244
244
244
244
244
244
244
244
244
244
244
244
244
244
244
244
244
244
244
244
246
246
246
246
246
246
246
246
246
245
245
245
245
245
245
245
245
245
244
244
244
244
244
244
245
245
245
245
245
245
245
245
245
245
245
245
245
245
245
245
245
245
245
245
245
245
245
245
244
244
244
244
244
244
244
244
244
245
245
245
245
245
245
246
246
246
246
246
246
246
246
246
190
187
198
0
3
0
19
19
11
35
29
33
13
0
23
210
219
0
255
245
23
252
230
9
244
231
3
244
231
3
243
230
2
243
230
2
243
230
2
242
229
1
242
229
1
242
229
1
243
230
2
243
230
2
243
230
2
243
230
2
243
230
2
243
230
2
243
230
2
243
230
2
242
234
1
242
224
0
244
226
0
254
244
22
144
146
0
15
3
27
21
18
25
24
19
16
3
0
16
172
175
8
245
235
0
246
222
8
242
225
0
236
224
0
242
228
7
241
221
10
243
230
2
243
230
2
242
229
1
242
229
1
242
229
1
241
228
0
241
228
0
241
228
0
240
227
0
240
227
0
240
227
0
240
227
0
241
228
0
241
228
0
242
229
1
242
229
1
242
229
1
242
229
1
242
229
1
242
229
1
242
229
1
242
229
1
242
229
1
242
229
1
242
229
1
242
229
1
242
229
1
243
230
2
243
230
2
243
230
2
244
231
3
244
231
3
244
229
2
244
229
2
244
229
2
244
229
2
244
229
2
244
229
2
244
229
2
244
229
2
242
229
1
242
229
1
242
229
1
242
229
1
242
229
1
242
229
1
242
229
1
242
229
1
243
230
2
243
230
2
242
229
1
242
229
1
242
229
1
241
228
0
241
228
0
241
228
0
241
228
0
241
228
0
241
228
0
242
229
1
242
229
1
242
229
1
243
230
2
243
230
2
245
233
9
241
228
0
247
227
10
244
227
0
234
226
0
202
201
22
8
0
27
23
24
19
21
23
20
8
0
21
123
117
0
241
235
0
247
227
16
249
234
0
244
233
0
229
219
0
245
231
0
245
231
0
245
231
0
245
231
0
245
231
0
245
231
0
245
231
0
245
231
0
243
230
2
243
230
2
243
230
2
243
230
2
243
230
2
243
230
2
243
230
2
243
230
2
247
236
0
237
220
8
249
238
6
173
163
29
9
0
7
16
20
21
9
12
17
13
11
12
234
234
234
249
249
249
236
236
236
240
240
240
247
247
247
238
238
238
242
242
242
245
245
245
244
244
244
244
244
244
244
244
244
244
244
244
244
244
244
244
244
244
244
244
244
244
244
244
244
244
244
244
244
244
244
244
244
244
244
244
244
244
244
244
244
244
244
244
244
244
244
244
243
243
243
243
243
243
243
243
243
243
243
243
243
243
243
243
243
243
243
243
243
243
243
243
243
243
243
243
243
243
242
242
242
242
242
242
241
241
241
241
241
241
241
241
241
241
241
241
242
242
242
244
244
244
244
244
244
244
244
244
244
244
244
244
244
244
244
244
244
244
244
244
244
244
244
244
244
244
244
244
244
244
244
244
244
244
244
244
244
244
244
244
244
244
244
244
244
244
244
246
246
246
246
246
246
245
245
245
245
245
245
245
245
245
244
244
244
244
244
244
244
244
244
245
245
245
245
245
245
245
245
245
245
245
245
245
245
245
245
245
245
245
245
245
245
245
245
244
244
244
244
244
244
244
244
244
245
245
245
245
245
245
246
246
246
246
246
246
246
246
246
221
219
233
0
3
0
23
24
16
27
23
20
11
0
44
196
199
0
254
246
15
245
225
6
244
231
3
244
231
3
243
230
2
243
230
2
243
230
2
242
229
1
242
229
1
242
229
1
243
230
2
243
230
2
243
230
2
243
230
2
243
230
2
243
230
2
243
230
2
243
230
2
241
233
0
244
227
0
244
226
0
253
244
15
160
163
0
14
2
22
21
19
24
23
18
15
3
0
12
152
149
16
244
234
0
248
226
1
242
225
0
237
226
0
243
228
11
240
221
5
243
230
2
243
230
2
242
229
1
242
229
1
242
229
1
241
228
0
241
228
0
241
228
0
240
227
0
240
227
0
240
227
0
240
227
0
241
228
0
241
228
0
242
229
1
242
229
1
242
229
1
242
229
1
242
229
1
242
229
1
242
229
1
242
229
1
242
229
1
242
229
1
242
229
1
242
229
1
242
229
1
243
230
2
243
230
2
243
230
2
244
231
3
244
231
3
244
229
2
244
229
2
244
229
2
244
229
2
244
229
2
244
229
2
244
229
2
244
229
2
242
229
1
242
229
1
242
229
1
242
229
1
242
229
1
242
229
1
242
229
1
242
229
1
243
230
2
243
230
2
242
229
1
242
229
1
242
229
1
241
228
0
241
228
0
241
228
0
241
228
0
241
228
0
241
228
0
242
229
1
242
229
1
242
229
1
243
230
2
243
230
2
248
235
16
240
228
0
247
227
6
246
228
0
234
227
0
182
176
26
8
0
19
21
21
19
21
23
18
6
0
27
140
139
0
241
235
1
247
229
9
248
232
0
244
232
0
229
219
0
245
231
0
245
231
0
245
231
0
245
231
0
245
231
0
245
231
0
245
231
0
245
231
0
243
230
2
243
230
2
243
230
2
243
230
2
243
230
2
243
230
2
243
230
2
243
230
2
246
233
0
239
223
5
243
234
7
127
116
26
12
6
16
15
23
25
5
9
10
49
45
46
250
250
250
249
249
249
235
235
235
239
239
239
246
246
246
241
241
241
242
242
242
244
244
244
244
244
244
244
244
244
244
244
244
244
244
244
244
244
244
244
244
244
244
244
244
244
244
244
244
244
244
244
244
244
244
244
244
244
244
244
244
244
244
244
244
244
244
244
244
244
244
244
243
243
243
243
243
243
243
243
243
243
243
243
243
243
243
243
243
243
243
243
243
243
243
243
243
243
243
243
243
243
242
242
242
242
242
242
241
241
241
241
241
241
241
241
241
241
241
241
242
242
242
244
244
244
244
244
244
244
244
244
244
244
244
244
244
244
244
244
244
244
244
244
244
244
244
244
244
244
244
244
244
244
244
244
244
244
244
244
244
244
244
244
244
244
244
244
244
244
244
245
245
245
245
245
245
245
245
245
245
245
245
244
244
244
244
244
244
243
243
243
243
243
243
245
245
245
245
245
245
245
245
245
245
245
245
245
245
245
245
245
245
245
245
245
245
245
245
244
244
244
244
244
244
244
244
244
245
245
245
245
245
245
246
246
246
246
246
246
246
246
246
244
242
253
3
8
0
34
36
35
16
14
2
13
0
44
175
169
21
237
232
0
247
228
11
244
231
3
244
231
3
243
230
2
243
230
2
243
230
2
242
229
1
242
229
1
242
229
1
243
230
2
243
230
2
243
230
2
243
230
2
243
230
2
243
230
2
243
230
2
243
230
2
240
232
0
248
231
3
247
230
0
247
239
6
180
184
11
12
1
17
19
17
22
23
18
15
11
4
20
123
115
16
241
230
0
251
231
0
242
224
0
243
232
0
244
229
14
241
223
0
243
230
2
243
230
2
242
229
1
242
229
1
242
229
1
241
228
0
241
228
0
241
228
0
240
227
0
240
227
0
240
227
0
240
227
0
241
228
0
241
228
0
242
229
1
242
229
1
242
229
1
242
229
1
242
229
1
242
229
1
242
229
1
242
229
1
242
229
1
242
229
1
242
229
1
242
229
1
242
229
1
243
230
2
243
230
2
243
230
2
244
231
3
244
231
3
243
228
1
243
228
1
243
228
1
243
228
1
243
228
1
243
228
1
243
228
1
243
228
1
242
229
1
242
229
1
242
229
1
242
229
1
242
229
1
242
229
1
242
229
1
242
229
1
243
230
2
243
230
2
242
229
1
242
229
1
242
229
1
241
228
0
241
228
0
241
228
0
241
228
0
241
228
0
241
228
0
242
229
1
242
229
1
242
229
1
243
230
2
243
230
2
247
234
18
241
230
0
249
230
6
247
228
2
237
230
0
156
146
22
8
0
12
20
20
20
21
24
17
6
0
34
159
162
0
245
239
7
247
230
3
246
230
0
245
232
4
233
224
0
245
231
0
245
231
0
245
231
0
245
231
0
245
231
0
245
231
0
245
231
0
245
231
0
243
230
2
243
230
2
243
230
2
243
230
2
243
230
2
243
230
2
243
230
2
243
230
2
245
229
0
245
230
7
236
228
7
80
66
17
16
14
25
13
23
25
1
6
0
100
94
96
253
253
253
247
247
247
238
238
238
238
238
238
243
243
243
243
243
243
243
243
243
242
242
242
244
244
244
244
244
244
244
244
244
244
244
244
244
244
244
244
244
244
244
244
244
244
244
244
244
244
244
244
244
244
244
244
244
244
244
244
244
244
244
244
244
244
244
244
244
244
244
244
243
243
243
243
243
243
243
243
243
243
243
243
243
243
243
243
243
243
243
243
243
243
243
243
243
243
243
243
243
243
242
242
242
242
242
242
241
241
241
241
241
241
241
241
241
241
241
241
242
242
242
244
244
244
244
244
244
244
244
244
244
244
244
244
244
244
244
244
244
244
244
244
244
244
244
244
244
244
244
244
244
244
244
244
244
244
244
244
244
244
244
244
244
244
244
244
244
244
244
245
245
245
245
245
245
245
245
245
244
244
244
244
244
244
243
243
243
243
243
243
243
243
243
245
245
245
245
245
245
245
245
245
245
245
245
245
245
245
245
245
245
245
245
245
245
245
245
244
244
244
244
244
244
244
244
244
245
245
245
245
245
245
246
246
246
246
246
246
246
246
246
250
251
255
58
62
47
21
21
33
16
18
0
19
0
32
125
109
31
233
230
0
245
226
9
244
231
3
244
231
3
243
230
2
243
230
2
243
230
2
242
229
1
242
229
1
242
229
1
243
230
2
243
230
2
243
230
2
243
230
2
243
230
2
243
230
2
243
230
2
243
230
2
238
230
0
251
234
6
250
233
0
239
232
0
199
204
26
9
0
12
17
15
18
24
19
16
20
12
33
94
81
11
237
226
0
254
235
0
242
224
2
250
240
0
244
229
12
243
227
0
243
230
2
243
230
2
242
229
1
242
229
1
242
229
1
241
228
0
241
228
0
241
228
0
240
227
0
240
227
0
240
227
0
240
227
0
241
228
0
241
228
0
242
229
1
242
229
1
242
229
1
242
229
1
242
229
1
242
229
1
242
229
1
242
229
1
242
229
1
242
229
1
242
229
1
242
229
1
242
229
1
243
230
2
243
230
2
243
230
2
244
231
3
244
231
3
243
228
1
243
228
1
243
228
1
243
228
1
243
228
1
243
228
1
243
228
1
243
228
1
242
229
1
242
229
1
242
229
1
242
229
1
242
229
1
242
229
1
242
229
1
242
229
1
243
230
2
243
230
2
242
229
1
242
229
1
242
229
1
241
228
0
241
228
0
241
228
0
241
228
0
241
228
0
241
228
0
242
229
1
242
229
1
242
229
1
243
230
2
243
230
2
244
230
17
244
233
0
251
232
6
248
228
9
240
233
0
130
117
13
14
0
13
20
20
22
20
23
14
6
0
37
177
183
0
250
243
13
247
231
0
243
227
0
247
233
10
238
230
0
245
231
0
245
231
0
245
231
0
245
231
0
245
231
0
245
231
0
245
231
0
245
231
0
243
230
2
243
230
2
243
230
2
243
230
2
243
230
2
243
230
2
243
230
2
243
230
2
242
226
0
252
238
9
226
220
2
41
24
8
23
23
35
11
22
26
0
4
0
152
146
146
248
248
248
243
243
243
241
241
241
238
238
238
240
240
240
245
245
245
243
243
243
239
239
239
244
244
244
244
244
244
244
244
244
244
244
244
244
244
244
244
244
244
244
244
244
244
244
244
244
244
244
244
244
244
244
244
244
244
244
244
244
244
244
244
244
244
244
244
244
244
244
244
243
243
243
243
243
243
243
243
243
243
243
243
243
243
243
243
243
243
243
243
243
243
243
243
243
243
243
243
243
243
242
242
242
242
242
242
241
241
241
241
241
241
241
241
241
241
241
241
242
242
242
244
244
244
244
244
244
244
244
244
244
244
244
244
244
244
244
244
244
244
244
244
244
244
244
244
244
244
244
244
244
244
244
244
244
244
244
244
244
244
244
244
244
244
244
244
244
244
244
245
245
245
245
245
245
244
244
244
244
244
244
244
244
244
243
243
243
243
243
243
243
243
243
245
245
245
245
245
245
245
245
245
245
245
245
245
245
245
245
245
245
245
245
245
245
245
245
244
244
244
244
244
244
244
244
244
245
245
245
245
245
245
246
246
246
246
246
246
246
246
246
245
247
244
116
122
110
0
0
19
28
30
6
24
10
25
72
49
17
247
244
0
239
220
3
244
231
3
244
231
3
243
230
2
243
230
2
243
230
2
242
229
1
242
229
1
242
229
1
243
230
2
243
230
2
243
230
2
243
230
2
243
230
2
243
230
2
243
230
2
243
230
2
237
229
0
253
236
6
251
235
0
233
227
0
210
215
35
6
0
7
16
14
17
24
19
16
26
18
41
75
59
7
234
222
0
255
237
0
242
224
2
255
247
0
245
231
12
244
229
0
243
230
2
243
230
2
242
229
1
242
229
1
242
229
1
241
228
0
241
228
0
241
228
0
240
227
0
240
227
0
240
227
0
240
227
0
241
228
0
241
228
0
242
229
1
242
229
1
242
229
1
242
229
1
242
229
1
242
229
1
242
229
1
242
229
1
242
229
1
242
229
1
242
229
1
242
229
1
242
229
1
243
230
2
243
230
2
243
230
2
244
231
3
244
231
3
243
228
1
243
228
1
243
228
1
243
228
1
243
228
1
243
228
1
243
228
1
243
228
1
242
229
1
242
229
1
242
229
1
242
229
1
242
229
1
242
229
1
242
229
1
242
229
1
243
230
2
243
230
2
242
229
1
242
229
1
242
229
1
241
228
0
241
228
0
241
228
0
241
228
0
241
228
0
241
228
0
242
229
1
242
229
1
242
229
1
243
230
2
243
230
2
241
227
16
246
235
0
253
234
7
248
228
11
243
236
0
113
98
5
18
5
15
20
19
24
19
22
13
6
0
41
188
196
0
253
246
18
247
231
0
242
225
0
248
234
11
242
234
1
245
231
0
245
231
0
245
231
0
245
231
0
245
231
0
245
231
0
245
231
0
245
231
0
243
230
2
243
230
2
243
230
2
243
230
2
243
230
2
243
230
2
243
230
2
243
230
2
240
224
0
255
242
11
221
216
0
19
1
1
26
28
41
10
21
25
0
3
0
184
178
178
243
243
243
241
241
241
244
244
244
238
238
238
237
237
237
246
246
246
244
244
244
238
238
238
244
244
244
244
244
244
244
244
244
244
244
244
244
244
244
244
244
244
244
244
244
244
244
244
244
244
244
244
244
244
244
244
244
244
244
244
244
244
244
244
244
244
244
244
244
244
244
244
243
243
243
243
243
243
243
243
243
243
243
243
243
243
243
243
243
243
243
243
243
243
243
243
243
243
243
243
243
243
242
242
242
242
242
242
241
241
241
241
241
241
241
241
241
241
241
241
242
242
242
245
245
245
245
245
245
244
244
244
244
244
244
244
244
244
243
243
243
243
243
243
243
243
243
244
244
244
244
244
244
244
244
244
244
244
244
244
244
244
244
244
244
244
244
244
244
244
244
246
246
246
246
246
246
246
246
246
245
245
245
245
245
245
244
244
244
244
244
244
244
244
244
245
245
245
245
245
245
245
245
245
245
245
245
245
245
245
245
245
245
245
245
245
245
245
245
245
245
245
245
245
245
245
245
245
245
245
245
245
245
245
245
245
245
245
245
245
245
245
245
248
246
255
188
188
162
3
0
27
18
23
3
29
29
41
16
6
0
212
210
0
255
230
25
244
229
2
244
229
2
244
229
2
244
229
2
244
229
2
244
229
2
244
229
2
244
229
2
243
230
2
243
230
2
243
230
2
243
230
2
243
230
2
243
230
2
243
230
2
243
230
2
252
238
0
242
227
14
232
220
10
238
229
0
244
233
3
94
63
45
14
9
0
21
37
26
12
24
22
27
4
30
222
208
0
255
237
39
247
231
13
228
225
0
251
240
11
255
236
2
241
228
0
241
228
0
241
228
0
241
228
0
241
228
0
241
228
0
241
228
0
241
228
0
241
228
2
241
228
2
241
228
2
241
228
2
241
228
2
241
228
2
241
228
2
241
228
2
242
229
1
242
229
1
242
229
1
242
229
1
242
229
1
242
229
1
242
229
1
242
229
1
242
229
1
242
229
1
242
229
1
242
229
1
242
229
1
242
229
1
242
229
1
242
229
1
244
231
3
244
231
3
244
231
3
244
231
3
244
231
3
244
231
3
244
231
3
244
231
3
243
230
2
243
230
2
242
229
1
242
229
1
242
229
1
241
228
0
241
228
0
241
228
0
245
230
3
245
230
3
245
230
3
245
230
3
245
230
3
245
230
3
245
230
3
245
230
3
243
230
2
243
230
2
243
230
2
243
230
2
243
230
2
243
230
2
243
230
2
243
230
2
248
237
7
244
226
0
255
227
19
250
235
12
226
233
0
20
6
5
32
24
39
25
20
17
18
30
0
20
0
30
234
232
0
252
235
0
244
225
9
242
233
0
234
228
0
245
231
8
244
230
0
244
230
0
244
230
0
244
230
0
244
230
0
244
230
0
244
230
0
244
230
0
241
228
0
241
228
0
241
228
0
241
228
0
242
229
1
242
229
1
243
230
2
243
230
2
254
232
1
229
222
9
167
169
33
7
0
2
38
33
3
35
20
53
3
0
7
229
233
216
244
244
244
244
244
244
243
243
243
243
243
243
243
243
243
242
242
242
242
242
242
242
242
242
243
243
243
243
243
243
243
243
243
244
244
244
244
244
244
244
244
244
245
245
245
245
245
245
244
244
244
244
244
244
244
244
244
244
244
244
244
244
244
244
244
244
244
244
244
244
244
244
242
242
242
242
242
242
242
242
242
242
242
242
242
242
242
242
242
242
242
242
242
242
242
242
243
243
243
243
243
243
243
243
243
243
243
243
243
243
243
243
243
243
243
243
243
243
243
243
243
243
243
245
245
245
245
245
245
244
244
244
244
244
244
244
244
244
243
243
243
243
243
243
243
243
243
244
244
244
244
244
244
244
244
244
244
244
244
244
244
244
244
244
244
244
244
244
244
244
244
246
246
246
246
246
246
245
245
245
245
245
245
245
245
245
244
244
244
244
244
244
244
244
244
245
245
245
245
245
245
245
245
245
245
245
245
245
245
245
245
245
245
245
245
245
245
245
245
245
245
245
245
245
245
245
245
245
245
245
245
245
245
245
245
245
245
245
245
245
245
245
245
252
251
255
211
210
190
11
3
24
18
22
8
17
17
29
7
0
0
187
179
6
255
233
8
244
229
2
244
229
2
244
229
2
244
229
2
244
229
2
244
229
2
244
229
2
244
229
2
243
230
2
243
230
2
243
230
2
243
230
2
243
230
2
243
230
2
243
230
2
243
230
2
248
232
0
242
228
9
233
222
8
239
230
0
245
234
5
118
93
36
7
0
0
18
31
24
14
24
26
16
0
14
195
178
4
249
229
12
241
228
0
230
226
0
247
235
13
251
233
1
241
228
0
241
228
0
241
228
0
241
228
0
241
228
0
241
228
0
241
228
0
241
228
0
241
228
2
241
228
2
241
228
2
241
228
2
241
228
2
241
228
2
241
228
2
241
228
2
242
229
1
242
229
1
242
229
1
242
229
1
242
229
1
242
229
1
242
229
1
242
229
1
242
229
1
242
229
1
242
229
1
242
229
1
242
229
1
242
229
1
242
229
1
242
229
1
244
231
3
244
231
3
244
231
3
244
231
3
244
231
3
244
231
3
244
231
3
244
231
3
243
230
2
243
230
2
242
229
1
242
229
1
242
229
1
241
228
0
241
228
0
241
228
0
245
230
3
245
230
3
245
230
3
245
230
3
245
230
3
245
230
3
245
230
3
245
230
3
243
230
2
243
230
2
243
230
2
243
230
2
243
230
2
243
230
2
243
230
2
243
230
2
244
233
3
243
226
0
255
230
13
241
230
0
210
211
21
13
1
1
24
16
31
22
17
13
19
22
15
64
48
33
237
233
0
249
232
0
245
227
5
243
232
2
238
229
0
243
229
6
244
230
0
244
230
0
244
230
0
244
230
0
244
230
0
244
230
0
244
230
0
244
230
0
241
228
0
241
228
0
241
228
0
242
229
1
242
229
1
242
229
1
243
230
2
243
230
2
248
229
0
238
233
17
116
113
20
6
0
0
27
20
2
19
5
30
63
58
64
243
246
237
244
244
244
244
244
244
243
243
243
243
243
243
243
243
243
242
242
242
242
242
242
242
242
242
243
243
243
243
243
243
243
243
243
244
244
244
244
244
244
244
244
244
245
245
245
245
245
245
244
244
244
244
244
244
244
244
244
244
244
244
244
244
244
244
244
244
244
244
244
244
244
244
242
242
242
242
242
242
242
242
242
242
242
242
242
242
242
242
242
242
242
242
242
242
242
242
243
243
243
243
243
243
243
243
243
243
243
243
243
243
243
243
243
243
243
243
243
243
243
243
243
243
243
245
245
245
245
245
245
244
244
244
244
244
244
244
244
244
243
243
243
243
243
243
243
243
243
244
244
244
244
244
244
244
244
244
244
244
244
244
244
244
244
244
244
244
244
244
244
244
244
246
246
246
245
245
245
245
245
245
245
245
245
244
244
244
244
244
244
244
244
244
244
244
244
245
245
245
245
245
245
245
245
245
245
245
245
245
245
245
245
245
245
245
245
245
245
245
245
245
245
245
245
245
245
245
245
245
245
245
245
245
245
245
245
245
245
245
245
245
245
245
245
248
248
246
239
236
227
58
54
55
16
16
14
11
14
23
6
0
11
136
122
23
243
234
0
244
229
2
244
229
2
244
229
2
244
229
2
244
229
2
244
229
2
244
229
2
244
229
2
243
230
2
243
230
2
243
230
2
243
230
2
243
230
2
243
230
2
243
230
2
243
230
2
242
224
2
240
229
0
235
225
6
241
230
0
247
233
12
159
143
22
7
0
19
10
20
19
13
20
30
8
0
0
142
122
23
234
223
0
240
228
0
234
226
0
244
229
16
246
229
1
241
228
0
241
228
0
241
228
0
241
228
0
241
228
0
241
228
0
241
228
0
241
228
0
241
228
2
241
228
2
241
228
2
241
228
2
241
228
2
241
228
2
241
228
2
241
228
2
242
229
1
242
229
1
242
229
1
242
229
1
242
229
1
242
229
1
242
229
1
242
229
1
242
229
1
242
229
1
242
229
1
242
229
1
242
229
1
242
229
1
242
229
1
242
229
1
244
231
3
244
231
3
244
231
3
244
231
3
244
231
3
244
231
3
244
231
3
244
231
3
243
230
2
243
230
2
242
229
1
242
229
1
242
229
1
241
228
0
241
228
0
241
228
0
245
230
3
245
230
3
245
230
3
245
230
3
245
230
3
245
230
3
245
230
3
245
230
3
243
230
2
243
230
2
243
230
2
243
230
2
243
230
2
243
230
2
243
230
2
243
230
2
239
228
0
242
227
0
255
236
2
239
235
0
168
161
44
7
0
1
15
9
21
21
16
10
13
3
38
127
120
30
240
234
0
246
228
0
244
230
1
241
228
9
239
230
0
243
227
7
244
230
0
244
230
0
244
230
0
244
230
0
244
230
0
244
230
0
244
230
0
244
230
0
241
228
0
241
228
0
242
229
1
242
229
1
242
229
1
243
230
2
243
230
2
243
230
2
239
226
0
234
233
19
54
43
15
12
7
3
22
14
11
7
0
5
141
137
136
249
250
254
244
244
244
244
244
244
243
243
243
243
243
243
243
243
243
242
242
242
242
242
242
242
242
242
243
243
243
243
243
243
243
243
243
244
244
244
244
244
244
244
244
244
245
245
245
245
245
245
244
244
244
244
244
244
244
244
244
244
244
244
244
244
244
244
244
244
244
244
244
244
244
244
242
242
242
242
242
242
242
242
242
242
242
242
242
242
242
242
242
242
242
242
242
242
242
242
243
243
243
243
243
243
243
243
243
243
243
243
243
243
243
243
243
243
243
243
243
243
243
243
243
243
243
245
245
245
245
245
245
244
244
244
244
244
244
244
244
244
243
243
243
243
243
243
243
243
243
244
244
244
244
244
244
244
244
244
244
244
244
244
244
244
244
244
244
244
244
244
244
244
244
245
245
245
245
245
245
245
245
245
244
244
244
244
244
244
244
244
244
243
243
243
243
243
243
245
245
245
245
245
245
245
245
245
245
245
245
245
245
245
245
245
245
245
245
245
245
245
245
245
245
245
245
245
245
245
245
245
245
245
245
245
245
245
245
245
245
245
245
245
245
245
245
237
238
230
255
250
254
124
121
106
8
7
12
19
21
33
10
1
28
72
55
27
226
226
0
244
229
2
244
229
2
244
229
2
244
229
2
244
229
2
244
229
2
244
229
2
244
229
2
243
230
2
243
230
2
243
230
2
243
230
2
243
230
2
243
230
2
243
230
2
243
230
2
236
219
7
239
229
0
237
228
3
241
230
0
249
233
16
200
191
10
21
2
30
6
11
17
12
15
30
9
2
0
76
55
28
224
222
0
245
236
0
239
226
0
243
225
17
241
226
1
242
229
1
242
229
1
242
229
1
242
229
1
242
229
1
242
229
1
242
229
1
242
229
1
241
228
2
241
228
2
241
228
2
241
228
2
241
228
2
241
228
2
241
228
2
241
228
2
242
229
1
242
229
1
242
229
1
242
229
1
242
229
1
242
229
1
242
229
1
242
229
1
242
229
1
242
229
1
242
229
1
242
229
1
242
229
1
242
229
1
242
229
1
242
229
1
243
230
2
243
230
2
243
230
2
243
230
2
243
230
2
243
230
2
243
230
2
243
230
2
243
230
2
243
230
2
242
229
1
242
229
1
242
229
1
241
228
0
241
228
0
241
228
0
244
229
2
244
229
2
244
229
2
244
229
2
244
229
2
244
229
2
244
229
2
244
229
2
243
230
2
243
230
2
243
230
2
243
230
2
243
230
2
243
230
2
243
230
2
243
230
2
237
225
0
243
229
0
253
238
0
246
246
0
99
86
41
9
3
7
15
9
19
26
19
13
7
0
41
183
181
19
245
236
0
247
229
0
245
232
0
238
224
13
239
228
0
247
227
10
245
231
0
245
231
0
245
231
0
245
231
0
245
231
0
245
231
0
245
231
0
245
231
0
242
229
1
242
229
1
242
229
1
242
229
1
243
230
2
243
230
2
244
231
3
244
231
3
238
231
0
203
202
14
17
1
28
24
21
12
25
17
28
6
0
0
196
193
188
242
241
255
244
244
244
244
244
244
243
243
243
243
243
243
243
243
243
242
242
242
242
242
242
242
242
242
243
243
243
243
243
243
243
243
243
244
244
244
244
244
244
244
244
244
245
245
245
245
245
245
244
244
244
244
244
244
244
244
244
244
244
244
244
244
244
244
244
244
244
244
244
244
244
244
242
242
242
242
242
242
242
242
242
242
242
242
242
242
242
242
242
242
242
242
242
242
242
242
243
243
243
243
243
243
243
243
243
243
243
243
243
243
243
243
243
243
243
243
243
243
243
243
243
243
243
245
245
245
245
245
245
244
244
244
244
244
244
244
244
244
243
243
243
243
243
243
243
243
243
244
244
244
244
244
244
244
244
244
244
244
244
244
244
244
244
244
244
244
244
244
244
244
244
245
245
245
245
245
245
244
244
244
244
244
244
243
243
243
243
243
243
243
243
243
243
243
243
245
245
245
245
245
245
245
245
245
245
245
245
245
245
245
245
245
245
245
245
245
245
245
245
245
245
245
245
245
245
245
245
245
245
245
245
245
245
245
245
245
245
245
245
245
245
245
245
234
237
226
255
252
255
188
183
161
5
3
8
22
24
36
18
15
42
24
8
19
200
202
4
244
229
2
244
229
2
244
229
2
244
229
2
244
229
2
244
229
2
244
229
2
244
229
2
243
230
2
243
230
2
243
230
2
243
230
2
243
230
2
243
230
2
243
230
2
243
230
2
235
218
6
239
229
0
239
230
1
241
229
0
248
231
17
229
224
2
60
44
28
6
6
18
13
13
25
17
17
5
21
3
25
203
203
9
251
245
3
243
225
3
246
226
15
238
224
1
242
229
1
242
229
1
242
229
1
242
229
1
242
229
1
242
229
1
242
229
1
242
229
1
241
228
2
241
228
2
241
228
2
241
228
2
241
228
2
241
228
2
241
228
2
241
228
2
242
229
1
242
229
1
242
229
1
242
229
1
242
229
1
242
229
1
242
229
1
242
229
1
242
229
1
242
229
1
242
229
1
242
229
1
242
229
1
242
229
1
242
229
1
242
229
1
243
230
2
243
230
2
243
230
2
243
230
2
243
230
2
243
230
2
243
230
2
243
230
2
243
230
2
243
230
2
242
229
1
242
229
1
242
229
1
241
228
0
241
228
0
241
228
0
244
229
2
244
229
2
244
229
2
244
229
2
244
229
2
244
229
2
244
229
2
244
229
2
243
230
2
243
230
2
243
230
2
243
230
2
243
230
2
243
230
2
243
230
2
243
230
2
236
224
2
244
232
0
248
238
0
240
237
36
32
18
18
16
14
15
18
15
26
28
20
18
18
0
16
217
217
5
247
233
4
250
232
0
245
232
0
235
222
6
239
226
0
252
229
11
245
231
0
245
231
0
245
231
0
245
231
0
245
231
0
245
231
0
245
231
0
245
231
0
242
229
1
242
229
1
243
230
2
243
230
2
243
230
2
244
231
3
244
231
3
244
231
3
247
242
0
148
144
11
11
0
42
24
25
17
24
18
30
26
22
10
221
220
216
235
237
250
244
244
244
244
244
244
243
243
243
243
243
243
243
243
243
242
242
242
242
242
242
242
242
242
243
243
243
243
243
243
243
243
243
244
244
244
244
244
244
244
244
244
245
245
245
245
245
245
244
244
244
244
244
244
244
244
244
244
244
244
244
244
244
244
244
244
244
244
244
244
244
244
242
242
242
242
242
242
242
242
242
242
242
242
242
242
242
242
242
242
242
242
242
242
242
242
243
243
243
243
243
243
243
243
243
243
243
243
243
243
243
243
243
243
243
243
243
243
243
243
243
243
243
245
245
245
245
245
245
244
244
244
244
244
244
244
244
244
243
243
243
243
243
243
243
243
243
244
244
244
244
244
244
244
244
244
244
244
244
244
244
244
244
244
244
244
244
244
244
244
244
244
244
244
244
244
244
244
244
244
243
243
243
243
243
243
243
243
243
242
242
242
242
242
242
245
245
245
245
245
245
245
245
245
245
245
245
245
245
245
245
245
245
245
245
245
245
245
245
245
245
245
245
245
245
245
245
245
245
245
245
245
245
245
245
245
245
245
245
245
245
245
245
242
245
234
255
248
255
231
226
204
32
31
27
9
13
24
21
24
41
5
0
12
148
147
29
244
229
2
244
229
2
244
229
2
244
229
2
244
229
2
244
229
2
244
229
2
244
229
2
243
230
2
243
230
2
243
230
2
243
230
2
243
230
2
243
230
2
243
230
2
243
230
2
237
223
0
238
229
0
241
233
0
242
227
0
249
230
14
241
235
0
116
112
12
10
5
25
15
14
19
24
27
20
3
0
30
147
145
22
246
240
8
248
227
0
245
227
3
237
225
3
242
229
1
242
229
1
242
229
1
242
229
1
242
229
1
242
229
1
242
229
1
242
229
1
241
228
2
241
228
2
241
228
2
241
228
2
241
228
2
241
228
2
241
228
2
241
228
2
242
229
1
242
229
1
242
229
1
242
229
1
242
229
1
242
229
1
242
229
1
242
229
1
242
229
1
242
229
1
242
229
1
242
229
1
242
229
1
242
229
1
242
229
1
242
229
1
242
229
1
242
229
1
242
229
1
242
229
1
242
229
1
242
229
1
242
229
1
242
229
1
243
230
2
243
230
2
242
229
1
242
229
1
242
229
1
241
228
0
241
228
0
241
228
0
243
228
1
243
228
1
243
228
1
243
228
1
243
228
1
243
228
1
243
228
1
243
228
1
243
230
2
243
230
2
243
230
2
243
230
2
243
230
2
243
230
2
243
230
2
243
230
2
236
223
7
244
233
0
240
233
0
188
178
54
7
0
9
21
23
18
23
21
34
24
14
22
72
55
0
235
233
0
247
228
12
251
234
0
245
231
0
238
226
0
242
225
0
255
231
10
246
232
1
246
232
1
246
232
1
246
232
1
246
232
1
246
232
1
246
232
1
246
232
1
243
230
2
243
230
2
243
230
2
243
230
2
244
231
3
244
231
3
244
231
3
245
232
4
238
235
20
86
74
14
17
8
39
19
21
18
10
8
13
85
81
69
236
234
239
239
243
246
244
244
244
244
244
244
243
243
243
243
243
243
243
243
243
242
242
242
242
242
242
242
242
242
243
243
243
243
243
243
243
243
243
244
244
244
244
244
244
244
244
244
245
245
245
245
245
245
244
244
244
244
244
244
244
244
244
244
244
244
244
244
244
244
244
244
244
244
244
244
244
244
242
242
242
242
242
242
242
242
242
242
242
242
242
242
242
242
242
242
242
242
242
242
242
242
243
243
243
243
243
243
243
243
243
243
243
243
243
243
243
243
243
243
243
243
243
243
243
243
243
243
243
245
245
245
245
245
245
244
244
244
244
244
244
244
244
244
243
243
243
243
243
243
243
243
243
244
244
244
244
244
244
244
244
244
244
244
244
244
244
244
244
244
244
244
244
244
244
244
244
244
244
244
244
244
244
243
243
243
243
243
243
243
243
243
242
242
242
242
242
242
242
242
242
245
245
245
245
245
245
245
245
245
245
245
245
245
245
245
245
245
245
245
245
245
245
245
245
245
245
245
245
245
245
245
245
245
245
245
245
245
245
245
245
245
245
245
245
245
245
245
245
246
249
242
247
239
255
255
248
232
100
98
85
0
1
13
20
28
31
10
10
8
67
60
31
244
229
2
244
229
2
244
229
2
244
229
2
244
229
2
244
229
2
244
229
2
244
229
2
243
230
2
243
230
2
243
230
2
243
230
2
243
230
2
243
230
2
243
230
2
243
230
2
241
230
0
239
229
9
242
235
0
241
225
5
248
228
9
240
232
1
175
182
0
17
9
33
21
20
15
20
26
26
5
4
35
68
60
14
229
220
3
252
230
0
245
228
0
236
226
6
243
230
2
243
230
2
243
230
2
243
230
2
243
230
2
243
230
2
243
230
2
243
230
2
241
228
2
241
228
2
241
228
2
241
228
2
241
228
2
241
228
2
241
228
2
241
228
2
242
229
1
242
229
1
242
229
1
242
229
1
242
229
1
242
229
1
242
229
1
242
229
1
242
229
1
242
229
1
242
229
1
242
229
1
242
229
1
242
229
1
242
229
1
242
229
1
242
229
1
242
229
1
242
229
1
242
229
1
242
229
1
242
229
1
242
229
1
242
229
1
243
230
2
243
230
2
242
229
1
242
229
1
242
229
1
241
228
0
241
228
0
241
228
0
243
228
1
243
228
1
243
228
1
243
228
1
243
228
1
243
228
1
243
228
1
243
228
1
243
230
2
243
230
2
243
230
2
243
230
2
243
230
2
243
230
2
243
230
2
243
230
2
234
220
9
243
231
0
233
226
0
101
82
39
5
0
5
17
25
14
22
21
37
13
2
18
152
144
0
246
240
8
242
219
17
249
231
0
244
230
7
246
237
0
246
226
9
255
233
6
246
232
1
246
232
1
246
232
1
246
232
1
246
232
1
246
232
1
246
232
1
246
232
1
243
230
2
243
230
2
243
230
2
244
231
3
244
231
3
244
231
3
245
232
4
245
232
4
201
195
11
31
11
23
23
24
19
20
25
29
0
1
0
160
158
146
249
245
255
240
246
236
244
244
244
244
244
244
243
243
243
243
243
243
243
243
243
242
242
242
242
242
242
242
242
242
243
243
243
243
243
243
243
243
243
244
244
244
244
244
244
244
244
244
245
245
245
245
245
245
244
244
244
244
244
244
244
244
244
244
244
244
244
244
244
244
244
244
244
244
244
244
244
244
242
242
242
242
242
242
242
242
242
242
242
242
242
242
242
242
242
242
242
242
242
242
242
242
243
243
243
243
243
243
243
243
243
243
243
243
243
243
243
243
243
243
243
243
243
243
243
243
243
243
243
245
245
245
245
245
245
244
244
244
244
244
244
244
244
244
243
243
243
243
243
243
243
243
243
244
244
244
244
244
244
244
244
244
244
244
244
244
244
244
244
244
244
244
244
244
244
244
244
244
244
244
244
244
244
243
243
243
243
243
243
242
242
242
242
242
242
242
242
242
242
242
242
245
245
245
245
245
245
245
245
245
245
245
245
245
245
245
245
245
245
245
245
245
245
245
245
245
245
245
245
245
245
245
245
245
245
245
245
245
245
245
245
245
245
245
245
245
245
245
245
243
245
240
239
231
254
255
253
244
162
161
140
0
0
12
20
31
25
19
24
4
6
0
21
244
229
2
244
229
2
244
229
2
244
229
2
244
229
2
244
229
2
244
229
2
244
229
2
243
230
2
243
230
2
243
230
2
243
230
2
243
230
2
243
230
2
243
230
2
243
230
2
245
236
0
239
228
14
243
236
0
241
224
10
247
228
4
238
226
2
210
227
0
21
11
38
26
27
13
13
20
26
21
26
46
8
0
2
211
203
0
254
233
0
243
227
0
236
228
7
243
230
2
243
230
2
243
230
2
243
230
2
243
230
2
243
230
2
243
230
2
243
230
2
241
228
2
241
228
2
241
228
2
241
228
2
241
228
2
241
228
2
241
228
2
241
228
2
242
229
1
242
229
1
242
229
1
242
229
1
242
229
1
242
229
1
242
229
1
242
229
1
242
229
1
242
229
1
242
229
1
242
229
1
242
229
1
242
229
1
242
229
1
242
229
1
242
229
1
242
229
1
242
229
1
242
229
1
242
229
1
242
229
1
242
229
1
242
229
1
243
230
2
243
230
2
242
229
1
242
229
1
242
229
1
241
228
0
241
228
0
241
228
0
243
228
1
243
228
1
243
228
1
243
228
1
243
228
1
243
228
1
243
228
1
243
228
1
243
230
2
243
230
2
243
230
2
243
230
2
243
230
2
243
230
2
243
230
2
243
230
2
233
218
11
241
230
0
227
221
1
33
7
16
22
21
16
14
22
7
21
20
38
6
0
14
214
212
6
253
244
19
240
213
20
245
227
0
244
230
11
253
246
0
249
228
17
255
233
2
246
232
1
246
232
1
246
232
1
246
232
1
246
232
1
246
232
1
246
232
1
246
232
1
243
230
2
243
230
2
243
230
2
244
231
3
244
231
3
245
232
4
245
232
4
245
232
4
160
152
0
13
0
44
27
32
0
30
34
43
0
3
0
216
213
204
255
251
255
236
243
225
244
244
244
244
244
244
243
243
243
243
243
243
243
243
243
242
242
242
242
242
242
242
242
242
243
243
243
243
243
243
243
243
243
244
244
244
244
244
244
244
244
244
245
245
245
245
245
245
244
244
244
244
244
244
244
244
244
244
244
244
244
244
244
244
244
244
244
244
244
244
244
244
242
242
242
242
242
242
242
242
242
242
242
242
242
242
242
242
242
242
242
242
242
242
242
242
243
243
243
243
243
243
243
243
243
243
243
243
243
243
243
243
243
243
243
243
243
243
243
243
243
243
243
245
245
245
245
245
245
244
244
244
244
244
244
244
244
244
243
243
243
243
243
243
243
243
243
244
244
244
244
244
244
244
244
244
244
244
244
244
244
244
244
244
244
244
244
244
244
244
244
243
243
243
243
243
243
243
243
243
243
243
243
243
243
243
243
243
243
243
243
243
243
243
243
245
245
245
245
245
245
245
245
245
245
245
245
245
245
245
245
245
245
245
245
245
245
245
245
245
245
245
245
245
245
245
245
245
245
245
245
245
245
245
245
245
245
245
245
245
245
245
245
249
249
249
253
253
253
246
246
246
219
219
219
33
33
33
18
18
18
20
20
20
5
5
5
132
131
51
239
239
19
246
228
0
243
216
13
249
244
0
244
239
33
234
226
3
238
221
0
243
230
2
243
230
2
243
230
2
243
230
2
243
230
2
243
230
2
243
230
2
243
230
2
237
221
12
240
226
5
245
234
0
249
239
0
238
227
0
252
237
20
239
220
29
150
128
0
0
0
46
15
31
5
21
22
24
9
0
18
116
107
16
236
238
7
248
239
0
229
209
1
232
217
2
249
234
19
237
223
2
233
221
0
238
228
0
238
228
0
249
237
5
249
235
16
243
230
2
243
230
2
242
229
1
242
229
1
242
229
1
241
228
0
241
228
0
241
228
0
242
229
1
242
229
1
242
229
1
242
229
1
242
229
1
242
229
1
242
229
1
242
229
1
242
229
1
242
229
1
242
229
1
242
229
1
242
229
1
242
229
1
242
229
1
242
229
1
243
231
0
243
231
0
243
231
0
244
232
0
244
232
0
245
233
1
245
233
1
245
233
1
243
230
2
243
230
2
242
229
1
242
229
1
242
229
1
241
228
0
241
228
0
241
228
0
243
230
2
243
230
2
243
230
2
243
230
2
243
230
2
243
230
2
243
230
2
243
230
2
250
237
0
243
225
21
242
225
31
237
231
0
231
231
0
238
234
2
247
240
14
240
236
0
250
220
0
242
233
0
145
138
21
11
0
58
12
19
12
1
2
20
14
5
10
80
76
3
242
229
1
242
229
1
242
229
1
242
229
1
242
229
1
242
229
1
242
229
1
242
229
1
245
231
0
245
231
0
246
232
1
246
232
1
246
232
1
247
233
2
247
233
2
247
233
2
246
235
6
247
237
0
245
233
0
244
230
1
252
235
23
249
240
0
245
226
46
244
238
0
41
35
37
23
17
19
23
19
20
7
3
4
72
70
71
254
254
254
242
242
242
240
240
240
244
244
244
244
244
244
243
243
243
243
243
243
243
243
243
242
242
242
242
242
242
242
242
242
243
243
243
243
243
243
243
243
243
243
243
243
243
243
243
243
243
243
243
243
243
243
243
243
243
243
243
243
243
243
243
243
243
243
243
243
243
243
243
243
243
243
243
243
243
243
243
243
243
243
243
243
243
243
243
243
243
243
243
243
243
243
243
243
243
243
243
243
243
243
243
243
243
243
243
243
243
243
243
243
243
244
244
244
244
244
244
244
244
244
245
245
245
245
245
245
244
244
244
245
245
245
245
245
245
244
244
244
244
244
244
244
244
244
243
243
243
243
243
243
243
243
243
244
244
244
244
244
244
244
244
244
244
244
244
244
244
244
244
244
244
244
244
244
244
244
244
243
243
243
243
243
243
243
243
243
243
243
243
243
243
243
243
243
243
243
243
243
243
243
243
245
245
245
245
245
245
245
245
245
245
245
245
245
245
245
245
245
245
245
245
245
245
245
245
245
245
245
245
245
245
245
245
245
245
245
245
245
245
245
245
245
245
245
245
245
245
245
245
247
247
247
245
245
245
252
252
252
249
249
249
100
100
100
12
12
12
24
24
24
16
16
16
41
31
21
230
237
0
255
242
12
254
234
0
235
223
0
236
234
2
255
246
19
244
225
0
243
230
2
243
230
2
243
230
2
243
230
2
243
230
2
243
230
2
243
230
2
243
230
2
239
224
7
237
223
0
238
226
0
244
233
0
235
223
0
246
232
11
252
235
33
203
184
0
2
3
24
0
6
0
27
33
23
27
26
21
17
5
0
222
221
42
233
228
0
252
232
15
234
221
0
235
221
0
231
217
0
239
226
0
245
233
0
242
231
0
244
232
0
246
233
5
243
230
2
243
230
2
242
229
1
242
229
1
242
229
1
241
228
0
241
228
0
241
228
0
242
229
1
242
229
1
242
229
1
242
229
1
242
229
1
242
229
1
242
229
1
242
229
1
242
229
1
242
229
1
242
229
1
242
229
1
242
229
1
242
229
1
242
229
1
242
229
1
243
231
0
243
231
0
243
231
0
244
232
0
244
232
0
244
232
0
245
233
1
245
233
1
243
230
2
243
230
2
242
229
1
242
229
1
242
229
1
241
228
0
241
228
0
241
228
0
243
230
2
243
230
2
243
230
2
243
230
2
243
230
2
243
230
2
243
230
2
243
230
2
244
233
0
240
225
8
241
226
19
244
233
1
245
238
2
250
236
25
249
235
24
242
233
0
239
219
0
243
237
19
60
44
10
10
2
23
17
21
20
33
34
18
10
0
0
170
170
38
242
229
1
242
229
1
242
229
1
242
229
1
242
229
1
242
229
1
242
229
1
242
229
1
245
231
0
245
231
0
245
231
0
246
232
1
246
232
1
247
233
2
247
233
2
247
233
2
244
235
0
240
226
3
253
240
3
249
236
0
225
211
0
241
229
5
241
236
0
206
192
23
14
8
10
23
17
19
29
25
26
3
0
0
158
156
157
250
250
250
251
251
251
242
242
242
244
244
244
244
244
244
243
243
243
243
243
243
243
243
243
242
242
242
242
242
242
242
242
242
243
243
243
243
243
243
243
243
243
243
243
243
243
243
243
243
243
243
243
243
243
243
243
243
243
243
243
243
243
243
243
243
243
243
243
243
243
243
243
243
243
243
243
243
243
243
243
243
243
243
243
243
243
243
243
243
243
243
243
243
243
243
243
243
243
243
243
243
243
243
243
243
243
243
243
243
243
243
243
243
243
244
244
244
244
244
244
244
244
244
245
245
245
245
245
245
244
244
244
245
245
245
245
245
245
244
244
244
244
244
244
244
244
244
243
243
243
243
243
243
243
243
243
244
244
244
244
244
244
244
244
244
244
244
244
244
244
244
244
244
244
244
244
244
244
244
244
243
243
243
243
243
243
243
243
243
243
243
243
243
243
243
243
243
243
243
243
243
243
243
243
245
245
245
245
245
245
245
245
245
245
245
245
245
245
245
245
245
245
245
245
245
245
245
245
245
245
245
245
245
245
245
245
245
245
245
245
245
245
245
245
245
245
245
245
245
245
245
245
237
237
237
239
239
239
240
240
240
255
255
255
186
186
186
0
0
0
25
25
25
19
19
19
8
0
30
161
165
0
249
243
1
250
237
1
244
231
13
235
232
0
254
241
23
249
231
11
243
230
2
243
230
2
243
230
2
243
230
2
243
230
2
243
230
2
243
230
2
243
230
2
243
230
4
239
226
0
238
225
0
245
232
3
239
226
0
239
226
0
254
240
19
246
231
14
82
74
25
11
0
16
20
25
2
19
25
23
1
0
30
117
109
26
247
244
0
241
220
0
251
239
3
244
232
0
246
233
4
243
230
2
240
227
0
244
231
2
244
232
0
248
236
0
243
230
2
243
230
2
242
229
1
242
229
1
242
229
1
241
228
0
241
228
0
241
228
0
242
229
1
242
229
1
242
229
1
242
229
1
242
229
1
242
229
1
242
229
1
242
229
1
242
229
1
242
229
1
242
229
1
242
229
1
242
229
1
242
229
1
242
229
1
242
229
1
243
231
0
243
231
0
243
231
0
243
231
0
244
232
0
244
232
0
244
232
0
245
233
1
243
230
2
243
230
2
242
229
1
242
229
1
242
229
1
241
228
0
241
228
0
241
228
0
242
229
1
242
229
1
242
229
1
242
229
1
242
229
1
242
229
1
242
229
1
242
229
1
239
231
0
240
229
0
240
227
1
245
231
0
252
236
18
252
230
33
245
225
17
242
227
0
243
240
5
148
139
8
11
0
14
31
26
32
17
16
14
25
18
0
70
53
7
232
230
33
242
229
1
242
229
1
242
229
1
242
229
1
242
229
1
242
229
1
242
229
1
242
229
1
245
231
0
245
231
0
245
231
0
245
231
0
246
232
1
246
232
1
247
233
2
247
233
2
240
231
0
235
218
16
242
229
0
252
240
0
238
225
0
240
228
30
237
240
0
108
85
15
4
0
0
32
26
28
18
14
15
18
14
15
237
235
236
247
247
247
248
248
248
244
244
244
244
244
244
244
244
244
243
243
243
243
243
243
243
243
243
242
242
242
242
242
242
242
242
242
243
243
243
243
243
243
243
243
243
243
243
243
243
243
243
243
243
243
243
243
243
243
243
243
243
243
243
243
243
243
243
243
243
243
243
243
243
243
243
243
243
243
243
243
243
243
243
243
243
243
243
243
243
243
243
243
243
243
243
243
243
243
243
243
243
243
243
243
243
243
243
243
243
243
243
243
243
243
243
243
243
244
244
244
244
244
244
244
244
244
245
245
245
245
245
245
244
244
244
245
245
245
245
245
245
244
244
244
244
244
244
244
244
244
243
243
243
243
243
243
243
243
243
244
244
244
244
244
244
244
244
244
244
244
244
244
244
244
244
244
244
244
244
244
244
244
244
244
244
244
244
244
244
244
244
244
244
244
244
244
244
244
244
244
244
244
244
244
244
244
244
245
245
245
245
245
245
245
245
245
245
245
245
245
245
245
245
245
245
245
245
245
245
245
245
245
245
245
245
245
245
245
245
245
245
245
245
245
245
245
245
245
245
245
245
245
245
245
245
237
237
237
246
246
246
228
228
228
244
244
244
250
250
250
13
13
13
17
17
17
21
21
21
25
12
40
72
59
15
232
238
0
236
226
6
249
236
7
243
234
0
240
224
17
246
233
7
243
230
2
243
230
2
243
230
2
243
230
2
243
230
2
243
230
2
243
230
2
243
230
2
245
233
0
245
232
3
246
233
7
250
236
13
246
232
9
238
225
0
241
229
0
246
235
0
183
174
21
35
12
30
9
8
3
6
11
40
30
33
48
20
8
8
207
203
7
240
222
0
244
233
0
247
236
0
255
246
12
244
231
5
234
220
1
245
231
10
245
233
0
244
234
0
243
230
2
243
230
2
242
229
1
242
229
1
242
229
1
241
228
0
241
228
0
241
228
0
242
229
1
242
229
1
242
229
1
242
229
1
242
229
1
242
229
1
242
229
1
242
229
1
242
229
1
242
229
1
242
229
1
242
229
1
242
229
1
242
229
1
242
229
1
242
229
1
242
230
0
242
230
0
243
231
0
243
231
0
243
231
0
244
232
0
244
232
0
244
232
0
243
230
2
243
230
2
242
229
1
242
229
1
242
229
1
241
228
0
241
228
0
241
228
0
242
229
1
242
229
1
242
229
1
242
229
1
242
229
1
242
229
1
242
229
1
242
229
1
238
231
3
243
232
0
241
228
0
241
225
0
246
226
7
246
224
16
242
223
0
242
228
0
213
217
34
28
13
0
20
10
18
34
27
45
23
15
30
13
0
0
174
164
14
237
230
2
242
229
1
242
229
1
242
229
1
242
229
1
242
229
1
242
229
1
242
229
1
242
229
1
244
230
0
244
230
0
245
231
0
245
231
0
245
231
0
246
232
1
246
232
1
246
232
1
239
230
0
243
226
24
233
217
0
248
233
0
255
246
25
238
233
20
208
211
0
27
5
0
15
9
11
35
29
31
3
0
0
100
96
97
255
254
255
247
247
247
235
235
235
245
245
245
244
244
244
244
244
244
243
243
243
243
243
243
243
243
243
242
242
242
242
242
242
242
242
242
243
243
243
243
243
243
243
243
243
243
243
243
243
243
243
243
243
243
243
243
243
243
243
243
243
243
243
243
243
243
243
243
243
243
243
243
243
243
243
243
243
243
243
243
243
243
243
243
243
243
243
243
243
243
243
243
243
243
243
243
243
243
243
243
243
243
243
243
243
243
243
243
243
243
243
243
243
243
243
243
243
244
244
244
244
244
244
244
244
244
245
245
245
245
245
245
244
244
244
245
245
245
245
245
245
244
244
244
244
244
244
244
244
244
243
243
243
243
243
243
243
243
243
244
244
244
244
244
244
244
244
244
244
244
244
244
244
244
244
244
244
244
244
244
244
244
244
244
244
244
244
244
244
244
244
244
244
244
244
244
244
244
244
244
244
244
244
244
244
244
244
245
245
245
245
245
245
245
245
245
245
245
245
245
245
245
245
245
245
245
245
245
245
245
245
245
245
245
245
245
245
245
245
245
245
245
245
245
245
245
245
245
245
245
245
245
245
245
245
247
247
247
252
252
252
240
240
240
241
241
241
255
255
255
124
124
124
0
0
0
27
27
27
24
19
16
27
5
67
189
197
0
238
240
0
235
220
0
246
227
3
247
231
13
242
231
1
243
230
2
243
230
2
243
230
2
243
230
2
243
230
2
243
230
2
243
230
2
243
230
2
245
233
0
248
235
6
247
233
10
243
229
8
246
232
9
243
230
1
234
223
0
234
224
0
232
224
0
84
62
12
6
0
37
18
23
42
17
29
19
21
14
21
90
77
0
239
231
32
233
219
0
237
225
0
245
234
0
244
231
2
244
229
14
245
230
15
240
227
0
238
228
0
243
230
2
243
230
2
242
229
1
242
229
1
242
229
1
241
228
0
241
228
0
241
228
0
242
229
1
242
229
1
242
229
1
242
229
1
242
229
1
242
229
1
242
229
1
242
229
1
242
229
1
242
229
1
242
229
1
242
229
1
242
229
1
242
229
1
242
229
1
242
229
1
242
230
0
242
230
0
242
230
0
242
230
0
243
231
0
243
231
0
244
232
0
244
232
0
243
230
2
243
230
2
242
229
1
242
229
1
242
229
1
241
228
0
241
228
0
241
228
0
242
229
1
242
229
1
242
229
1
242
229
1
242
229
1
242
229
1
242
229
1
242
229
1
237
229
20
243
234
5
243
231
0
239
222
0
242
222
0
249
232
0
247
234
0
239
230
0
112
113
20
6
0
34
31
29
14
10
5
9
22
0
64
56
33
15
225
222
0
242
227
2
242
229
1
242
229
1
242
229
1
242
229
1
242
229
1
242
229
1
242
229
1
242
229
1
244
230
0
244
230
0
244
230
0
245
231
0
245
231
0
245
231
0
246
232
1
246
232
1
244
235
8
251
237
16
241
224
0
242
226
0
242
228
17
238
240
7
126
119
28
16
2
1
26
20
22
15
9
11
11
7
8
199
195
196
251
249
250
245
245
245
233
233
233
243
243
243
244
244
244
244
244
244
243
243
243
243
243
243
243
243
243
242
242
242
242
242
242
242
242
242
243
243
243
243
243
243
243
243
243
243
243
243
243
243
243
243
243
243
243
243
243
243
243
243
243
243
243
243
243
243
243
243
243
243
243
243
243
243
243
243
243
243
243
243
243
243
243
243
243
243
243
243
243
243
243
243
243
243
243
243
243
243
243
243
243
243
243
243
243
243
243
243
243
243
243
243
243
243
243
243
243
244
244
244
244
244
244
244
244
244
245
245
245
245
245
245
244
244
244
245
245
245
245
245
245
244
244
244
244
244
244
244
244
244
243
243
243
243
243
243
243
243
243
244
244
244
244
244
244
244
244
244
244
244
244
244
244
244
244
244
244
244
244
244
244
244
244
245
245
245
245
245
245
245
245
245
245
245
245
245
245
245
245
245
245
245
245
245
245
245
245
245
245
245
245
245
245
245
245
245
245
245
245
245
245
245
245
245
245
245
245
245
245
245
245
245
245
245
245
245
245
245
245
245
245
245
245
245
245
245
245
245
245
245
245
245
245
245
245
245
245
245
240
240
240
252
252
252
243
243
243
243
243
243
237
237
237
6
6
6
18
18
18
21
19
7
12
0
52
86
83
32
241
252
0
244
224
15
243
214
12
255
239
0
241
235
3
243
230
2
243
230
2
243
230
2
243
230
2
243
230
2
243
230
2
243
230
2
243
230
2
245
233
1
243
230
1
242
229
3
232
218
0
238
225
0
249
236
7
240
228
0
237
226
0
246
237
0
180
167
9
24
0
50
23
24
8
11
15
16
26
28
4
18
0
26
149
150
12
253
235
39
253
239
20
234
223
0
243
231
0
253
239
20
239
223
13
238
225
0
242
231
0
243
230
2
243
230
2
242
229
1
242
229
1
242
229
1
241
228
0
241
228
0
241
228
0
242
229
1
242
229
1
242
229
1
242
229
1
242
229
1
242
229
1
242
229
1
242
229
1
242
229
1
242
229
1
242
229
1
242
229
1
242
229
1
242
229
1
242
229
1
242
229
1
241
229
0
241
229
0
242
230
0
242
230
0
242
230
0
243
231
0
243
231
0
243
231
0
243
230
2
243
230
2
242
229
1
242
229
1
242
229
1
241
228
0
241
228
0
241
228
0
241
228
0
241
228
0
241
228
0
241
228
0
241
228
0
241
228
0
241
228
0
241
228
0
236
228
21
243
231
5
248
232
0
243
225
0
244
228
0
255
247
0
237
233
12
193
187
11
20
16
4
22
13
42
16
15
13
13
11
0
11
0
50
163
152
36
242
239
0
252
234
14
242
229
1
242
229
1
242
229
1
242
229
1
242
229
1
242
229
1
242
229
1
242
229
1
243
229
0
243
229
0
244
230
0
244
230
0
245
231
0
245
231
0
245
231
0
245
231
0
250
240
20
241
230
0
248
227
12
247
228
2
230
217
1
234
235
33
36
19
27
17
14
5
21
15
17
4
0
0
83
79
80
255
251
252
255
253
254
243
243
243
244
244
244
240
240
240
244
244
244
244
244
244
243
243
243
243
243
243
243
243
243
242
242
242
242
242
242
242
242
242
243
243
243
243
243
243
243
243
243
243
243
243
243
243
243
243
243
243
243
243
243
243
243
243
243
243
243
243
243
243
243
243
243
243
243
243
243
243
243
243
243
243
243
243
243
243
243
243
243
243
243
243
243
243
243
243
243
243
243
243
243
243
243
243
243
243
243
243
243
243
243
243
243
243
243
243
243
243
243
243
243
244
244
244
244
244
244
244
244
244
245
245
245
245
245
245
244
244
244
245
245
245
245
245
245
244
244
244
244
244
244
244
244
244
243
243
243
243
243
243
243
243
243
244
244
244
244
244
244
244
244
244
244
244
244
244
244
244
244
244
244
244
244
244
244
244
244
245
245
245
245
245
245
245
245
245
245
245
245
245
245
245
245
245
245
245
245
245
245
245
245
245
245
245
245
245
245
245
245
245
245
245
245
245
245
245
245
245
245
245
245
245
245
245
245
245
245
245
245
245
245
245
245
245
245
245
245
245
245
245
245
245
245
245
245
245
245
245
245
241
241
241
238
238
238
248
248
248
242
242
242
236
236
236
255
255
255
99
99
99
1
1
1
31
31
19
7
6
22
10
2
26
190
193
0
255
240
20
246
214
5
252
233
0
241
237
5
243
230
2
243
230
2
243
230
2
243
230
2
243
230
2
243
230
2
243
230
2
243
230
2
249
235
12
239
226
0
244
231
2
234
221
0
234
221
0
248
235
7
243
229
6
244
230
9
249
238
0
249
247
15
102
86
26
14
1
0
30
26
27
10
12
0
13
5
44
34
38
0
218
195
31
255
245
43
236
225
0
238
228
0
249
235
12
232
216
6
242
228
9
242
230
0
243
230
2
243
230
2
242
229
1
242
229
1
242
229
1
241
228
0
241
228
0
241
228
0
242
229
1
242
229
1
242
229
1
242
229
1
242
229
1
242
229
1
242
229
1
242
229
1
242
229
1
242
229
1
242
229
1
242
229
1
242
229
1
242
229
1
242
229
1
242
229
1
241
229
0
241
229
0
241
229
0
242
230
0
242
230
0
242
230
0
243
231
0
243
231
0
243
230
2
243
230
2
242
229
1
242
229
1
242
229
1
241
228
0
241
228
0
241
228
0
241
228
0
241
228
0
241
228
0
241
228
0
241
228
0
241
228
0
241
228
0
241
228
0
238
229
10
237
226
0
248
231
3
247
227
6
243
230
0
246
245
7
191
189
26
91
82
13
4
1
12
17
17
7
13
9
26
25
18
8
70
60
9
229
233
16
245
241
0
249
233
15
242
229
1
242
229
1
242
229
1
242
229
1
242
229
1
242
229
1
242
229
1
242
229
1
243
229
0
243
229
0
243
229
0
244
230
0
244
230
0
245
231
0
245
231
0
245
231
0
243
234
9
237
224
0
245
224
13
250
231
5
244
234
0
164
153
38
7
0
25
11
16
9
15
9
11
20
14
16
181
177
178
255
251
252
255
254
255
243
243
243
249
249
249
241
241
241
244
244
244
244
244
244
243
243
243
243
243
243
243
243
243
242
242
242
242
242
242
242
242
242
243
243
243
243
243
243
243
243
243
243
243
243
243
243
243
243
243
243
243
243
243
243
243
243
243
243
243
243
243
243
243
243
243
243
243
243
243
243
243
243
243
243
243
243
243
243
243
243
243
243
243
243
243
243
243
243
243
243
243
243
243
243
243
243
243
243
243
243
243
243
243
243
243
243
243
243
243
243
243
243
243
244
244
244
244
244
244
244
244
244
245
245
245
245
245
245
244
244
244
245
245
245
245
245
245
244
244
244
244
244
244
244
244
244
243
243
243
243
243
243
243
243
243
244
244
244
244
244
244
244
244
244
244
244
244
244
244
244
244
244
244
244
244
244
244
244
244
245
245
245
245
245
245
245
245
245
245
245
245
245
245
245
245
245
245
245
245
245
245
245
245
245
245
245
245
245
245
245
245
245
245
245
245
245
245
245
245
245
245
245
245
245
245
245
245
245
245
245
245
245
245
245
245
245
245
245
245
245
245
245
245
245
245
245
245
245
245
245
245
247
247
247
255
255
255
243
243
243
243
243
243
255
255
255
242
242
242
215
215
215
0
0
0
31
32
14
16
18
33
13
12
18
112
101
21
249
234
0
254
223
0
249
228
0
240
237
0
243
230
2
243
230
2
243
230
2
243
230
2
243
230
2
243
230
2
243
230
2
243
230
2
252
238
19
238
224
1
251
239
7
245
233
0
237
225
0
244
231
5
239
224
7
244
228
19
239
229
7
250
249
0
206
206
10
15
0
19
26
19
1
22
15
48
8
14
14
0
3
25
121
95
0
235
216
26
237
225
0
232
223
0
242
229
0
231
215
5
247
232
15
227
215
0
243
230
2
243
230
2
242
229
1
242
229
1
242
229
1
241
228
0
241
228
0
241
228
0
242
229
1
242
229
1
242
229
1
242
229
1
242
229
1
242
229
1
242
229
1
242
229
1
242
229
1
242
229
1
242
229
1
242
229
1
242
229
1
242
229
1
242
229
1
242
229
1
241
229
0
241
229
0
241
229
0
241
229
0
242
230
0
242
230
0
243
231
0
243
231
0
243
230
2
243
230
2
242
229
1
242
229
1
242
229
1
241
228
0
241
228
0
241
228
0
241
228
0
241
228
0
241
228
0
241
228
0
241
228
0
241
228
0
241
228
0
241
228
0
240
234
0
233
223
0
246
228
6
247
227
18
238
226
0
230
231
15
140
138
27
7
0
9
23
22
20
7
10
0
28
21
39
10
0
32
177
190
0
236
247
0
226
221
0
251
235
18
242
229
1
242
229
1
242
229
1
242
229
1
242
229
1
242
229
1
242
229
1
242
229
1
243
229
0
243
229
0
243
229
0
244
230
0
244
230
0
244
230
0
245
231
0
245
231
0
231
223
0
248
235
0
247
222
16
248
227
0
251
247
0
57
34
2
24
16
31
21
29
31
18
12
14
60
54
56
247
243
244
237
233
234
248
246
247
245
245
245
244
244
244
246
246
246
244
244
244
244
244
244
243
243
243
243
243
243
243
243
243
242
242
242
242
242
242
242
242
242
243
243
243
243
243
243
243
243
243
243
243
243
243
243
243
243
243
243
243
243
243
243
243
243
243
243
243
243
243
243
243
243
243
243
243
243
243
243
243
243
243
243
243
243
243
243
243
243
243
243
243
243
243
243
243
243
243
243
243
243
243
243
243
243
243
243
243
243
243
243
243
243
243
243
243
243
243
243
243
243
243
244
244
244
244
244
244
244
244
244
245
245
245
245
245
245
244
244
244
245
245
245
245
245
245
245
245
245
245
245
245
245
245
245
245
245
245
245
245
245
245
245
245
245
245
245
245
245
245
246
246
246
246
246
246
246
246
246
247
247
247
247
247
247
247
247
247
246
246
246
246
246
246
246
246
246
246
246
246
246
246
246
246
246
246
246
246
246
246
246
246
244
244
244
244
244
244
244
244
244
244
244
244
244
244
244
244
244
244
244
244
244
244
244
244
244
244
244
244
244
244
244
244
244
244
244
244
244
244
244
244
244
244
244
244
244
244
244
244
242
242
242
251
251
251
232
232
232
252
252
252
247
247
247
245
245
245
237
237
237
122
122
122
0
3
0
26
27
22
17
4
57
8
0
2
200
206
18
232
228
15
253
242
0
245
218
23
241
228
2
246
232
9
244
230
7
248
234
11
252
239
13
239
226
0
233
221
0
248
236
2
243
230
2
243
230
2
242
229
1
242
229
1
242
229
1
241
228
0
241
228
0
241
228
0
255
232
0
245
225
0
234
233
0
159
152
46
10
1
4
18
18
18
16
19
28
13
19
9
9
0
43
127
131
0
244
244
10
251
237
4
251
227
15
249
231
9
236
229
0
231
229
0
238
224
1
242
228
7
241
227
6
237
223
2
236
222
0
242
229
3
241
228
0
235
223
0
242
229
1
242
229
1
242
229
1
242
229
1
242
229
1
242
229
1
242
229
1
242
229
1
241
228
0
241
228
0
241
228
0
242
229
1
242
229
1
242
229
1
243
230
2
243
230
2
244
229
2
244
229
2
244
229
2
244
229
2
244
229
2
244
229
2
244
229
2
244
229
2
243
230
2
243
230
2
243
230
2
243
230
2
243
230
2
243
230
2
243
230
2
243
230
2
255
235
0
255
234
0
235
219
1
230
217
1
240
231
4
238
227
0
228
213
0
234
213
0
244
241
0
232
219
16
245
230
15
247
240
0
234
230
0
167
158
39
19
1
17
29
26
11
10
28
16
24
32
17
19
3
13
131
114
24
246
242
0
246
237
0
252
232
49
239
229
0
242
229
1
242
229
1
242
229
1
242
229
1
242
229
1
242
229
1
242
229
1
242
229
1
243
230
2
243
230
2
243
230
2
243
230
2
243
230
2
243
230
2
243
230
2
243
230
2
234
235
17
246
235
0
244
223
0
245
231
10
142
142
8
0
0
21
34
36
25
34
26
23
0
0
0
182
182
182
250
250
250
237
237
237
248
248
248
244
244
244
245
245
245
244
244
244
245
245
245
245
245
245
244
244
244
244
244
244
244
244
244
243
243
243
243
243
243
243
243
243
243
243
243
243
243
243
243
243
243
243
243
243
243
243
243
243
243
243
243
243
243
243
243
243
244
244
244
244
244
244
244
244
244
244
244
244
244
244
244
244
244
244
244
244
244
244
244
244
243
243
243
243
243
243
243
243
243
243
243
243
243
243
243
243
243
243
243
243
243
243
243
243
245
245
245
245
245
245
245
245
245
245
245
245
245
245
245
245
245
245
245
245
245
245
245
245
243
243
243
245
245
245
245
245
245
245
245
245
245
245
245
245
245
245
245
245
245
245
245
245
245
245
245
245
245
245
245
245
245
246
246
246
246
246
246
246
246
246
247
247
247
247
247
247
247
247
247
246
246
246
246
246
246
246
246
246
246
246
246
246
246
246
246
246
246
246
246
246
246
246
246
244
244
244
244
244
244
244
244
244
244
244
244
244
244
244
244
244
244
244
244
244
244
244
244
244
244
244
244
244
244
244
244
244
244
244
244
244
244
244
244
244
244
244
244
244
244
244
244
245
245
245
250
250
250
239
239
239
252
252
252
241
241
241
241
241
241
254
254
254
195
195
195
10
13
4
13
12
20
40
34
48
12
2
0
90
79
17
229
231
0
246
237
12
243
225
5
242
229
0
241
228
0
237
224
0
239
226
0
245
232
4
244
231
2
242
230
0
247
235
3
243
230
2
243
230
2
242
229
1
242
229
1
242
229
1
241
228
0
241
228
0
241
228
0
243
216
11
240
224
0
241
235
0
223
226
15
82
74
11
17
6
40
32
35
24
10
15
21
24
21
30
10
0
9
171
170
0
248
238
16
235
217
0
242
225
0
238
227
0
235
231
0
234
221
0
235
222
0
245
232
6
251
238
12
244
231
5
239
226
0
244
231
3
246
233
4
242
229
1
242
229
1
242
229
1
242
229
1
242
229
1
242
229
1
242
229
1
242
229
1
241
228
0
241
228
0
241
228
0
242
229
1
242
229
1
242
229
1
243
230
2
243
230
2
244
229
2
244
229
2
244
229
2
244
229
2
244
229
2
244
229
2
244
229
2
244
229
2
243
230
2
243
230
2
243
230
2
243
230
2
243
230
2
243
230
2
243
230
2
243
230
2
240
214
7
250
228
20
246
230
13
241
229
3
248
241
5
250
238
2
246
229
0
251
229
6
229
219
0
247
237
2
242
226
29
240
230
19
200
197
8
15
0
3
25
13
35
25
25
23
24
34
25
1
0
41
70
58
10
212
211
0
236
226
0
251
231
20
227
212
0
255
245
5
242
229
1
242
229
1
242
229
1
242
229
1
242
229
1
242
229
1
242
229
1
242
229
1
243
230
2
243
230
2
243
230
2
243
230
2
243
230
2
243
230
2
243
230
2
243
230
2
224
214
2
250
237
1
244
228
0
219
212
8
25
11
11
16
19
8
11
11
11
31
21
30
72
72
72
215
215
215
251
251
251
236
236
236
248
248
248
246
246
246
248
248
248
244
244
244
245
245
245
245
245
245
244
244
244
244
244
244
244
244
244
243
243
243
243
243
243
243
243
243
243
243
243
243
243
243
243
243
243
243
243
243
243
243
243
243
243
243
243
243
243
243
243
243
244
244
244
244
244
244
244
244
244
244
244
244
244
244
244
244
244
244
244
244
244
244
244
244
243
243
243
243
243
243
243
243
243
243
243
243
243
243
243
243
243
243
243
243
243
243
243
243
245
245
245
245
245
245
245
245
245
245
245
245
245
245
245
245
245
245
245
245
245
245
245
245
243
243
243
245
245
245
245
245
245
245
245
245
245
245
245
245
245
245
245
245
245
245
245
245
245
245
245
245
245
245
245
245
245
246
246
246
246
246
246
246
246
246
247
247
247
247
247
247
247
247
247
246
246
246
246
246
246
246
246
246
246
246
246
246
246
246
246
246
246
246
246
246
246
246
246
244
244
244
244
244
244
244
244
244
244
244
244
244
244
244
244
244
244
244
244
244
244
244
244
244
244
244
244
244
244
244
244
244
244
244
244
244
244
244
244
244
244
244
244
244
244
244
244
248
248
248
245
245
245
241
241
241
248
248
248
239
239
239
239
239
239
255
255
255
249
249
249
106
107
111
0
0
5
22
24
3
29
20
21
13
0
21
178
175
8
253
251
18
237
228
0
244
232
0
241
229
0
243
231
0
243
231
0
239
227
0
240
227
0
242
229
0
238
225
0
243
230
2
243
230
2
242
229
1
242
229
1
242
229
1
241
228
0
241
228
0
241
228
0
245
226
44
231
222
0
251
237
14
228
222
0
223
221
22
42
29
0
16
9
40
11
19
21
5
8
27
11
10
0
20
1
7
190
182
19
245
235
13
243
231
0
226
211
0
246
229
2
247
235
3
237
225
0
241
229
0
245
232
3
238
225
0
240
227
0
246
233
5
239
226
0
242
229
1
242
229
1
242
229
1
242
229
1
242
229
1
242
229
1
242
229
1
242
229
1
241
228
0
241
228
0
241
228
0
242
229
1
242
229
1
242
229
1
243
230
2
243
230
2
244
229
2
244
229
2
244
229
2
244
229
2
244
229
2
244
229
2
244
229
2
244
229
2
243
230
2
243
230
2
243
230
2
243
230
2
243
230
2
243
230
2
243
230
2
243
230
2
239
218
29
250
232
24
244
233
1
235
226
0
239
229
0
244
229
6
245
224
9
248
223
8
233
219
0
239
224
21
233
232
0
214
217
0
28
3
25
17
2
41
22
25
30
8
17
22
15
6
25
16
0
17
181
176
30
241
241
0
241
225
7
242
220
13
245
230
0
249
233
0
242
229
1
242
229
1
242
229
1
242
229
1
242
229
1
242
229
1
242
229
1
242
229
1
243
230
2
243
230
2
243
230
2
243
230
2
243
230
2
243
230
2
243
230
2
243
230
2
248
227
12
239
221
0
255
255
0
113
100
32
1
0
32
12
18
14
16
15
20
7
0
11
181
181
181
252
252
252
251
251
251
238
238
238
249
249
249
248
248
248
250
250
250
242
242
242
245
245
245
245
245
245
244
244
244
244
244
244
244
244
244
243
243
243
243
243
243
243
243
243
243
243
243
243
243
243
243
243
243
243
243
243
243
243
243
243
243
243
243
243
243
243
243
243
243
243
243
243
243
243
243
243
243
243
243
243
243
243
243
243
243
243
243
243
243
243
243
243
243
243
243
243
243
243
243
243
243
243
243
243
243
243
243
243
243
243
243
243
243
243
243
243
245
245
245
245
245
245
245
245
245
245
245
245
245
245
245
245
245
245
245
245
245
245
245
245
243
243
243
245
245
245
245
245
245
245
245
245
245
245
245
245
245
245
245
245
245
245
245
245
245
245
245
245
245
245
245
245
245
246
246
246
246
246
246
246
246
246
247
247
247
247
247
247
247
247
247
246
246
246
246
246
246
246
246
246
246
246
246
246
246
246
246
246
246
246
246
246
246
246
246
244
244
244
244
244
244
244
244
244
244
244
244
244
244
244
244
244
244
244
244
244
244
244
244
245
245
245
245
245
245
245
245
245
245
245
245
245
245
245
245
245
245
245
245
245
245
245
245
250
250
250
240
240
240
238
238
238
240
240
240
242
242
242
242
242
242
241
241
241
248
248
248
223
220
237
13
15
1
11
13
0
17
6
36
31
13
37
51
31
7
248
250
26
239
242
0
241
229
0
236
224
0
249
238
0
255
245
7
243
231
0
237
225
0
243
230
2
242
229
3
243
230
2
243
230
2
242
229
1
242
229
1
242
229
1
241
228
0
241
228
0
241
228
0
241
240
12
239
230
1
235
217
0
245
224
11
255
251
0
166
164
0
18
7
15
0
1
8
14
27
17
23
28
22
17
10
2
40
13
46
187
178
15
247
241
0
244
228
0
250
221
42
238
226
0
236
224
0
243
231
0
239
227
0
230
218
0
242
229
0
249
236
10
232
218
0
242
229
1
242
229
1
242
229
1
242
229
1
242
229
1
242
229
1
242
229
1
242
229
1
241
228
0
241
228
0
241
228
0
242
229
1
242
229
1
242
229
1
243
230
2
243
230
2
244
229
2
244
229
2
244
229
2
244
229
2
244
229
2
244
229
2
244
229
2
244
229
2
243
230
2
243
230
2
243
230
2
243
230
2
243
230
2
243
230
2
243
230
2
243
230
2
243
231
7
242
233
0
237
230
0
235
226
0
242
228
7
247
229
23
250
228
20
253
230
14
232
220
0
247
237
18
224
228
0
44
29
0
15
5
3
12
14
11
11
22
14
9
17
36
27
3
16
146
139
9
248
247
19
237
225
3
248
229
12
237
218
0
255
245
3
238
218
0
243
230
2
243
230
2
243
230
2
243
230
2
243
230
2
243
230
2
243
230
2
243
230
2
243
230
2
243
230
2
243
230
2
243
230
2
243
230
2
243
230
2
243
230
2
243
230
2
254
226
2
255
244
0
199
196
23
18
0
48
31
37
33
16
25
22
6
2
27
65
56
57
246
246
246
255
255
255
247
247
247
244
244
244
252
252
252
248
248
248
248
248
248
239
239
239
245
245
245
245
245
245
244
244
244
244
244
244
244
244
244
243
243
243
243
243
243
243
243
243
243
243
243
243
243
243
243
243
243
243
243
243
243
243
243
243
243
243
243
243
243
243
243
243
243
243
243
243
243
243
243
243
243
243
243
243
243
243
243
243
243
243
243
243
243
243
243
243
243
243
243
243
243
243
243
243
243
243
243
243
243
243
243
243
243
243
243
243
243
243
243
243
244
244
244
244
244
244
244
244
244
244
244
244
244
244
244
244
244
244
244
244
244
244
244
244
243
243
243
245
245
245
245
245
245
245
245
245
245
245
245
245
245
245
245
245
245
245
245
245
245
245
245
245
245
245
245
245
245
246
246
246
246
246
246
246
246
246
247
247
247
247
247
247
247
247
247
246
246
246
246
246
246
246
246
246
246
246
246
246
246
246
246
246
246
246
246
246
246
246
246
244
244
244
244
244
244
244
244
244
244
244
244
244
244
244
244
244
244
244
244
244
244
244
244
245
245
245
245
245
245
245
245
245
245
245
245
245
245
245
245
245
245
245
245
245
245
245
245
247
247
247
242
242
242
242
242
242
234
234
234
241
241
241
247
247
247
236
236
236
240
240
240
255
253
255
120
123
104
0
1
0
25
19
45
26
17
22
11
0
32
136
132
9
247
255
8
249
236
8
233
221
0
241
229
0
254
243
5
247
236
0
242
230
0
249
236
8
253
239
16
243
230
2
243
230
2
242
229
1
242
229
1
242
229
1
241
228
0
241
228
0
241
228
0
229
235
0
235
222
32
250
235
0
253
232
0
237
216
15
252
249
22
128
129
0
10
1
0
11
19
22
20
25
19
25
22
33
14
1
21
23
0
29
179
175
0
255
255
23
245
227
23
228
215
0
234
221
0
247
235
1
249
237
1
239
227
0
240
227
0
247
234
8
244
230
9
242
229
1
242
229
1
242
229
1
242
229
1
242
229
1
242
229
1
242
229
1
242
229
1
241
228
0
241
228
0
241
228
0
242
229
1
242
229
1
242
229
1
243
230
2
243
230
2
244
229
2
244
229
2
244
229
2
244
229
2
244
229
2
244
229
2
244
229
2
244
229
2
243
230
2
243
230
2
243
230
2
243
230
2
243
230
2
243
230
2
243
230
2
243
230
2
240
234
0
234
228
0
237
228
0
243
230
4
243
227
10
238
222
4
237
225
0
239
230
0
244
238
0
219
214
8
41
13
36
15
2
22
29
30
12
5
19
0
10
15
9
0
0
35
124
103
10
240
239
0
232
228
0
255
235
56
244
226
6
245
230
0
240
220
3
247
226
13
243
230
2
243
230
2
243
230
2
243
230
2
243
230
2
243
230
2
243
230
2
243
230
2
243
230
2
243
230
2
243
230
2
243
230
2
243
230
2
243
230
2
243
230
2
243
230
2
241
221
0
255
250
10
71
54
36
15
10
33
37
42
35
17
26
0
9
3
29
202
199
190
254
254
254
252
252
252
243
243
243
249
249
249
253
253
253
246
246
246
244
244
244
237
237
237
245
245
245
245
245
245
244
244
244
244
244
244
244
244
244
243
243
243
243
243
243
243
243
243
243
243
243
243
243
243
243
243
243
243
243
243
243
243
243
243
243
243
243
243
243
243
243
243
243
243
243
243
243
243
243
243
243
243
243
243
243
243
243
243
243
243
243
243
243
243
243
243
243
243
243
243
243
243
243
243
243
243
243
243
243
243
243
243
243
243
243
243
243
243
243
243
244
244
244
244
244
244
244
244
244
244
244
244
244
244
244
244
244
244
244
244
244
244
244
244
243
243
243
245
245
245
245
245
245
245
245
245
245
245
245
245
245
245
245
245
245
245
245
245
245
245
245
245
245
245
245
245
245
246
246
246
246
246
246
246
246
246
247
247
247
247
247
247
247
247
247
246
246
246
246
246
246
246
246
246
246
246
246
246
246
246
246
246
246
246
246
246
246
246
246
244
244
244
244
244
244
244
244
244
244
244
244
244
244
244
244
244
244
244
244
244
244
244
244
246
246
246
246
246
246
246
246
246
246
246
246
246
246
246
246
246
246
246
246
246
246
246
246
243
243
243
248
248
248
249
249
249
238
238
238
237
237
237
247
247
247
247
247
247
252
252
252
246
246
246
232
232
230
42
42
50
18
19
11
6
0
19
39
27
39
16
0
5
190
200
7
255
247
32
245
231
10
239
226
0
243
231
0
243
232
0
241
229
0
242
229
1
243
229
6
243
230
2
243
230
2
242
229
1
242
229
1
242
229
1
241
228
0
241
228
0
241
228
0
232
229
0
244
235
0
255
239
4
232
216
0
253
230
38
235
222
20
229
231
0
127
116
10
9
2
20
8
8
0
23
23
23
14
7
41
26
15
29
21
2
8
170
171
0
234
236
0
255
243
30
247
232
15
239
226
0
243
231
0
247
235
0
241
229
0
240
227
1
247
233
12
242
229
1
242
229
1
242
229
1
242
229
1
242
229
1
242
229
1
242
229
1
242
229
1
241
228
0
241
228
0
241
228
0
242
229
1
242
229
1
242
229
1
243
230
2
243
230
2
244
229
2
244
229
2
244
229
2
244
229
2
244
229
2
244
229
2
244
229
2
244
229
2
243
230
2
243
230
2
243
230
2
243
230
2
243
230
2
243
230
2
243
230
2
243
230
2
245
234
5
240
225
10
244
226
20
246
229
19
241
227
0
239
230
0
236
235
0
230
230
0
205
198
30
27
4
0
18
0
51
15
6
51
1
6
0
26
17
60
12
4
0
86
81
17
235
225
5
243
234
0
230
219
0
249
234
21
244
227
13
251
235
18
232
215
1
245
227
7
244
231
3
244
231
3
244
231
3
244
231
3
244
231
3
244
231
3
244
231
3
244
231
3
243
230
2
243
230
2
243
230
2
243
230
2
243
230
2
243
230
2
243
230
2
243
230
2
255
252
13
135
126
7
11
0
33
31
33
22
19
18
0
4
0
0
118
118
90
251
251
255
240
240
240
240
240
240
242
242
242
249
249
249
250
250
250
244
244
244
241
241
241
238
238
238
245
245
245
245
245
245
244
244
244
244
244
244
244
244
244
243
243
243
243
243
243
243
243
243
243
243
243
243
243
243
243
243
243
243
243
243
243
243
243
243
243
243
243
243
243
243
243
243
242
242
242
242
242
242
242
242
242
242
242
242
242
242
242
242
242
242
242
242
242
242
242
242
243
243
243
243
243
243
243
243
243
243
243
243
243
243
243
243
243
243
243
243
243
243
243
243
243
243
243
243
243
243
243
243
243
243
243
243
243
243
243
243
243
243
243
243
243
243
243
243
243
243
243
245
245
245
245
245
245
245
245
245
245
245
245
245
245
245
245
245
245
245
245
245
245
245
245
245
245
245
245
245
245
246
246
246
246
246
246
246
246
246
247
247
247
247
247
247
247
247
247
246
246
246
246
246
246
246
246
246
246
246
246
246
246
246
246
246
246
246
246
246
246
246
246
244
244
244
244
244
244
244
244
244
244
244
244
244
244
244
244
244
244
244
244
244
244
244
244
246
246
246
246
246
246
246
246
246
246
246
246
246
246
246
246
246
246
246
246
246
246
246
246
242
242
242
250
250
250
251
251
251
247
247
247
239
239
239
240
240
240
252
252
252
252
252
252
248
247
242
250
248
255
170
172
171
9
16
0
28
26
40
24
18
18
9
0
28
78
75
8
228
211
10
246
230
21
251
237
16
241
229
0
237
225
0
238
226
0
236
223
0
235
221
0
243
230
2
243
230
2
242
229
1
242
229
1
242
229
1
241
228
0
241
228
0
241
228
0
241
223
15
255
249
0
221
205
0
246
233
17
241
233
0
237
224
6
235
222
3
246
233
17
100
93
13
31
24
0
15
13
16
21
25
28
28
31
36
15
11
8
10
0
9
161
169
0
235
217
21
250
233
29
241
226
9
230
217
0
241
229
0
243
231
0
236
223
0
239
225
4
242
229
1
242
229
1
242
229
1
242
229
1
242
229
1
242
229
1
242
229
1
242
229
1
241
228
0
241
228
0
241
228
0
242
229
1
242
229
1
242
229
1
243
230
2
243
230
2
244
229
2
244
229
2
244
229
2
244
229
2
244
229
2
244
229
2
244
229
2
244
229
2
243
230
2
243
230
2
243
230
2
243
230
2
243
230
2
243
230
2
243
230
2
243
230
2
242
229
0
243
224
10
248
225
25
251
231
12
252
242
0
253
250
11
223
220
31
172
165
25
38
18
7
29
13
26
22
18
32
17
22
26
7
6
22
7
0
7
110
84
85
220
221
0
255
251
5
231
216
0
248
237
0
228
220
0
250
236
26
245
230
25
242
231
0
235
225
0
244
231
3
244
231
3
244
231
3
244
231
3
244
231
3
244
231
3
244
231
3
244
231
3
243
230
2
243
230
2
243
230
2
243
230
2
243
230
2
243
230
2
243
230
2
243
230
2
201
203
34
19
8
2
22
21
27
23
19
20
24
12
0
45
21
55
231
232
200
228
238
240
238
238
238
243
243
243
245
245
245
242
242
242
242
242
242
245
245
245
242
242
242
241
241
241
245
245
245
245
245
245
244
244
244
244
244
244
244
244
244
243
243
243
243
243
243
243
243
243
243
243
243
243
243
243
243
243
243
243
243
243
243
243
243
243
243
243
243
243
243
243
243
243
242
242
242
242
242
242
242
242
242
242
242
242
242
242
242
242
242
242
242
242
242
242
242
242
243
243
243
243
243
243
243
243
243
243
243
243
243
243
243
243
243
243
243
243
243
243
243
243
243
243
243
243
243
243
243
243
243
243
243
243
243
243
243
243
243
243
243
243
243
243
243
243
243
243
243
245
245
245
245
245
245
245
245
245
245
245
245
245
245
245
245
245
245
245
245
245
245
245
245
245
245
245
245
245
245
246
246
246
246
246
246
246
246
246
247
247
247
247
247
247
247
247
247
246
246
246
246
246
246
246
246
246
246
246
246
246
246
246
246
246
246
246
246
246
246
246
246
244
244
244
244
244
244
244
244
244
244
244
244
244
244
244
244
244
244
244
244
244
244
244
244
246
246
246
246
246
246
246
246
246
246
246
246
246
246
246
246
246
246
246
246
246
246
246
246
243
243
243
246
246
246
245
245
245
254
254
254
244
244
244
235
235
235
245
245
245
235
235
235
249
248
246
250
248
255
244
247
236
87
96
69
1
6
0
6
0
37
34
29
9
10
0
41
163
144
0
227
210
9
255
245
30
246
233
5
239
227
0
243
231
0
245
232
3
247
234
8
243
230
2
243
230
2
242
229
1
242
229
1
242
229
1
241
228
0
241
228
0
241
228
0
250
232
0
225
201
15
247
231
34
247
238
19
234
231
0
249
242
0
244
223
10
252
232
0
229
235
11
81
71
10
13
5
28
12
25
0
0
12
0
23
23
57
30
23
57
12
0
46
142
123
0
232
214
18
255
249
36
236
223
0
233
221
0
244
232
0
240
227
0
240
226
3
242
229
1
242
229
1
242
229
1
242
229
1
242
229
1
242
229
1
242
229
1
242
229
1
241
228
0
241
228
0
241
228
0
242
229
1
242
229
1
242
229
1
243
230
2
243
230
2
244
229
2
244
229
2
244
229
2
244
229
2
244
229
2
244
229
2
244
229
2
244
229
2
243
230
2
243
230
2
243
230
2
243
230
2
243
230
2
243
230
2
243
230
2
243
230
2
239
224
0
244
224
0
248
224
4
247
227
0
246
237
0
228
222
14
137
124
22
21
1
0
13
0
12
25
15
39
14
20
10
7
21
0
0
1
6
83
70
35
209
204
0
255
241
8
238
213
24
247
232
0
236
227
0
239
232
0
246
236
27
236
229
3
232
226
0
246
239
0
244
231
3
244
231
3
244
231
3
244
231
3
244
231
3
244
231
3
244
231
3
244
231
3
243
230
2
243
230
2
243
230
2
243
230
2
243
230
2
243
230
2
243
230
2
243
230
2
62
59
0
16
13
20
19
22
29
20
16
4
32
4
27
171
145
146
244
232
255
238
255
227
246
246
246
253
253
253
250
250
250
235
235
235
236
236
236
246
246
246
244
244
244
244
244
244
245
245
245
245
245
245
244
244
244
244
244
244
244
244
244
243
243
243
243
243
243
243
243
243
243
243
243
243
243
243
243
243
243
243
243
243
243
243
243
243
243
243
243
243
243
243
243
243
242
242
242
242
242
242
242
242
242
242
242
242
242
242
242
242
242
242
242
242
242
242
242
242
243
243
243
243
243
243
243
243
243
243
243
243
243
243
243
243
243
243
243
243
243
243
243
243
243
243
243
243
243
243
243
243
243
243
243
243
243
243
243
243
243
243
243
243
243
243
243
243
243
243
243
246
246
246
246
246
246
246
246
246
246
246
246
246
246
246
246
246
246
246
246
246
246
246
246
246
246
246
246
246
246
246
246
246
246
246
246
246
246
246
246
246
246
246
246
246
246
246
246
248
248
248
248
248
248
248
248
248
247
247
247
247
247
247
247
247
247
246
246
246
246
246
246
245
245
245
245
245
245
245
245
245
245
245
245
245
245
245
245
245
245
245
245
245
245
245
245
247
247
247
247
247
247
247
247
247
246
246
246
246
246
246
246
246
246
245
245
245
245
245
245
245
245
245
245
245
245
245
245
245
245
245
245
245
245
245
245
245
245
245
245
245
245
245
245
254
254
254
250
250
250
255
255
255
214
214
214
18
18
18
23
23
23
12
12
12
20
20
20
18
0
22
186
191
11
245
242
15
240
223
0
241
215
6
255
241
15
241
230
0
243
238
14
243
230
2
243
230
2
242
229
1
242
229
1
242
229
1
241
228
0
241
228
0
241
228
0
242
229
1
242
229
1
242
229
1
242
229
1
242
229
1
242
229
1
242
229
1
242
229
1
255
241
0
232
219
26
118
104
33
17
6
20
9
11
8
27
35
14
27
29
26
20
17
24
0
0
27
43
41
3
164
167
14
245
247
13
240
232
0
237
222
0
252
232
11
244
217
40
249
231
7
249
231
11
246
230
10
242
231
2
237
231
0
234
231
0
232
232
0
234
234
0
242
226
8
242
226
8
245
227
7
244
226
4
245
226
2
246
224
0
245
223
0
245
224
0
240
225
0
245
230
3
251
233
9
248
230
6
242
222
1
239
219
0
243
221
0
248
225
7
233
224
5
237
228
1
243
233
0
246
235
0
246
234
0
246
230
0
246
228
0
247
225
2
232
229
0
248
235
17
246
225
0
255
239
0
211
197
0
81
71
0
4
5
26
1
17
50
16
29
0
12
19
3
16
6
31
30
9
40
98
81
9
208
205
0
255
254
0
228
215
0
243
230
2
243
230
2
243
230
2
243
230
2
243
230
2
243
230
2
243
230
2
243
230
2
243
228
1
243
228
1
243
228
1
244
229
2
244
229
2
244
229
2
245
230
3
245
230
3
234
233
0
235
225
0
249
224
17
255
230
16
255
239
0
221
212
0
237
237
17
134
123
31
4
4
4
34
34
34
20
20
20
0
0
0
81
81
81
249
249
249
239
239
239
239
239
239
244
244
244
244
244
244
244
244
244
244
244
244
244
244
244
244
244
244
244
244
244
244
244
244
244
244
244
244
244
244
244
244
244
244
244
244
244
244
244
244
244
244
244
244
244
244
244
244
243
243
243
243
243
243
243
243
243
243
243
243
243
243
243
243
243
243
243
243
243
243
243
243
244
244
244
244
244
244
243
243
243
243
243
243
243
243
243
242
242
242
242
242
242
242
242
242
242
242
242
242
242
242
242
242
242
242
242
242
242
242
242
242
242
242
242
242
242
242
242
242
243
243
243
243
243
243
243
243
243
243
243
243
243
243
243
243
243
243
243
243
243
243
243
243
243
243
243
246
246
246
246
246
246
246
246
246
246
246
246
246
246
246
246
246
246
246
246
246
246
246
246
246
246
246
246
246
246
246
246
246
246
246
246
246
246
246
246
246
246
246
246
246
246
246
246
248
248
248
248
248
248
248
248
248
247
247
247
247
247
247
247
247
247
246
246
246
246
246
246
245
245
245
245
245
245
245
245
245
245
245
245
245
245
245
245
245
245
245
245
245
245
245
245
247
247
247
247
247
247
247
247
247
246
246
246
246
246
246
246
246
246
245
245
245
245
245
245
245
245
245
245
245
245
245
245
245
245
245
245
245
245
245
245
245
245
245
245
245
245
245
245
239
239
239
244
244
244
246
246
246
244
244
244
168
168
168
4
4
4
26
26
26
17
17
17
36
29
11
51
33
23
215
214
8
244
232
10
253
237
0
238
219
2
248
234
15
241
231
9
243
230
2
243
230
2
242
229
1
242
229
1
242
229
1
241
228
0
241
228
0
241
228
0
242
229
1
242
229
1
242
229
1
242
229
1
242
229
1
242
229
1
242
229
1
242
229
1
231
214
13
243
234
17
234
241
5
122
125
0
14
1
21
13
1
47
28
27
23
26
24
29
29
30
50
12
9
18
16
1
8
111
95
17
231
228
9
246
246
0
223
217
0
245
242
0
239
227
0
235
224
0
242
230
0
255
241
18
254
238
29
238
222
21
232
218
8
237
224
6
235
228
0
238
231
0
242
235
0
247
238
0
248
237
0
246
235
0
244
232
0
241
229
0
229
222
0
238
228
0
246
237
0
247
238
0
242
233
0
239
228
0
238
227
0
240
230
0
242
227
12
247
230
16
250
234
17
246
230
10
240
225
2
240
223
0
246
229
0
254
238
5
255
234
0
246
235
0
238
244
14
120
121
28
17
9
32
15
13
18
11
9
0
20
7
25
23
25
12
21
9
55
16
2
15
99
99
0
230
236
4
255
253
31
234
218
17
255
242
25
243
230
2
243
230
2
243
230
2
243
230
2
243
230
2
243
230
2
243
230
2
243
230
2
243
228
1
243
228
1
243
228
1
244
229
2
244
229
2
244
229
2
245
230
3
245
230
3
242
235
9
255
241
28
252
232
13
237
216
0
244
228
0
245
242
7
182
179
12
14
0
0
14
14
14
12
12
12
23
23
23
28
28
28
221
221
221
246
246
246
233
233
233
255
255
255
244
244
244
244
244
244
244
244
244
244
244
244
244
244
244
244
244
244
244
244
244
244
244
244
244
244
244
244
244
244
244
244
244
244
244
244
244
244
244
244
244
244
244
244
244
244
244
244
243
243
243
243
243
243
243
243
243
243
243
243
243
243
243
243
243
243
243
243
243
243
243
243
244
244
244
244
244
244
243
243
243
243
243
243
243
243
243
242
242
242
242
242
242
242
242
242
242
242
242
242
242
242
242
242
242
242
242
242
242
242
242
242
242
242
242
242
242
242
242
242
243
243
243
243
243
243
243
243
243
243
243
243
243
243
243
243
243
243
243
243
243
243
243
243
243
243
243
247
247
247
247
247
247
247
247
247
247
247
247
247
247
247
247
247
247
247
247
247
247
247
247
247
247
247
247
247
247
247
247
247
247
247
247
247
247
247
247
247
247
247
247
247
247
247
247
248
248
248
248
248
248
248
248
248
247
247
247
247
247
247
247
247
247
246
246
246
246
246
246
245
245
245
245
245
245
245
245
245
245
245
245
245
245
245
245
245
245
245
245
245
245
245
245
247
247
247
247
247
247
247
247
247
246
246
246
246
246
246
246
246
246
245
245
245
245
245
245
245
245
245
245
245
245
245
245
245
245
245
245
245
245
245
245
245
245
245
245
245
245
245
245
242
242
242
244
244
244
238
238
238
243
243
243
255
255
255
110
110
110
0
0
0
24
24
24
9
7
8
20
4
30
95
77
39
237
239
0
233
223
0
248
233
6
253
235
29
244
231
2
243
230
2
243
230
2
242
229
1
242
229
1
242
229
1
241
228
0
241
228
0
241
228
0
242
229
1
242
229
1
242
229
1
242
229
1
242
229
1
242
229
1
242
229
1
242
229
1
244
238
0
246
237
8
235
230
0
239
241
0
160
153
10
37
14
32
7
0
44
7
6
0
4
15
0
34
35
37
36
32
23
12
0
6
47
23
37
155
146
41
228
237
8
225
235
0
240
234
2
236
230
0
236
229
0
238
228
0
237
223
0
235
217
0
240
218
11
247
223
27
248
242
22
243
237
17
236
230
10
233
224
5
233
223
4
236
226
7
243
230
12
247
234
16
246
234
36
245
233
33
241
230
24
235
226
11
232
224
3
235
228
0
243
237
1
250
245
6
243
225
0
246
227
0
248
231
0
248
231
3
245
231
10
244
231
13
244
233
19
246
235
23
240
222
2
175
162
21
49
38
34
4
4
54
0
16
10
3
14
0
38
30
43
24
6
2
10
0
46
25
12
0
140
142
0
232
242
0
219
222
0
225
215
0
255
240
34
245
225
6
243
230
2
243
230
2
243
230
2
243
230
2
243
230
2
243
230
2
243
230
2
243
230
2
243
228
1
243
228
1
243
228
1
244
229
2
244
229
2
244
229
2
245
230
3
245
230
3
243
227
7
237
214
20
255
243
0
253
237
17
242
239
0
203
203
11
21
0
21
31
20
16
29
29
29
24
24
24
0
0
0
184
184
184
251
251
251
234
234
234
251
251
251
246
246
246
243
243
243
243
243
243
243
243
243
243
243
243
243
243
243
243
243
243
243
243
243
243
243
243
243
243
243
243
243
243
243
243
243
243
243
243
243
243
243
243
243
243
243
243
243
243
243
243
243
243
243
243
243
243
243
243
243
243
243
243
243
243
243
243
243
243
243
243
243
243
243
243
244
244
244
244
244
244
243
243
243
243
243
243
243
243
243
242
242
242
242
242
242
242
242
242
242
242
242
242
242
242
242
242
242
242
242
242
242
242
242
242
242
242
242
242
242
242
242
242
243
243
243
243
243
243
243
243
243
243
243
243
243
243
243
243
243
243
243
243
243
243
243
243
243
243
243
247
247
247
247
247
247
247
247
247
247
247
247
247
247
247
247
247
247
247
247
247
247
247
247
247
247
247
247
247
247
247
247
247
247
247
247
247
247
247
247
247
247
247
247
247
247
247
247
248
248
248
248
248
248
248
248
248
247
247
247
247
247
247
247
247
247
246
246
246
246
246
246
246
246
246
246
246
246
246
246
246
246
246
246
246
246
246
246
246
246
246
246
246
246
246
246
247
247
247
247
247
247
247
247
247
246
246
246
246
246
246
246
246
246
245
245
245
245
245
245
245
245
245
245
245
245
245
245
245
245
245
245
245
245
245
245
245
245
245
245
245
245
245
245
255
255
255
237
237
237
242
242
242
237
237
237
244
244
244
240
240
240
50
50
50
3
3
3
22
20
42
28
22
32
10
0
9
134
125
20
244
248
1
236
225
13
238
225
0
253
238
0
243
230
2
243
230
2
242
229
1
242
229
1
242
229
1
241
228
0
241
228
0
241
228
0
242
229
1
242
229
1
242
229
1
242
229
1
242
229
1
242
229
1
242
229
1
242
229
1
249
248
0
230
223
0
248
231
1
246
228
6
247
236
4
192
183
30
66
53
9
14
6
0
13
20
13
11
18
2
8
10
0
24
20
17
31
18
46
10
0
44
49
41
20
144
157
7
211
219
0
234
237
0
247
242
26
239
230
15
239
226
0
253
237
4
255
236
11
249
224
10
232
224
0
233
225
0
238
227
0
240
229
0
244
232
0
246
232
1
247
233
2
248
234
3
238
227
0
239
230
0
241
231
0
242
230
0
241
229
5
241
228
12
242
227
20
241
228
25
252
228
6
247
226
0
244
229
0
248
239
0
248
243
3
238
234
13
214
210
14
196
191
11
63
59
14
11
0
16
26
19
27
34
35
21
12
9
28
20
18
29
18
20
6
0
0
14
65
37
33
179
173
23
234
241
0
229
227
0
241
230
26
239
226
0
230
216
0
252
234
4
243
230
2
243
230
2
243
230
2
243
230
2
243
230
2
243
230
2
243
230
2
243
230
2
243
228
1
243
228
1
243
228
1
244
229
2
244
229
2
244
229
2
245
230
3
245
230
3
249
226
10
255
248
0
240
222
28
237
237
0
233
242
3
72
55
39
13
0
45
27
23
22
28
28
28
0
0
0
120
120
120
248
248
248
233
233
233
238
238
238
238
238
238
242
242
242
243
243
243
243
243
243
243
243
243
243
243
243
243
243
243
243
243
243
243
243
243
243
243
243
243
243
243
243
243
243
243
243
243
243
243
243
243
243
243
243
243
243
243
243
243
243
243
243
243
243
243
243
243
243
243
243
243
243
243
243
243
243
243
243
243
243
243
243
243
243
243
243
244
244
244
244
244
244
243
243
243
243
243
243
243
243
243
242
242
242
242
242
242
242
242
242
242
242
242
242
242
242
242
242
242
242
242
242
242
242
242
242
242
242
242
242
242
242
242
242
243
243
243
243
243
243
243
243
243
243
243
243
243
243
243
243
243
243
243
243
243
243
243
243
243
243
243
247
247
247
247
247
247
247
247
247
247
247
247
247
247
247
247
247
247
247
247
247
247
247
247
247
247
247
247
247
247
247
247
247
247
247
247
247
247
247
247
247
247
247
247
247
247
247
247
248
248
248
248
248
248
248
248
248
247
247
247
247
247
247
247
247
247
246
246
246
246
246
246
246
246
246
246
246
246
246
246
246
246
246
246
246
246
246
246
246
246
246
246
246
246
246
246
247
247
247
247
247
247
247
247
247
246
246
246
246
246
246
246
246
246
245
245
245
245
245
245
245
245
245
245
245
245
245
245
245
245
245
245
245
245
245
245
245
245
245
245
245
245
245
245
250
250
250
236
236
236
244
244
244
251
251
251
234
234
234
253
253
253
203
203
203
18
18
18
21
24
33
14
15
19
37
36
16
10
0
11
159
155
30
234
238
0
250
243
5
230
219
0
243
230
2
243
230
2
242
229
1
242
229
1
242
229
1
241
228
0
241
228
0
241
228
0
242
229
1
242
229
1
242
229
1
242
229
1
242
229
1
242
229
1
242
229
1
242
229
1
234
225
8
246
231
14
244
226
0
255
234
0
243
221
14
244
237
9
230
233
28
120
115
11
4
0
23
20
17
10
30
25
32
21
14
47
17
16
12
20
24
0
14
14
6
4
0
26
47
21
46
125
112
44
204
205
23
232
239
0
231
232
0
233
226
0
236
223
0
234
221
0
248
235
9
247
232
5
245
230
3
244
227
0
243
227
0
244
226
0
247
227
0
247
227
0
255
238
15
255
235
12
252
233
7
249
230
4
247
230
2
245
231
2
244
232
0
243
231
0
241
223
15
245
232
4
247
243
0
240
239
0
205
203
4
138
130
6
58
40
0
14
0
4
0
0
12
13
15
1
25
24
32
18
15
32
27
28
14
11
4
11
14
1
18
94
90
43
221
216
3
233
224
23
249
237
37
241
230
16
228
217
0
245
232
0
255
242
9
242
225
0
243
230
2
243
230
2
243
230
2
243
230
2
243
230
2
243
230
2
243
230
2
243
230
2
243
228
1
243
228
1
243
228
1
244
229
2
244
229
2
244
229
2
245
230
3
245
230
3
248
230
0
252
238
7
229
224
0
220
230
0
105
99
21
15
0
53
40
41
23
20
18
29
0
0
0
62
62
62
231
231
231
236
236
236
253
253
253
240
240
240
229
229
229
244
244
244
243
243
243
243
243
243
243
243
243
243
243
243
243
243
243
243
243
243
243
243
243
243
243
243
243
243
243
243
243
243
243
243
243
243
243
243
243
243
243
243
243
243
243
243
243
243
243
243
243
243
243
243
243
243
243
243
243
243
243
243
243
243
243
243
243
243
243
243
243
243
243
243
244
244
244
244
244
244
243
243
243
243
243
243
243
243
243
242
242
242
242
242
242
242
242
242
242
242
242
242
242
242
242
242
242
242
242
242
242
242
242
242
242
242
242
242
242
242
242
242
243
243
243
243
243
243
243
243
243
243
243
243
243
243
243
243
243
243
243
243
243
243
243
243
243
243
243
248
248
248
248
248
248
248
248
248
248
248
248
248
248
248
248
248
248
248
248
248
248
248
248
248
248
248
248
248
248
248
248
248
248
248
248
248
248
248
248
248
248
248
248
248
248
248
248
248
248
248
248
248
248
248
248
248
247
247
247
247
247
247
247
247
247
246
246
246
246
246
246
247
247
247
247
247
247
247
247
247
247
247
247
247
247
247
247
247
247
247
247
247
247
247
247
247
247
247
247
247
247
247
247
247
246
246
246
246
246
246
246
246
246
245
245
245
245
245
245
245
245
245
245
245
245
245
245
245
245
245
245
245
245
245
245
245
245
245
245
245
245
245
245
237
237
237
255
255
255
242
242
242
247
247
247
244
244
244
237
237
237
255
255
255
148
148
148
8
8
6
21
27
1
13
15
14
40
37
46
8
0
16
190
194
11
243
244
2
242
229
11
243
230
2
243
230
2
242
229
1
242
229
1
242
229
1
241
228
0
241
228
0
241
228
0
242
229
1
242
229
1
242
229
1
242
229
1
242
229
1
242
229
1
242
229
1
242
229
1
254
239
26
227
208
7
249
227
19
244
225
0
235
222
0
246
238
0
234
232
0
248
246
24
201
204
37
54
38
12
10
0
19
30
20
28
22
16
26
21
20
16
32
33
15
10
3
19
19
9
8
8
0
23
15
0
35
61
44
28
128
121
5
187
189
0
225
226
10
242
239
36
240
231
14
240
231
12
241
231
9
243
232
3
243
233
0
244
233
0
243
232
0
244
232
0
242
223
6
240
221
4
238
222
2
240
226
3
242
233
4
244
238
6
241
238
3
237
235
0
242
245
14
202
201
15
139
129
18
75
57
19
31
11
22
15
0
26
24
10
35
35
24
40
40
23
15
35
28
36
0
6
0
0
16
6
6
7
53
42
32
23
177
165
19
255
245
21
247
238
0
242
229
3
247
231
21
246
234
0
232
221
0
231
216
1
242
226
17
248
235
6
243
230
2
243
230
2
243
230
2
243
230
2
243
230
2
243
230
2
243
230
2
243
230
2
243
228
1
243
228
1
243
228
1
244
229
2
244
229
2
244
229
2
245
230
3
245
230
3
248
233
0
238
225
25
227
238
0
123
121
21
4
0
37
28
29
11
8
9
4
18
18
8
28
28
28
207
207
207
238
238
238
251
251
251
238
238
238
241
241
241
246
246
246
236
236
236
242
242
242
242
242
242
242
242
242
242
242
242
242
242
242
242
242
242
242
242
242
242
242
242
242
242
242
242
242
242
242
242
242
242
242
242
242
242
242
242
242
242
242
242
242
242
242
242
243
243
243
243
243
243
243
243
243
243
243
243
243
243
243
243
243
243
243
243
243
243
243
243
244
244
244
244
244
244
243
243
243
243
243
243
243
243
243
242
242
242
242
242
242
242
242
242
242
242
242
242
242
242
242
242
242
242
242
242
242
242
242
242
242
242
242
242
242
242
242
242
243
243
243
243
243
243
243
243
243
243
243
243
243
243
243
243
243
243
243
243
243
243
243
243
243
243
243
248
248
248
248
248
248
248
248
248
248
248
248
248
248
248
248
248
248
248
248
248
248
248
248
248
248
248
248
248
248
248
248
248
248
248
248
248
248
248
248
248
248
248
248
248
248
248
248
248
248
248
248
248
248
248
248
248
247
247
247
247
247
247
247
247
247
246
246
246
246
246
246
247
247
247
247
247
247
247
247
247
247
247
247
247
247
247
247
247
247
247
247
247
247
247
247
247
247
247
247
247
247
247
247
247
246
246
246
246
246
246
246
246
246
245
245
245
245
245
245
245
245
245
245
245
245
245
245
245
245
245
245
245
245
245
245
245
245
245
245
245
245
245
245
244
244
244
255
255
255
245
245
245
233
233
233
247
247
247
247
247
247
232
232
232
255
255
255
131
128
123
0
1
0
21
26
20
17
19
42
35
32
39
11
0
0
179
181
0
249
239
53
243
230
2
243
230
2
242
229
1
242
229
1
242
229
1
241
228
0
241
228
0
241
228
0
242
229
1
242
229
1
242
229
1
242
229
1
242
229
1
242
229
1
242
229
1
242
229
1
239
214
10
255
251
0
232
216
6
225
208
34
245
241
0
232
228
0
234
223
0
247
231
13
241
236
0
245
246
5
158
151
21
42
26
11
7
0
0
18
8
17
21
9
31
25
19
7
16
18
13
12
16
0
11
15
0
12
7
3
7
0
25
10
0
23
32
19
2
68
61
0
148
148
0
162
162
2
184
186
17
207
207
31
220
220
34
222
224
29
219
220
18
214
216
9
228
230
0
223
226
0
217
218
2
206
207
17
189
187
25
159
157
22
125
122
7
102
99
0
11
0
15
19
3
16
22
12
13
22
15
7
15
13
1
12
13
5
17
19
16
21
25
28
31
19
31
18
17
0
19
18
16
21
14
30
123
125
26
237
244
8
246
235
0
255
239
0
232
210
3
248
233
0
242
231
0
237
227
0
251
237
24
250
238
28
238
228
6
238
232
0
243
230
2
243
230
2
243
230
2
243
230
2
243
230
2
243
230
2
243
230
2
243
230
2
243
228
1
243
228
1
243
228
1
244
229
2
244
229
2
244
229
2
245
230
3
245
230
3
254
239
24
245
243
10
147
141
27
6
0
4
23
23
33
13
16
5
24
26
15
11
7
6
172
172
172
233
233
233
255
255
255
239
239
239
230
230
230
246
246
246
247
247
247
236
236
236
242
242
242
242
242
242
242
242
242
242
242
242
242
242
242
242
242
242
242
242
242
242
242
242
242
242
242
242
242
242
242
242
242
242
242
242
242
242
242
242
242
242
242
242
242
242
242
242
243
243
243
243
243
243
243
243
243
243
243
243
243
243
243
243
243
243
243
243
243
243
243
243
244
244
244
244
244
244
243
243
243
243
243
243
243
243
243
242
242
242
242
242
242
242
242
242
242
242
242
242
242
242
242
242
242
242
242
242
242
242
242
242
242
242
242
242
242
242
242
242
243
243
243
243
243
243
243
243
243
243
243
243
243
243
243
243
243
243
243
243
243
243
243
243
243
243
243
248
248
248
248
248
248
248
248
248
248
248
248
248
248
248
248
248
248
248
248
248
248
248
248
248
248
248
248
248
248
248
248
248
248
248
248
248
248
248
248
248
248
248
248
248
248
248
248
248
248
248
248
248
248
248
248
248
247
247
247
247
247
247
247
247
247
246
246
246
246
246
246
247
247
247
247
247
247
247
247
247
247
247
247
247
247
247
247
247
247
247
247
247
247
247
247
247
247
247
247
247
247
247
247
247
246
246
246
246
246
246
246
246
246
245
245
245
245
245
245
245
245
245
245
245
245
245
245
245
245
245
245
245
245
245
245
245
245
245
245
245
245
245
245
255
255
255
219
219
219
253
253
253
241
241
241
250
250
250
239
239
239
249
249
249
249
249
249
255
246
247
84
81
92
0
2
11
5
16
12
8
9
29
30
16
39
34
12
0
213
213
0
243
230
2
243
230
2
242
229
1
242
229
1
242
229
1
241
228
0
241
228
0
241
228
0
242
229
1
242
229
1
242
229
1
242
229
1
242
229
1
242
229
1
242
229
1
242
229
1
245
221
0
241
218
18
248
237
21
242
245
0
234
234
0
236
225
22
241
222
8
250
226
0
242
225
0
244
232
0
239
243
0
215
225
14
143
145
38
49
40
23
8
0
19
11
0
44
16
20
29
15
18
33
16
18
33
22
23
25
27
29
16
26
26
18
23
16
32
19
7
47
7
0
28
6
0
23
7
0
16
7
0
5
16
5
3
35
23
11
54
43
21
67
55
29
58
37
34
42
22
23
23
4
8
10
0
4
7
0
9
8
0
18
10
2
25
8
3
26
19
17
20
20
18
29
20
19
37
17
17
43
14
16
39
10
16
28
9
19
18
9
21
11
0
5
29
22
24
37
115
106
27
228
216
10
255
237
0
241
221
0
246
234
10
227
226
0
241
217
7
239
219
0
241
223
0
235
221
0
231
219
0
239
233
0
245
242
5
236
234
0
243
230
2
243
230
2
243
230
2
243
230
2
243
230
2
243
230
2
243
230
2
243
230
2
243
228
1
243
228
1
243
228
1
244
229
2
244
229
2
244
229
2
245
230
3
245
230
3
249
244
0
154
142
0
22
4
2
27
23
40
16
25
8
19
25
15
1
0
0
155
144
158
243
243
243
247
247
247
233
233
233
251
251
251
253
253
253
236
236
236
254
254
254
238
238
238
242
242
242
242
242
242
242
242
242
242
242
242
242
242
242
242
242
242
242
242
242
242
242
242
242
242
242
242
242
242
242
242
242
242
242
242
242
242
242
242
242
242
242
242
242
242
242
242
243
243
243
243
243
243
243
243
243
243
243
243
243
243
243
243
243
243
243
243
243
243
243
243
244
244
244
244
244
244
243
243
243
243
243
243
243
243
243
242
242
242
242
242
242
242
242
242
242
242
242
242
242
242
242
242
242
242
242
242
242
242
242
242
242
242
242
242
242
242
242
242
243
243
243
243
243
243
243
243
243
243
243
243
243
243
243
243
243
243
243
243
243
243
243
243
243
243
243
248
248
248
248
248
248
248
248
248
248
248
248
248
248
248
248
248
248
248
248
248
248
248
248
248
248
248
248
248
248
248
248
248
248
248
248
248
248
248
248
248
248
248
248
248
248
248
248
249
249
249
249
249
249
249
249
249
248
248
248
248
248
248
248
248
248
247
247
247
247
247
247
246
246
246
246
246
246
246
246
246
246
246
246
246
246
246
246
246
246
246
246
246
246
246
246
248
248
248
248
248
248
248
248
248
247
247
247
247
247
247
247
247
247
246
246
246
246
246
246
246
246
246
246
246
246
246
246
246
245
245
245
245
245
245
244
244
244
244
244
244
244
244
244
244
244
244
244
244
244
244
244
244
244
244
244
244
244
244
244
244
244
244
244
244
244
244
244
250
248
249
237
235
236
70
68
69
8
6
7
35
33
34
29
27
28
5
3
4
31
29
30
215
209
9
243
233
37
248
235
7
245
229
0
255
237
11
237
225
0
235
225
0
239
229
18
238
225
0
243
230
2
247
234
6
245
232
4
239
226
0
237
224
0
241
228
0
246
233
5
242
229
1
242
229
1
242
229
1
242
229
1
242
229
1
242
229
1
242
229
1
242
229
1
248
228
9
250
232
2
246
232
0
243
231
0
248
236
10
229
214
25
163
143
0
93
68
0
14
2
12
15
5
13
17
11
13
19
18
14
20
22
17
19
25
21
17
26
25
17
27
28
17
15
16
20
18
19
23
21
22
25
23
26
24
22
27
20
17
24
15
12
19
12
9
16
14
4
28
16
7
26
20
12
27
23
16
23
24
19
16
23
19
10
22
19
4
21
18
0
11
23
13
15
25
17
18
23
19
12
12
14
6
0
7
12
0
12
30
13
31
46
27
46
171
153
0
218
201
0
254
239
22
251
238
9
240
228
0
241
229
0
241
228
0
234
220
0
241
228
0
241
228
0
241
228
0
242
229
1
242
229
1
242
229
1
243
230
2
243
230
2
243
230
2
243
230
2
243
230
2
243
230
2
243
230
2
243
230
2
243
230
2
243
230
2
235
234
0
232
227
0
248
231
17
244
222
1
243
225
0
253
236
0
245
231
10
247
242
0
139
144
103
13
16
0
21
22
6
35
34
32
8
6
11
2
0
5
127
126
124
243
242
237
243
243
243
243
243
243
243
243
243
243
243
243
243
243
243
243
243
243
243
243
243
243
243
243
244
244
244
244
244
244
243
243
243
243
243
243
243
243
243
242
242
242
242
242
242
242
242
242
242
242
242
242
242
242
242
242
242
243
243
243
243
243
243
243
243
243
244
244
244
244
244
244
242
242
242
242
242
242
242
242
242
242
242
242
242
242
242
242
242
242
242
242
242
242
242
242
243
243
243
243
243
243
243
243
243
243
243
243
243
243
243
243
243
243
243
243
243
243
243
243
243
243
243
243
243
243
243
243
243
243
243
243
243
243
243
243
243
243
243
243
243
243
243
243
242
242
242
242
242
242
242
242
242
243
243
243
243
243
243
243
243
243
244
244
244
244
244
244
244
244
244
248
248
248
248
248
248
248
248
248
248
248
248
248
248
248
248
248
248
248
248
248
248
248
248
248
248
248
248
248
248
248
248
248
248
248
248
248
248
248
248
248
248
248
248
248
248
248
248
250
250
250
249
249
249
249
249
249
249
249
249
248
248
248
248
248
248
248
248
248
247
247
247
246
246
246
246
246
246
246
246
246
246
246
246
246
246
246
246
246
246
246
246
246
246
246
246
248
248
248
248
248
248
248
248
248
247
247
247
247
247
247
247
247
247
246
246
246
246
246
246
246
246
246
246
246
246
246
246
246
245
245
245
245
245
245
244
244
244
244
244
244
244
244
244
244
244
244
244
244
244
244
244
244
244
244
244
244
244
244
244
244
244
244
244
244
244
244
244
237
235
236
250
248
249
226
224
225
25
23
24
18
16
17
29
27
28
6
4
5
9
7
8
53
28
8
208
207
18
239
236
1
239
228
0
238
223
0
252
231
26
251
235
18
236
225
0
240
227
0
242
229
1
244
231
3
243
230
2
241
228
0
240
227
0
241
228
0
243
230
2
242
229
1
242
229
1
242
229
1
242
229
1
242
229
1
242
229
1
242
229
1
242
229
1
237
216
3
249
231
7
254
238
2
245
233
0
242
232
0
244
233
17
238
223
32
225
209
35
186
189
48
122
119
26
45
33
9
8
0
27
13
0
50
24
12
50
19
15
12
4
8
0
17
17
15
15
15
13
14
14
12
14
15
10
15
16
11
17
18
12
20
21
15
22
23
17
26
29
2
27
29
5
27
28
10
26
26
16
23
22
20
19
16
23
15
11
25
12
8
23
17
18
4
10
5
12
6
0
27
8
0
23
35
22
5
99
94
0
176
184
0
229
245
0
236
219
17
245
229
19
246
232
9
237
225
0
236
224
0
246
234
2
248
235
9
241
227
6
241
228
0
241
228
0
241
228
0
242
229
1
242
229
1
242
229
1
243
230
2
243
230
2
243
230
2
243
230
2
243
230
2
243
230
2
243
230
2
243
230
2
243
230
2
243
230
2
238
229
0
253
234
43
235
216
0
251
237
0
244
229
6
237
227
8
244
239
26
163
152
0
21
24
0
12
14
0
19
19
9
8
6
9
15
12
19
93
91
96
252
251
249
236
235
230
243
243
243
243
243
243
243
243
243
243
243
243
243
243
243
243
243
243
243
243
243
243
243
243
244
244
244
244
244
244
243
243
243
243
243
243
243
243
243
242
242
242
242
242
242
242
242
242
242
242
242
242
242
242
242
242
242
243
243
243
243
243
243
243
243
243
244
244
244
244
244
244
242
242
242
242
242
242
242
242
242
242
242
242
242
242
242
242
242
242
242
242
242
242
242
242
243
243
243
243
243
243
243
243
243
243
243
243
243
243
243
243
243
243
243
243
243
243
243
243
243
243
243
243
243
243
243
243
243
243
243
243
243
243
243
243
243
243
243
243
243
243
243
243
242
242
242
242
242
242
242
242
242
243
243
243
243
243
243
243
243
243
244
244
244
244
244
244
244
244
244
249
249
249
249
249
249
249
249
249
249
249
249
249
249
249
249
249
249
249
249
249
249
249
249
249
249
249
249
249
249
249
249
249
249
249
249
249
249
249
249
249
249
249
249
249
249
249
249
250
250
250
250
250
250
249
249
249
249
249
249
249
249
249
248
248
248
248
248
248
248
248
248
247
247
247
247
247
247
247
247
247
247
247
247
247
247
247
247
247
247
247
247
247
247
247
247
248
248
248
248
248
248
248
248
248
247
247
247
247
247
247
247
247
247
246
246
246
246
246
246
246
246
246
246
246
246
246
246
246
245
245
245
245
245
245
244
244
244
244
244
244
244
244
244
244
244
244
244
244
244
244
244
244
244
244
244
244
244
244
244
244
244
244
244
244
244
244
244
247
245
246
255
254
255
242
240
241
218
216
217
33
31
32
12
10
11
25
23
24
21
19
20
13
0
7
31
11
23
175
174
8
237
240
0
240
229
0
228
209
0
252
227
21
243
225
0
243
230
2
241
228
0
239
226
0
240
227
0
242
229
1
243
230
2
242
229
1
240
227
0
242
229
1
242
229
1
242
229
1
242
229
1
242
229
1
242
229
1
242
229
1
242
229
1
245
225
16
246
227
11
243
228
1
237
225
0
235
224
0
238
229
0
243
236
0
249
242
6
231
236
0
242
247
0
243
248
6
211
215
4
154
149
3
91
75
13
46
19
36
24
0
59
12
0
50
11
0
47
10
0
41
10
0
34
12
4
28
15
8
24
18
12
22
20
15
21
30
22
35
23
15
30
12
3
22
4
0
18
4
0
23
7
0
30
14
2
40
19
7
47
36
17
13
80
65
22
145
137
30
200
198
25
233
234
16
245
245
7
247
246
8
247
243
11
255
249
30
254
240
17
243
231
0
240
229
0
245
234
0
250
238
6
245
232
6
238
224
5
241
228
0
241
228
0
241
228
0
242
229
1
242
229
1
242
229
1
243
230
2
243
230
2
243
230
2
243
230
2
243
230
2
243
230
2
243
230
2
243
230
2
243
230
2
243
230
2
255
230
35
255
238
2
247
230
2
233
216
14
224
221
0
224
233
0
153
151
16
22
3
7
8
9
0
21
21
11
9
8
6
9
6
13
83
80
87
251
249
254
252
251
249
248
248
240
243
243
243
243
243
243
243
243
243
243
243
243
243
243
243
243
243
243
243
243
243
243
243
243
244
244
244
244
244
244
243
243
243
243
243
243
243
243
243
242
242
242
242
242
242
242
242
242
242
242
242
242
242
242
242
242
242
243
243
243
243
243
243
243
243
243
244
244
244
244
244
244
242
242
242
242
242
242
242
242
242
242
242
242
242
242
242
242
242
242
242
242
242
242
242
242
243
243
243
243
243
243
243
243
243
243
243
243
243
243
243
243
243
243
243
243
243
243
243
243
243
243
243
243
243
243
243
243
243
243
243
243
243
243
243
243
243
243
243
243
243
243
243
243
242
242
242
242
242
242
242
242
242
243
243
243
243
243
243
243
243
243
244
244
244
244
244
244
243
243
243
249
249
249
249
249
249
249
249
249
249
249
249
249
249
249
249
249
249
249
249
249
249
249
249
249
249
249
249
249
249
249
249
249
249
249
249
249
249
249
249
249
249
249
249
249
249
249
249
250
250
250
250
250
250
250
250
250
249
249
249
249
249
249
249
249
249
248
248
248
248
248
248
247
247
247
247
247
247
247
247
247
247
247
247
247
247
247
247
247
247
247
247
247
247
247
247
248
248
248
248
248
248
248
248
248
247
247
247
247
247
247
247
247
247
246
246
246
246
246
246
246
246
246
246
246
246
246
246
246
245
245
245
245
245
245
244
244
244
244
244
244
244
244
244
244
244
244
244
244
244
244
244
244
244
244
244
244
244
244
244
244
244
244
244
244
244
244
244
248
246
247
247
245
246
237
235
236
248
246
247
223
221
222
37
35
36
17
15
16
20
18
19
17
17
25
10
4
16
12
0
21
168
165
26
239
241
0
246
234
0
248
229
0
255
233
6
245
232
4
240
227
0
236
223
0
238
225
0
244
231
3
246
233
5
242
229
1
237
224
0
242
229
1
242
229
1
242
229
1
242
229
1
242
229
1
242
229
1
242
229
1
242
229
1
250
234
14
239
223
5
234
220
0
242
228
5
249
236
7
245
234
0
239
231
0
238
231
0
243
229
0
233
220
0
230
218
0
239
229
0
250
243
7
246
241
2
221
218
0
199
196
0
174
174
24
154
153
11
122
118
0
92
84
0
74
62
0
71
55
3
78
60
24
85
65
38
72
49
43
72
51
32
75
58
15
87
75
1
108
101
0
136
135
0
163
165
2
180
184
9
232
229
10
239
234
18
246
240
24
248
237
23
243
230
14
239
223
5
240
222
0
243
224
0
244
232
0
240
228
0
243
232
0
250
239
0
250
239
1
242
230
0
238
224
1
240
226
7
241
228
0
241
228
0
241
228
0
242
229
1
242
229
1
242
229
1
243
230
2
243
230
2
243
230
2
243
230
2
243
230
2
243
230
2
243
230
2
243
230
2
243
230
2
243
230
2
253
224
8
247
224
0
252
238
9
241
241
0
220
230
0
111
110
2
6
0
9
25
22
33
40
39
37
14
12
15
7
4
11
91
88
97
241
238
245
251
249
252
243
242
238
235
235
227
243
243
243
243
243
243
243
243
243
243
243
243
243
243
243
243
243
243
243
243
243
243
243
243
244
244
244
244
244
244
243
243
243
243
243
243
243
243
243
242
242
242
242
242
242
242
242
242
242
242
242
242
242
242
242
242
242
243
243
243
243
243
243
243
243
243
244
244
244
244
244
244
242
242
242
242
242
242
242
242
242
242
242
242
242
242
242
242
242
242
242
242
242
242
242
242
243
243
243
243
243
243
243
243
243
243
243
243
243
243
243
243
243
243
243
243
243
243
243
243
243
243
243
243
243
243
243
243
243
243
243
243
243
243
243
243
243
243
243
243
243
243
243
243
242
242
242
242
242
242
242
242
242
243
243
243
243
243
243
243
243
243
244
244
244
244
244
244
243
243
243
250
250
250
250
250
250
250
250
250
250
250
250
250
250
250
250
250
250
250
250
250
250
250
250
250
250
250
250
250
250
250
250
250
250
250
250
250
250
250
250
250
250
250
250
250
250
250
250
251
251
251
251
251
251
250
250
250
250
250
250
250
250
250
249
249
249
249
249
249
249
249
249
247
247
247
247
247
247
247
247
247
247
247
247
247
247
247
247
247
247
247
247
247
247
247
247
248
248
248
248
248
248
248
248
248
247
247
247
247
247
247
247
247
247
246
246
246
246
246
246
246
246
246
246
246
246
246
246
246
245
245
245
245
245
245
244
244
244
244
244
244
244
244
244
244
244
244
244
244
244
244
244
244
244
244
244
244
244
244
244
244
244
244
244
244
244
244
244
243
241
242
228
226
227
251
249
250
232
230
231
248
246
247
228
226
227
32
30
31
1
0
0
20
28
30
18
20
32
40
37
32
19
0
20
146
135
30
244
246
0
253
242
2
242
224
0
244
231
3
239
226
0
236
223
0
238
225
0
243
230
2
245
232
4
241
228
0
236
223
0
242
229
1
242
229
1
242
229
1
242
229
1
242
229
1
242
229
1
242
229
1
242
229
1
244
234
0
237
226
0
239
225
6
248
233
20
248
233
20
240
226
7
242
227
0
251
237
4
247
222
18
248
224
12
250
228
5
250
232
0
251
234
0
250
235
0
248
232
0
246
230
0
236
230
0
240
233
0
247
240
4
251
242
13
250
240
18
243
232
16
236
225
13
230
218
8
236
227
0
237
228
0
240
231
2
244
235
6
248
239
10
253
244
15
255
248
19
255
250
21
241
232
0
240
231
0
238
226
0
236
221
0
238
221
0
247
226
0
255
236
16
255
243
29
238
227
0
236
225
0
240
229
0
247
236
0
242
230
0
233
220
0
238
225
0
252
238
17
241
228
0
241
228
0
241
228
0
242
229
1
242
229
1
242
229
1
243
230
2
243
230
2
243
230
2
243
230
2
243
230
2
243
230
2
243
230
2
243
230
2
243
230
2
243
230
2
254
235
0
239
222
0
225
222
0
231
240
3
111
104
32
4
0
32
36
35
53
13
22
1
1
0
4
8
5
12
86
83
90
241
238
245
255
254
255
242
240
243
235
234
232
239
238
233
243
243
243
243
243
243
243
243
243
243
243
243
243
243
243
243
243
243
243
243
243
243
243
243
244
244
244
244
244
244
243
243
243
243
243
243
243
243
243
242
242
242
242
242
242
242
242
242
242
242
242
242
242
242
242
242
242
243
243
243
243
243
243
243
243
243
244
244
244
244
244
244
242
242
242
242
242
242
242
242
242
242
242
242
242
242
242
242
242
242
242
242
242
242
242
242
243
243
243
243
243
243
243
243
243
243
243
243
243
243
243
243
243
243
243
243
243
243
243
243
243
243
243
243
243
243
243
243
243
243
243
243
243
243
243
243
243
243
243
243
243
243
243
243
242
242
242
242
242
242
242
242
242
243
243
243
243
243
243
243
243
243
244
244
244
244
244
244
243
243
243
250
250
250
250
250
250
250
250
250
250
250
250
250
250
250
250
250
250
250
250
250
250
250
250
250
250
250
250
250
250
250
250
250
250
250
250
250
250
250
250
250
250
250
250
250
250
250
250
251
251
251
251
251
251
251
251
251
250
250
250
250
250
250
250
250
250
249
249
249
249
249
249
248
248
248
248
248
248
248
248
248
248
248
248
248
248
248
248
248
248
248
248
248
248
248
248
248
248
248
248
248
248
248
248
248
247
247
247
247
247
247
247
247
247
246
246
246
246
246
246
246
246
246
246
246
246
246
246
246
245
245
245
245
245
245
244
244
244
244
244
244
244
244
244
244
244
244
244
244
244
244
244
244
244
244
244
244
244
244
244
244
244
244
244
244
244
244
244
238
236
237
255
254
255
230
228
229
248
246
247
241
239
240
245
243
244
219
217
218
53
51
52
0
0
19
26
31
8
17
20
1
27
23
14
17
0
24
113
94
35
214
213
0
254
245
28
242
229
1
240
227
0
238
225
0
239
226
0
241
228
0
242
229
1
240
227
0
238
225
0
242
229
1
242
229
1
242
229
1
242
229
1
242
229
1
242
229
1
242
229
1
242
229
1
236
230
0
231
224
0
236
224
0
245
230
17
243
227
20
235
217
9
235
215
4
241
222
8
254
233
22
252
231
16
249
229
10
248
228
7
248
228
9
247
226
15
243
220
16
241
215
17
255
238
0
252
234
0
247
228
0
243
223
0
244
223
0
249
227
4
255
232
14
255
237
21
249
229
10
249
229
8
249
230
3
248
230
0
247
230
0
246
230
0
244
229
0
243
228
0
241
226
3
245
230
5
252
235
7
254
237
7
254
236
4
250
232
0
248
228
0
245
224
0
247
236
0
243
232
0
244
232
0
249
237
3
244
232
0
236
223
0
239
226
0
249
236
10
241
228
0
241
228
0
241
228
0
242
229
1
242
229
1
242
229
1
243
230
2
243
230
2
243
230
2
243
230
2
243
230
2
243
230
2
243
230
2
243
230
2
243
230
2
243
230
2
231
222
0
255
255
2
207
204
29
69
53
27
6
0
35
13
11
14
7
14
0
19
23
24
12
10
15
91
89
94
251
249
254
249
247
250
244
242
245
238
236
237
246
245
243
246
245
243
243
243
243
243
243
243
243
243
243
243
243
243
243
243
243
243
243
243
243
243
243
243
243
243
244
244
244
244
244
244
243
243
243
243
243
243
243
243
243
242
242
242
242
242
242
242
242
242
242
242
242
242
242
242
242
242
242
243
243
243
243
243
243
243
243
243
244
244
244
244
244
244
242
242
242
242
242
242
242
242
242
242
242
242
242
242
242
242
242
242
242
242
242
242
242
242
243
243
243
243
243
243
243
243
243
243
243
243
243
243
243
243
243
243
243
243
243
243
243
243
243
243
243
243
243
243
243
243
243
243
243
243
243
243
243
243
243
243
243
243
243
243
243
243
242
242
242
242
242
242
242
242
242
243
243
243
243
243
243
243
243
243
244
244
244
244
244
244
242
242
242
251
251
251
251
251
251
251
251
251
251
251
251
251
251
251
251
251
251
251
251
251
251
251
251
251
251
251
251
251
251
251
251
251
251
251
251
251
251
251
251
251
251
251
251
251
251
251
251
252
252
252
251
251
251
251
251
251
251
251
251
250
250
250
250
250
250
250
250
250
249
249
249
248
248
248
248
248
248
248
248
248
248
248
248
248
248
248
248
248
248
248
248
248
248
248
248
248
248
248
248
248
248
248
248
248
247
247
247
247
247
247
247
247
247
246
246
246
246
246
246
246
246
246
246
246
246
246
246
246
245
245
245
245
245
245
244
244
244
244
244
244
244
244
244
244
244
244
244
244
244
244
244
244
244
244
244
244
244
244
244
244
244
244
244
244
244
244
244
246
244
245
250
248
249
255
254
255
229
227
228
247
245
246
255
254
255
239
237
238
222
220
221
67
60
78
10
10
0
11
15
0
4
1
10
28
20
33
19
2
20
75
56
39
217
218
39
238
225
0
240
227
0
242
229
1
241
228
0
238
225
0
238
225
0
239
226
0
241
228
0
242
229
1
242
229
1
242
229
1
242
229
1
242
229
1
242
229
1
242
229
1
242
229
1
232
226
0
230
222
0
233
224
0
245
233
9
254
238
18
254
236
16
247
229
9
244
224
5
233
220
0
238
226
0
245
233
0
245
234
0
243
231
0
244
227
0
247
228
14
251
230
27
250
227
23
249
227
19
248
227
12
247
228
2
245
228
0
243
228
0
241
226
0
240
225
0
251
235
0
248
232
0
245
229
0
242
226
0
242
226
0
245
229
0
249
233
0
252
236
3
246
233
15
244
232
10
241
230
0
241
229
0
242
230
0
244
231
3
245
231
12
247
230
18
244
232
0
245
233
1
249
236
7
252
239
11
247
234
6
239
226
0
238
225
0
242
229
1
241
228
0
241
228
0
241
228
0
242
229
1
242
229
1
242
229
1
243
230
2
243
230
2
243
230
2
243
230
2
243
230
2
243
230
2
243
230
2
243
230
2
243
230
2
243
230
2
240
241
15
174
168
20
14
0
0
7
0
46
36
36
26
15
19
0
33
31
42
6
6
0
117
116
114
252
251
249
254
253
251
250
249
245
228
227
225
243
242
240
252
250
251
244
242
245
243
243
243
243
243
243
243
243
243
243
243
243
243
243
243
243
243
243
243
243
243
243
243
243
244
244
244
244
244
244
243
243
243
243
243
243
243
243
243
242
242
242
242
242
242
242
242
242
242
242
242
242
242
242
242
242
242
243
243
243
243
243
243
243
243
243
244
244
244
244
244
244
242
242
242
242
242
242
242
242
242
242
242
242
242
242
242
242
242
242
242
242
242
242
242
242
243
243
243
243
243
243
243
243
243
243
243
243
243
243
243
243
243
243
243
243
243
243
243
243
243
243
243
243
243
243
243
243
243
243
243
243
243
243
243
243
243
243
243
243
243
243
243
243
242
242
242
242
242
242
242
242
242
243
243
243
243
243
243
243
243
243
244
244
244
244
244
244
242
242
242
251
251
251
251
251
251
251
251
251
251
251
251
251
251
251
251
251
251
251
251
251
251
251
251
251
251
251
251
251
251
251
251
251
251
251
251
251
251
251
251
251
251
251
251
251
251
251
251
252
252
252
252
252
252
251
251
251
251
251
251
251
251
251
250
250
250
250
250
250
250
250
250
248
248
248
248
248
248
248
248
248
248
248
248
248
248
248
248
248
248
248
248
248
248
248
248
248
248
248
248
248
248
248
248
248
247
247
247
247
247
247
247
247
247
246
246
246
246
246
246
246
246
246
246
246
246
246
246
246
245
245
245
245
245
245
244
244
244
244
244
244
244
244
244
244
244
244
244
244
244
244
244
244
244
244
244
244
244
244
244
244
244
244
244
244
244
244
244
240
238
239
244
242
243
253
251
252
253
251
252
234
232
233
246
244
245
255
254
255
250
248
249
254
243
237
91
80
96
9
4
24
22
24
23
15
13
24
23
14
31
25
14
10
14
0
5
235
222
0
240
227
0
244
231
3
242
229
1
237
224
0
235
222
0
238
225
0
243
230
2
242
229
1
242
229
1
242
229
1
242
229
1
242
229
1
242
229
1
242
229
1
242
229
1
242
235
9
241
234
4
241
233
0
241
231
0
241
228
0
242
226
0
243
226
0
244
227
0
243
236
0
241
232
3
240
230
10
242
229
13
243
230
11
245
233
1
247
237
0
247
238
0
249
239
2
248
238
3
245
234
4
243
231
5
242
229
10
241
228
12
242
228
17
242
228
18
233
223
1
234
224
2
235
226
1
237
228
3
239
230
3
240
231
2
241
232
3
242
233
4
232
228
0
232
226
0
234
225
8
238
228
19
240
230
21
240
232
11
239
232
0
236
231
0
235
222
0
242
229
1
249
236
10
246
232
9
237
223
0
233
220
0
240
227
0
248
236
4
241
228
0
241
228
0
241
228
0
242
229
1
242
229
1
242
229
1
243
230
2
243
230
2
243
230
2
243
230
2
243
230
2
243
230
2
243
230
2
243
230
2
243
230
2
243
230
2
137
125
39
14
0
0
38
25
32
27
23
20
18
17
25
21
19
20
3
0
0
154
143
157
241
240
235
243
242
237
236
236
228
240
240
232
232
231
226
255
254
252
235
233
236
254
252
255
243
243
243
243
243
243
243
243
243
243
243
243
243
243
243
243
243
243
243
243
243
243
243
243
244
244
244
244
244
244
243
243
243
243
243
243
243
243
243
242
242
242
242
242
242
242
242
242
242
242
242
242
242
242
242
242
242
243
243
243
243
243
243
243
243
243
244
244
244
244
244
244
242
242
242
242
242
242
242
242
242
242
242
242
242
242
242
242
242
242
242
242
242
242
242
242
243
243
243
243
243
243
243
243
243
243
243
243
243
243
243
243
243
243
243
243
243
243
243
243
243
243
243
243
243
243
243
243
243
243
243
243
243
243
243
243
243
243
243
243
243
243
243
243
242
242
242
242
242
242
242
242
242
243
243
243
243
243
243
243
243
243
244
244
244
244
244
244
242
242
242
250
250
250
250
250
250
250
250
250
250
250
250
250
250
250
250
250
250
250
250
250
250
250
250
250
250
250
250
250
250
250
250
250
250
250
250
251
251
251
251
251
251
252
252
252
252
252
252
252
252
252
252
252
252
251
251
251
251
251
251
250
250
250
250
250
250
250
250
250
250
250
250
248
248
248
248
248
248
248
248
248
248
248
248
248
248
248
248
248
248
248
248
248
248
248
248
247
247
247
247
247
247
247
247
247
246
246
246
246
246
246
246
246
246
245
245
245
245
245
245
245
245
245
245
245
245
244
244
244
244
244
244
244
244
244
243
243
243
243
243
243
243
243
243
244
244
244
244
244
244
244
244
244
244
244
244
244
244
244
244
244
244
244
244
244
244
244
244
245
245
245
245
245
245
244
244
244
244
244
244
244
244
244
243
243
243
243
243
243
243
243
243
239
239
239
236
236
236
136
136
136
20
20
20
10
10
10
17
17
17
12
12
12
19
19
19
1
0
14
101
106
6
217
222
8
251
246
7
245
224
19
245
220
31
243
226
12
244
235
0
239
222
18
240
227
0
241
232
0
240
231
0
238
226
4
236
222
9
233
225
0
234
230
0
243
230
2
243
230
2
243
230
2
243
230
2
243
230
2
243
230
2
243
230
2
243
230
2
243
228
1
243
228
1
243
228
1
243
228
1
243
228
1
243
228
1
243
228
1
243
228
1
244
229
2
244
229
2
244
229
2
244
229
2
244
229
2
244
229
2
244
229
2
244
229
2
243
230
2
243
230
2
243
230
2
243
230
2
243
230
2
243
230
2
243
230
2
243
230
2
243
230
2
243
230
2
243
230
2
243
230
2
243
230
2
243
230
2
243
230
2
243
230
2
244
231
3
244
231
3
243
230
2
243
230
2
243
230
2
242
229
1
242
229
1
242
229
1
235
223
0
241
230
0
247
238
0
248
238
1
240
231
6
233
223
4
230
220
0
230
221
0
247
237
15
240
221
5
255
235
19
249
218
0
243
224
0
241
241
3
188
199
35
57
68
0
2
2
2
13
13
13
13
13
13
28
28
28
0
0
0
26
26
26
180
180
180
241
241
241
242
242
242
242
242
242
242
242
242
243
243
243
243
243
243
243
243
243
244
244
244
244
244
244
243
243
243
243
243
243
243
243
243
243
243
243
243
243
243
243
243
243
243
243
243
243
243
243
245
245
245
245
245
245
244
244
244
244
244
244
244
244
244
243
243
243
243
243
243
243
243
243
243
243
243
243
243
243
243
243
243
243
243
243
243
243
243
243
243
243
243
243
243
243
243
243
244
244
244
244
244
244
243
243
243
243
243
243
243
243
243
242
242
242
242
242
242
242
242
242
243
243
243
243
243
243
243
243
243
243
243
243
243
243
243
243
243
243
243
243
243
243
243
243
244
244
244
244
244
244
243
243
243
243
243
243
243
243
243
242
242
242
242
242
242
242
242
242
242
242
242
242
242
242
242
242
242
242
242
242
242
242
242
242
242
242
242
242
242
242
242
242
242
242
242
250
250
250
250
250
250
250
250
250
250
250
250
250
250
250
250
250
250
250
250
250
250
250
250
250
250
250
250
250
250
250
250
250
250
250
250
251
251
251
251
251
251
252
252
252
252
252
252
252
252
252
252
252
252
251
251
251
251
251
251
250
250
250
250
250
250
250
250
250
250
250
250
248
248
248
248
248
248
248
248
248
248
248
248
248
248
248
248
248
248
248
248
248
248
248
248
247
247
247
247
247
247
247
247
247
246
246
246
246
246
246
246
246
246
245
245
245
245
245
245
245
245
245
245
245
245
244
244
244
244
244
244
244
244
244
243
243
243
243
243
243
243
243
243
244
244
244
244
244
244
244
244
244
244
244
244
244
244
244
244
244
244
244
244
244
244
244
244
245
245
245
245
245
245
244
244
244
244
244
244
244
244
244
243
243
243
243
243
243
243
243
243
234
234
234
242
242
242
244
244
244
167
167
167
11
11
11
0
0
0
33
33
33
23
23
23
21
15
17
18
3
24
58
41
13
174
168
12
238
239
0
227
223
0
239
229
0
255
244
20
251
239
0
246
233
0
247
233
4
251
238
10
251
238
10
243
229
6
238
223
10
238
221
19
243
230
2
243
230
2
243
230
2
243
230
2
243
230
2
243
230
2
243
230
2
243
230
2
243
228
1
243
228
1
243
228
1
243
228
1
243
228
1
243
228
1
243
228
1
243
228
1
244
229
2
244
229
2
244
229
2
244
229
2
244
229
2
244
229
2
244
229
2
244
229
2
243
230
2
243
230
2
243
230
2
243
230
2
243
230
2
243
230
2
243
230
2
243
230
2
243
230
2
243
230
2
243
230
2
243
230
2
243
230
2
243
230
2
243
230
2
243
230
2
244
231
3
244
231
3
243
230
2
243
230
2
243
230
2
242
229
1
242
229
1
242
229
1
239
229
0
239
225
2
242
225
24
245
227
29
242
227
10
238
226
0
241
228
0
248
234
1
239
232
0
255
249
13
236
220
0
245
234
0
235
230
0
146
135
17
25
12
4
10
5
11
27
27
27
9
9
9
28
28
28
0
0
0
57
57
57
211
211
211
236
236
236
247
247
247
242
242
242
242
242
242
242
242
242
243
243
243
243
243
243
243
243
243
244
244
244
244
244
244
243
243
243
243
243
243
243
243
243
243
243
243
243
243
243
243
243
243
243
243
243
243
243
243
245
245
245
245
245
245
244
244
244
244
244
244
244
244
244
243
243
243
243
243
243
243
243
243
243
243
243
243
243
243
243
243
243
243
243
243
243
243
243
243
243
243
243
243
243
243
243
243
244
244
244
244
244
244
243
243
243
243
243
243
243
243
243
242
242
242
242
242
242
242
242
242
243
243
243
243
243
243
243
243
243
243
243
243
243
243
243
243
243
243
243
243
243
243
243
243
244
244
244
244
244
244
243
243
243
243
243
243
243
243
243
242
242
242
242
242
242
242
242
242
242
242
242
242
242
242
242
242
242
242
242
242
242
242
242
242
242
242
242
242
242
242
242
242
242
242
242
250
250
250
250
250
250
250
250
250
250
250
250
250
250
250
250
250
250
250
250
250
250
250
250
250
250
250
250
250
250
250
250
250
250
250
250
251
251
251
251
251
251
252
252
252
252
252
252
252
252
252
252
252
252
251
251
251
251
251
251
250
250
250
250
250
250
250
250
250
250
250
250
248
248
248
248
248
248
248
248
248
248
248
248
248
248
248
248
248
248
248
248
248
248
248
248
247
247
247
247
247
247
247
247
247
246
246
246
246
246
246
246
246
246
245
245
245
245
245
245
245
245
245
245
245
245
244
244
244
244
244
244
244
244
244
243
243
243
243
243
243
243
243
243
244
244
244
244
244
244
244
244
244
244
244
244
244
244
244
244
244
244
244
244
244
244
244
244
245
245
245
245
245
245
244
244
244
244
244
244
244
244
244
243
243
243
243
243
243
243
243
243
252
252
252
240
240
240
251
251
251
245
245
245
212
212
212
56
56
56
0
0
0
19
19
19
34
20
45
18
5
22
22
9
27
27
13
13
114
107
17
229
232
27
244
245
0
231
224
0
240
227
0
233
221
0
232
218
0
238
222
4
244
224
15
245
224
13
248
229
2
252
236
0
243
230
2
243
230
2
243
230
2
243
230
2
243
230
2
243
230
2
243
230
2
243
230
2
243
228
1
243
228
1
243
228
1
243
228
1
243
228
1
243
228
1
243
228
1
243
228
1
244
229
2
244
229
2
244
229
2
244
229
2
244
229
2
244
229
2
244
229
2
244
229
2
243
230
2
243
230
2
243
230
2
243
230
2
243
230
2
243
230
2
243
230
2
243
230
2
243
230
2
243
230
2
243
230
2
243
230
2
243
230
2
243
230
2
243
230
2
243
230
2
244
231
3
244
231
3
243
230
2
243
230
2
243
230
2
242
229
1
242
229
1
242
229
1
233
221
0
245
232
0
246
233
0
239
223
0
245
228
1
255
240
23
255
235
24
241
216
9
235
229
0
235
233
0
255
255
8
208
206
35
49
30
13
13
0
25
26
14
16
18
8
9
28
28
28
16
16
16
0
0
0
114
114
114
230
230
230
247
247
247
255
255
255
232
232
232
242
242
242
242
242
242
242
242
242
243
243
243
243
243
243
243
243
243
244
244
244
244
244
244
243
243
243
243
243
243
243
243
243
243
243
243
243
243
243
243
243
243
243
243
243
243
243
243
245
245
245
245
245
245
244
244
244
244
244
244
244
244
244
243
243
243
243
243
243
243
243
243
243
243
243
243
243
243
243
243
243
243
243
243
243
243
243
243
243
243
243
243
243
243
243
243
244
244
244
244
244
244
243
243
243
243
243
243
243
243
243
242
242
242
242
242
242
242
242
242
243
243
243
243
243
243
243
243
243
243
243
243
243
243
243
243
243
243
243
243
243
243
243
243
244
244
244
244
244
244
243
243
243
243
243
243
243
243
243
242
242
242
242
242
242
242
242
242
242
242
242
242
242
242
242
242
242
242
242
242
242
242
242
242
242
242
242
242
242
242
242
242
242
242
242
250
250
250
250
250
250
250
250
250
250
250
250
250
250
250
250
250
250
250
250
250
250
250
250
250
250
250
250
250
250
250
250
250
250
250
250
251
251
251
251
251
251
252
252
252
252
252
252
252
252
252
252
252
252
251
251
251
251
251
251
250
250
250
250
250
250
250
250
250
250
250
250
248
248
248
248
248
248
248
248
248
248
248
248
248
248
248
248
248
248
248
248
248
248
248
248
247
247
247
247
247
247
247
247
247
246
246
246
246
246
246
246
246
246
245
245
245
245
245
245
245
245
245
245
245
245
244
244
244
244
244
244
244
244
244
243
243
243
243
243
243
243
243
243
244
244
244
244
244
244
244
244
244
244
244
244
244
244
244
244
244
244
244
244
244
244
244
244
245
245
245
245
245
245
244
244
244
244
244
244
244
244
244
243
243
243
243
243
243
243
243
243
230
230
230
255
255
255
243
243
243
251
251
251
241
241
241
244
244
244
123
123
123
4
4
4
12
0
0
41
33
31
18
16
19
8
8
20
3
0
14
31
18
1
152
141
25
221
216
3
240
235
0
243
235
4
246
234
12
246
230
12
249
231
9
253
232
1
250
229
0
245
225
0
243
230
2
243
230
2
243
230
2
243
230
2
243
230
2
243
230
2
243
230
2
243
230
2
244
229
2
244
229
2
244
229
2
244
229
2
244
229
2
244
229
2
244
229
2
244
229
2
244
229
2
244
229
2
244
229
2
244
229
2
244
229
2
244
229
2
244
229
2
244
229
2
243
230
2
243
230
2
243
230
2
243
230
2
243
230
2
243
230
2
243
230
2
243
230
2
243
230
2
243
230
2
243
230
2
243
230
2
243
230
2
243
230
2
243
230
2
243
230
2
244
231
3
244
231
3
243
230
2
243
230
2
243
230
2
242
229
1
242
229
1
242
229
1
253
239
10
238
225
0
238
226
0
255
241
0
253
238
0
239
221
0
242
224
0
255
243
12
233
229
10
203
204
4
112
103
38
12
0
43
18
10
33
23
19
10
29
19
18
33
20
4
8
8
8
21
21
21
183
183
183
247
247
247
237
237
237
255
255
255
231
231
231
247
247
247
242
242
242
242
242
242
242
242
242
243
243
243
243
243
243
243
243
243
244
244
244
244
244
244
244
244
244
244
244
244
244
244
244
244
244
244
244
244
244
244
244
244
244
244
244
244
244
244
245
245
245
245
245
245
244
244
244
244
244
244
244
244
244
243
243
243
243
243
243
243
243
243
243
243
243
243
243
243
243
243
243
243
243
243
243
243
243
243
243
243
243
243
243
243
243
243
244
244
244
244
244
244
243
243
243
243
243
243
243
243
243
242
242
242
242
242
242
242
242
242
243
243
243
243
243
243
243
243
243
243
243
243
243
243
243
243
243
243
243
243
243
243
243
243
244
244
244
244
244
244
243
243
243
243
243
243
243
243
243
242
242
242
242
242
242
242
242
242
242
242
242
242
242
242
242
242
242
242
242
242
242
242
242
242
242
242
242
242
242
242
242
242
243
243
243
250
250
250
250
250
250
250
250
250
250
250
250
250
250
250
250
250
250
250
250
250
250
250
250
250
250
250
250
250
250
250
250
250
250
250
250
251
251
251
251
251
251
252
252
252
252
252
252
252
252
252
252
252
252
251
251
251
251
251
251
250
250
250
250
250
250
250
250
250
250
250
250
248
248
248
248
248
248
248
248
248
248
248
248
248
248
248
248
248
248
248
248
248
248
248
248
247
247
247
247
247
247
247
247
247
246
246
246
246
246
246
246
246
246
245
245
245
245
245
245
245
245
245
245
245
245
244
244
244
244
244
244
244
244
244
243
243
243
243
243
243
243
243
243
244
244
244
244
244
244
244
244
244
244
244
244
244
244
244
244
244
244
244
244
244
244
244
244
245
245
245
245
245
245
244
244
244
244
244
244
244
244
244
243
243
243
243
243
243
243
243
243
253
253
253
217
217
217
252
252
252
246
246
246
250
250
250
249
249
249
252
252
252
167
167
167
50
39
37
6
1
0
20
24
9
24
32
17
24
27
32
22
13
34
13
0
0
62
40
3
193
185
38
221
220
14
241
244
0
238
235
0
234
224
0
242
224
16
250
229
16
248
228
0
243
230
2
243
230
2
243
230
2
243
230
2
243
230
2
243
230
2
243
230
2
243
230
2
244
229
2
244
229
2
244
229
2
244
229
2
244
229
2
244
229
2
244
229
2
244
229
2
244
229
2
244
229
2
244
229
2
244
229
2
244
229
2
244
229
2
244
229
2
244
229
2
243
230
2
243
230
2
243
230
2
243
230
2
243
230
2
243
230
2
243
230
2
243
230
2
243
230
2
243
230
2
243
230
2
243
230
2
243
230
2
243
230
2
243
230
2
243
230
2
244
231
3
244
231
3
243
230
2
243
230
2
243
230
2
242
229
1
242
229
1
242
229
1
236
220
2
238
225
0
241
229
0
244
231
3
248
235
17
250
237
18
240
231
0
225
221
0
146
138
5
40
19
16
6
0
27
20
25
19
35
42
34
16
21
1
25
20
0
12
0
21
79
79
79
233
233
233
251
251
251
233
233
233
252
252
252
235
235
235
233
233
233
247
247
247
242
242
242
242
242
242
242
242
242
243
243
243
243
243
243
243
243
243
244
244
244
244
244
244
244
244
244
244
244
244
244
244
244
244
244
244
244
244
244
244
244
244
244
244
244
244
244
244
245
245
245
245
245
245
244
244
244
244
244
244
244
244
244
243
243
243
243
243
243
243
243
243
243
243
243
243
243
243
243
243
243
243
243
243
243
243
243
243
243
243
243
243
243
243
243
243
244
244
244
244
244
244
243
243
243
243
243
243
243
243
243
242
242
242
242
242
242
242
242
242
243
243
243
243
243
243
243
243
243
243
243
243
243
243
243
243
243
243
243
243
243
243
243
243
244
244
244
244
244
244
243
243
243
243
243
243
243
243
243
242
242
242
242
242
242
242
242
242
242
242
242
242
242
242
242
242
242
242
242
242
242
242
242
242
242
242
242
242
242
242
242
242
243
243
243
250
250
250
250
250
250
250
250
250
250
250
250
250
250
250
250
250
250
250
250
250
250
250
250
250
250
250
250
250
250
250
250
250
250
250
250
251
251
251
251
251
251
252
252
252
252
252
252
252
252
252
252
252
252
251
251
251
251
251
251
250
250
250
250
250
250
250
250
250
250
250
250
248
248
248
248
248
248
248
248
248
248
248
248
248
248
248
248
248
248
248
248
248
248
248
248
247
247
247
247
247
247
247
247
247
246
246
246
246
246
246
246
246
246
245
245
245
245
245
245
245
245
245
245
245
245
244
244
244
244
244
244
244
244
244
243
243
243
243
243
243
243
243
243
244
244
244
244
244
244
244
244
244
244
244
244
244
244
244
244
244
244
244
244
244
244
244
244
245
245
245
245
245
245
244
244
244
244
244
244
244
244
244
243
243
243
243
243
243
243
243
243
237
237
237
255
255
255
234
234
234
241
241
241
238
238
238
255
255
255
240
240
240
255
255
255
237
227
251
125
126
108
0
4
0
0
0
11
23
20
47
18
13
20
27
18
21
12
0
20
11
0
0
91
82
13
184
186
23
228
235
7
238
240
0
242
237
0
250
239
9
255
241
12
243
230
2
243
230
2
243
230
2
243
230
2
243
230
2
243
230
2
243
230
2
243
230
2
245
230
3
245
230
3
245
230
3
245
230
3
245
230
3
245
230
3
245
230
3
245
230
3
244
229
2
244
229
2
244
229
2
244
229
2
244
229
2
244
229
2
244
229
2
244
229
2
243
230
2
243
230
2
243
230
2
243
230
2
243
230
2
243
230
2
243
230
2
243
230
2
243
230
2
243
230
2
243
230
2
243
230
2
243
230
2
243
230
2
243
230
2
243
230
2
244
231
3
244
231
3
243
230
2
243
230
2
243
230
2
242
229
1
242
229
1
242
229
1
255
247
0
244
233
4
226
215
12
227
222
8
247
249
15
233
235
30
148
137
21
53
31
0
11
0
12
34
27
11
19
19
11
21
26
22
18
28
1
0
0
5
32
22
59
170
159
163
251
251
251
254
254
254
226
226
226
241
241
241
244
244
244
236
236
236
255
255
255
228
228
228
242
242
242
242
242
242
242
242
242
243
243
243
243
243
243
243
243
243
244
244
244
244
244
244
245
245
245
245
245
245
245
245
245
245
245
245
245
245
245
245
245
245
245
245
245
245
245
245
245
245
245
245
245
245
244
244
244
244
244
244
244
244
244
243
243
243
243
243
243
243
243
243
243
243
243
243
243
243
243
243
243
243
243
243
243
243
243
243
243
243
243
243
243
243
243
243
244
244
244
244
244
244
243
243
243
243
243
243
243
243
243
242
242
242
242
242
242
242
242
242
243
243
243
243
243
243
243
243
243
243
243
243
243
243
243
243
243
243
243
243
243
243
243
243
244
244
244
244
244
244
243
243
243
243
243
243
243
243
243
242
242
242
242
242
242
242
242
242
242
242
242
242
242
242
242
242
242
242
242
242
242
242
242
242
242
242
242
242
242
242
242
242
243
243
243
250
250
250
250
250
250
250
250
250
250
250
250
250
250
250
250
250
250
250
250
250
250
250
250
250
250
250
250
250
250
250
250
250
250
250
250
251
251
251
251
251
251
252
252
252
252
252
252
252
252
252
252
252
252
251
251
251
251
251
251
250
250
250
250
250
250
250
250
250
250
250
250
248
248
248
248
248
248
248
248
248
248
248
248
248
248
248
248
248
248
248
248
248
248
248
248
247
247
247
247
247
247
247
247
247
246
246
246
246
246
246
246
246
246
245
245
245
245
245
245
245
245
245
245
245
245
244
244
244
244
244
244
244
244
244
243
243
243
243
243
243
243
243
243
244
244
244
244
244
244
244
244
244
244
244
244
244
244
244
244
244
244
244
244
244
244
244
244
245
245
245
245
245
245
244
244
244
244
244
244
244
244
244
243
243
243
243
243
243
243
243
243
251
251
251
235
235
235
239
239
239
237
237
237
255
255
255
239
239
239
240
240
240
234
234
234
244
247
236
249
248
255
203
198
204
73
66
60
6
0
12
19
7
53
27
24
41
25
37
0
33
32
37
5
0
29
7
0
21
63
53
4
161
162
0
233
237
2
249
246
17
235
225
32
243
230
2
243
230
2
243
230
2
243
230
2
243
230
2
243
230
2
243
230
2
243
230
2
245
230
3
245
230
3
245
230
3
245
230
3
245
230
3
245
230
3
245
230
3
245
230
3
244
229
2
244
229
2
244
229
2
244
229
2
244
229
2
244
229
2
244
229
2
244
229
2
243
230
2
243
230
2
243
230
2
243
230
2
243
230
2
243
230
2
243
230
2
243
230
2
243
230
2
243
230
2
243
230
2
243
230
2
243
230
2
243
230
2
243
230
2
243
230
2
244
231
3
244
231
3
243
230
2
243
230
2
243
230
2
242
229
1
242
229
1
242
229
1
241
221
46
235
229
0
237
240
0
216
219
6
131
124
33
32
15
25
7
0
25
20
11
28
31
31
19
11
10
8
13
11
16
18
14
39
6
2
27
115
118
91
221
224
193
245
237
255
243
243
243
230
230
230
241
241
241
238
238
238
237
237
237
249
249
249
249
249
249
255
255
255
242
242
242
242
242
242
242
242
242
243
243
243
243
243
243
243
243
243
244
244
244
244
244
244
245
245
245
245
245
245
245
245
245
245
245
245
245
245
245
245
245
245
245
245
245
245
245
245
245
245
245
245
245
245
244
244
244
244
244
244
244
244
244
243
243
243
243
243
243
243
243
243
243
243
243
243
243
243
243
243
243
243
243
243
243
243
243
243
243
243
243
243
243
243
243
243
244
244
244
244
244
244
243
243
243
243
243
243
243
243
243
242
242
242
242
242
242
242
242
242
243
243
243
243
243
243
243
243
243
243
243
243
243
243
243
243
243
243
243
243
243
243
243
243
244
244
244
244
244
244
243
243
243
243
243
243
243
243
243
242
242
242
242
242
242
242
242
242
242
242
242
242
242
242
242
242
242
242
242
242
242
242
242
242
242
242
242
242
242
242
242
242
244
244
244
250
250
250
250
250
250
250
250
250
250
250
250
250
250
250
250
250
250
250
250
250
250
250
250
250
250
250
250
250
250
250
250
250
250
250
250
251
251
251
251
251
251
252
252
252
252
252
252
252
252
252
252
252
252
251
251
251
251
251
251
250
250
250
250
250
250
250
250
250
250
250
250
248
248
248
248
248
248
248
248
248
248
248
248
248
248
248
248
248
248
248
248
248
248
248
248
247
247
247
247
247
247
247
247
247
246
246
246
246
246
246
246
246
246
245
245
245
245
245
245
245
245
245
245
245
245
244
244
244
244
244
244
244
244
244
243
243
243
243
243
243
243
243
243
244
244
244
244
244
244
244
244
244
244
244
244
244
244
244
244
244
244
244
244
244
244
244
244
245
245
245
245
245
245
244
244
244
244
244
244
244
244
244
243
243
243
243
243
243
243
243
243
239
239
239
245
245
245
239
239
239
242
242
242
242
242
242
240
240
240
239
239
239
255
255
255
249
255
255
241
243
238
251
244
234
255
240
233
166
154
140
33
30
11
0
1
0
8
15
43
12
24
10
17
27
2
22
24
10
17
4
32
13
0
41
37
11
12
129
118
0
220
223
0
243
230
2
243
230
2
243
230
2
243
230
2
243
230
2
243
230
2
243
230
2
243
230
2
245
230
3
245
230
3
245
230
3
245
230
3
245
230
3
245
230
3
245
230
3
245
230
3
244
229
2
244
229
2
244
229
2
244
229
2
244
229
2
244
229
2
244
229
2
244
229
2
243
230
2
243
230
2
243
230
2
243
230
2
243
230
2
243
230
2
243
230
2
243
230
2
243
230
2
243
230
2
243
230
2
243
230
2
243
230
2
243
230
2
243
230
2
243
230
2
244
231
3
244
231
3
243
230
2
243
230
2
243
230
2
242
229
1
242
229
1
242
229
1
245
239
0
194
179
16
109
86
19
34
11
5
11
0
1
25
21
18
28
32
31
16
23
31
8
13
16
14
14
26
10
6
21
58
52
52
200
196
185
255
251
255
247
247
247
237
244
210
238
238
238
248
248
248
251
251
251
237
237
237
242
242
242
249
249
249
236
236
236
243
243
243
242
242
242
242
242
242
242
242
242
243
243
243
243
243
243
243
243
243
244
244
244
244
244
244
245
245
245
245
245
245
245
245
245
245
245
245
245
245
245
245
245
245
245
245
245
245
245
245
245
245
245
245
245
245
244
244
244
244
244
244
244
244
244
243
243
243
243
243
243
243
243
243
243
243
243
243
243
243
243
243
243
243
243
243
243
243
243
243
243
243
243
243
243
243
243
243
244
244
244
244
244
244
243
243
243
243
243
243
243
243
243
242
242
242
242
242
242
242
242
242
243
243
243
243
243
243
243
243
243
243
243
243
243
243
243
243
243
243
243
243
243
243
243
243
244
244
244
244
244
244
243
243
243
243
243
243
243
243
243
242
242
242
242
242
242
242
242
242
242
242
242
242
242
242
242
242
242
242
242
242
242
242
242
242
242
242
242
242
242
242
242
242
244
244
244
247
247
247
247
247
247
248
248
248
248
248
248
249
249
249
249
249
249
249
249
249
249
249
249
250
250
250
250
250
250
250
250
250
251
251
251
251
251
251
251
251
251
252
252
252
252
252
252
251
251
251
250
250
250
250
250
250
250
250
250
249
249
249
249
249
249
249
249
249
249
249
249
247
247
247
247
247
247
247
247
247
247
247
247
247
247
247
247
247
247
247
247
247
247
247
247
245
245
245
245
245
245
245
245
245
245
245
245
245
245
245
245
245
245
245
245
245
245
245
245
245
245
245
245
245
245
244
244
244
244
244
244
244
244
244
243
243
243
243
243
243
243
243
243
244
244
244
244
244
244
244
244
244
244
244
244
244
244
244
244
244
244
244
244
244
244
244
244
244
244
244
244
244
244
244
244
244
244
244
244
244
244
244
244
244
244
244
244
244
244
244
244
242
242
242
242
242
242
242
242
242
243
243
243
243
243
243
243
243
243
244
244
244
244
244
244
243
243
243
248
248
248
240
240
240
236
236
236
251
251
251
237
237
237
143
143
143
35
35
35
6
6
6
20
20
20
15
15
15
13
13
13
24
24
24
16
16
16
0
0
0
0
0
0
87
76
0
154
147
15
218
219
19
245
245
0
250
243
0
255
240
0
254
230
0
246
217
1
255
242
16
248
235
9
240
227
1
238
227
0
239
230
1
240
234
2
238
232
0
235
229
0
244
232
6
244
232
6
243
231
5
243
231
5
244
232
6
246
234
8
249
237
11
250
238
12
241
229
5
241
229
5
241
229
7
241
229
7
242
229
10
243
230
12
244
231
13
245
232
16
234
228
0
242
233
0
247
238
0
247
236
0
243
230
0
240
227
0
244
228
0
247
231
0
254
230
8
254
234
0
244
230
0
239
230
0
247
241
5
242
236
26
197
190
11
144
136
0
40
34
36
16
10
12
4
0
0
12
6
8
22
16
18
19
13
15
16
10
12
21
15
17
0
0
0
74
74
74
179
179
179
243
243
243
254
254
254
243
243
243
241
241
241
249
249
249
244
244
244
244
244
244
244
244
244
244
244
244
244
244
244
244
244
244
244
244
244
244
244
244
244
244
244
244
244
244
244
244
244
244
244
244
244
244
244
244
244
244
244
244
244
244
244
244
244
244
244
244
244
244
244
244
244
244
244
244
244
244
244
244
244
244
244
244
244
244
244
244
244
244
244
244
244
244
244
244
244
244
244
244
244
244
244
244
244
244
244
244
244
244
244
244
244
244
244
244
244
244
243
243
243
243
243
243
243
243
243
242
242
242
242
242
242
242
242
242
244
244
244
244
244
244
244
244
244
244
244
244
244
244
244
244
244
244
244
244
244
244
244
244
243
243
243
243
243
243
243
243
243
243
243
243
243
243
243
243
243
243
243
243
243
243
243
243
244
244
244
244
244
244
243
243
243
243
243
243
243
243
243
242
242
242
242
242
242
242
242
242
242
242
242
242
242
242
242
242
242
242
242
242
242
242
242
242
242
242
242
242
242
242
242
242
242
242
242
247
247
247
247
247
247
248
248
248
248
248
248
249
249
249
249
249
249
249
249
249
249
249
249
249
249
249
250
250
250
250
250
250
250
250
250
251
251
251
251
251
251
251
251
251
252
252
252
250
250
250
250
250
250
250
250
250
250
250
250
249
249
249
249
249
249
249
249
249
248
248
248
247
247
247
247
247
247
247
247
247
247
247
247
247
247
247
247
247
247
247
247
247
247
247
247
245
245
245
245
245
245
245
245
245
245
245
245
245
245
245
245
245
245
245
245
245
245
245
245
245
245
245
245
245
245
244
244
244
244
244
244
244
244
244
243
243
243
243
243
243
243
243
243
244
244
244
244
244
244
244
244
244
244
244
244
244
244
244
244
244
244
244
244
244
244
244
244
244
244
244
244
244
244
244
244
244
244
244
244
244
244
244
244
244
244
244
244
244
244
244
244
242
242
242
242
242
242
242
242
242
243
243
243
243
243
243
243
243
243
244
244
244
244
244
244
243
243
243
251
251
251
247
247
247
235
235
235
238
238
238
251
251
251
244
244
244
225
225
225
135
135
135
38
38
38
0
0
0
22
22
22
23
23
23
17
17
17
25
25
25
23
23
23
23
9
22
10
0
12
20
1
3
84
68
16
162
154
21
214
210
14
234
231
6
239
235
6
238
227
0
242
230
0
247
235
1
249
236
7
248
234
11
246
232
13
244
229
12
242
227
12
255
238
0
251
234
0
246
229
0
242
225
0
241
223
0
244
226
0
248
230
0
251
233
3
247
228
4
249
230
4
251
232
5
252
234
4
252
234
0
251
234
0
249
232
0
247
230
0
252
231
26
248
228
20
240
223
13
238
221
7
240
224
6
246
231
8
252
237
10
255
241
12
241
235
19
237
233
14
229
228
14
202
201
13
142
138
4
71
59
0
25
5
16
11
0
41
18
12
14
16
10
12
29
23
25
42
36
38
26
20
22
4
0
0
22
16
18
61
55
57
185
185
185
214
214
214
246
246
246
255
255
255
248
248
248
238
238
238
242
242
242
251
251
251
244
244
244
244
244
244
244
244
244
244
244
244
244
244
244
244
244
244
244
244
244
244
244
244
244
244
244
244
244
244
244
244
244
244
244
244
244
244
244
244
244
244
244
244
244
244
244
244
244
244
244
244
244
244
244
244
244
244
244
244
244
244
244
244
244
244
244
244
244
244
244
244
244
244
244
244
244
244
244
244
244
244
244
244
244
244
244
244
244
244
244
244
244
244
244
244
244
244
244
244
244
244
243
243
243
243
243
243
243
243
243
242
242
242
242
242
242
242
242
242
244
244
244
244
244
244
244
244
244
244
244
244
244
244
244
244
244
244
244
244
244
244
244
244
243
243
243
243
243
243
243
243
243
243
243
243
243
243
243
243
243
243
243
243
243
243
243
243
244
244
244
244
244
244
243
243
243
243
243
243
243
243
243
242
242
242
242
242
242
242
242
242
242
242
242
242
242
242
242
242
242
242
242
242
242
242
242
242
242
242
242
242
242
242
242
242
242
242
242
247
247
247
247
247
247
248
248
248
248
248
248
249
249
249
249
249
249
249
249
249
249
249
249
249
249
249
249
249
249
250
250
250
250
250
250
250
250
250
251
251
251
251
251
251
251
251
251
250
250
250
250
250
250
250
250
250
249
249
249
249
249
249
248
248
248
248
248
248
248
248
248
247
247
247
247
247
247
247
247
247
247
247
247
247
247
247
247
247
247
247
247
247
247
247
247
245
245
245
245
245
245
245
245
245
245
245
245
245
245
245
245
245
245
245
245
245
245
245
245
245
245
245
245
245
245
244
244
244
244
244
244
244
244
244
243
243
243
243
243
243
243
243
243
244
244
244
244
244
244
244
244
244
244
244
244
244
244
244
244
244
244
244
244
244
244
244
244
244
244
244
244
244
244
244
244
244
244
244
244
244
244
244
244
244
244
244
244
244
244
244
244
242
242
242
242
242
242
242
242
242
243
243
243
243
243
243
243
243
243
244
244
244
244
244
244
241
241
241
247
247
247
253
253
253
251
251
251
243
243
243
241
241
241
249
249
249
255
255
255
251
251
251
237
237
237
160
160
160
49
49
49
0
0
0
2
2
2
19
19
19
22
22
22
14
12
23
24
24
26
28
26
31
17
8
29
8
0
25
28
17
23
82
76
24
127
130
27
203
199
0
217
213
0
236
232
3
247
241
5
249
243
0
248
239
0
248
237
0
249
238
0
246
224
1
249
227
2
254
233
4
255
237
3
255
237
0
254
235
0
250
232
0
246
228
0
244
226
0
245
227
0
247
229
0
250
231
0
252
231
0
254
232
11
255
231
19
255
230
23
250
237
0
247
234
0
244
232
0
245
236
0
245
237
6
240
232
9
227
221
3
217
210
0
156
160
13
113
111
8
58
48
12
21
6
25
12
0
38
17
9
33
21
22
14
22
30
0
27
23
24
39
35
36
26
22
23
3
0
0
4
0
1
85
81
82
192
188
189
255
254
255
253
253
253
250
250
250
245
245
245
241
241
241
240
240
240
242
242
242
246
246
246
250
250
250
244
244
244
244
244
244
244
244
244
244
244
244
244
244
244
244
244
244
244
244
244
244
244
244
244
244
244
244
244
244
244
244
244
244
244
244
244
244
244
244
244
244
244
244
244
244
244
244
244
244
244
244
244
244
244
244
244
244
244
244
244
244
244
244
244
244
244
244
244
244
244
244
244
244
244
244
244
244
244
244
244
244
244
244
244
244
244
244
244
244
244
244
244
244
244
244
244
244
244
244
244
244
243
243
243
243
243
243
243
243
243
242
242
242
242
242
242
242
242
242
244
244
244
244
244
244
244
244
244
244
244
244
244
244
244
244
244
244
244
244
244
244
244
244
243
243
243
243
243
243
243
243
243
243
243
243
243
243
243
243
243
243
243
243
243
243
243
243
244
244
244
244
244
244
243
243
243
243
243
243
243
243
243
242
242
242
242
242
242
242
242
242
242
242
242
242
242
242
242
242
242
242
242
242
242
242
242
242
242
242
242
242
242
242
242
242
242
242
242
247
247
247
247
247
247
248
248
248
248
248
248
249
249
249
249
249
249
249
249
249
249
249
249
249
249
249
249
249
249
249
249
249
250
250
250
250
250
250
250
250
250
251
251
251
251
251
251
250
250
250
249
249
249
249
249
249
249
249
249
248
248
248
248
248
248
248
248
248
248
248
248
246
246
246
246
246
246
246
246
246
246
246
246
246
246
246
246
246
246
246
246
246
246
246
246
245
245
245
245
245
245
245
245
245
245
245
245
245
245
245
245
245
245
245
245
245
245
245
245
245
245
245
245
245
245
244
244
244
244
244
244
244
244
244
243
243
243
243
243
243
243
243
243
244
244
244
244
244
244
244
244
244
244
244
244
244
244
244
244
244
244
244
244
244
244
244
244
244
244
244
244
244
244
244
244
244
244
244
244
244
244
244
244
244
244
244
244
244
244
244
244
242
242
242
242
242
242
242
242
242
243
243
243
243
243
243
243
243
243
244
244
244
244
244
244
250
250
250
245
245
245
243
243
243
245
245
245
243
243
243
240
240
240
242
242
242
249
249
249
244
244
244
243
243
243
234
234
234
228
228
228
188
188
188
82
82
82
3
3
3
4
4
4
16
21
1
25
27
22
29
29
41
24
23
39
16
14
25
10
9
15
5
4
12
1
0
13
13
0
12
29
9
11
61
44
14
100
86
13
141
130
12
180
172
11
214
207
13
233
228
15
255
255
24
255
251
20
252
244
13
247
238
9
244
235
6
244
235
8
247
238
11
249
240
15
240
231
6
244
235
8
249
240
11
253
245
14
253
246
10
248
241
3
242
235
0
238
232
0
246
244
11
232
229
14
207
201
19
174
165
24
134
121
27
90
74
23
48
31
13
23
5
5
20
10
9
17
10
4
12
8
0
15
13
1
22
24
13
25
30
24
17
22
25
6
11
17
16
12
13
3
0
0
20
16
17
111
107
108
210
206
207
254
250
251
245
241
242
226
222
223
246
246
246
241
241
241
238
238
238
243
243
243
251
251
251
253
253
253
247
247
247
239
239
239
244
244
244
244
244
244
244
244
244
244
244
244
244
244
244
244
244
244
244
244
244
244
244
244
244
244
244
244
244
244
244
244
244
244
244
244
244
244
244
244
244
244
244
244
244
244
244
244
244
244
244
244
244
244
244
244
244
244
244
244
244
244
244
244
244
244
244
244
244
244
244
244
244
244
244
244
244
244
244
244
244
244
244
244
244
244
244
244
244
244
244
244
244
244
244
244
244
244
244
244
244
244
243
243
243
243
243
243
243
243
243
242
242
242
242
242
242
242
242
242
244
244
244
244
244
244
244
244
244
244
244
244
244
244
244
244
244
244
244
244
244
244
244
244
243
243
243
243
243
243
243
243
243
243
243
243
243
243
243
243
243
243
243
243
243
243
243
243
244
244
244
244
244
244
243
243
243
243
243
243
243
243
243
242
242
242
242
242
242
242
242
242
242
242
242
242
242
242
242
242
242
242
242
242
242
242
242
242
242
242
242
242
242
242
242
242
242
242
242
247
247
247
247
247
247
248
248
248
248
248
248
249
249
249
249
249
249
249
249
249
249
249
249
248
248
248
248
248
248
249
249
249
249
249
249
249
249
249
250
250
250
250
250
250
250
250
250
249
249
249
249
249
249
249
249
249
248
248
248
248
248
248
248
248
248
247
247
247
247
247
247
246
246
246
246
246
246
246
246
246
246
246
246
246
246
246
246
246
246
246
246
246
246
246
246
245
245
245
245
245
245
245
245
245
245
245
245
245
245
245
245
245
245
245
245
245
245
245
245
245
245
245
245
245
245
244
244
244
244
244
244
244
244
244
243
243
243
243
243
243
243
243
243
244
244
244
244
244
244
244
244
244
244
244
244
244
244
244
244
244
244
244
244
244
244
244
244
244
244
244
244
244
244
244
244
244
244
244
244
244
244
244
244
244
244
244
244
244
244
244
244
242
242
242
242
242
242
242
242
242
243
243
243
243
243
243
243
243
243
244
244
244
244
244
244
240
240
240
243
243
243
243
243
243
240
240
240
238
238
238
242
242
242
250
250
250
255
255
255
247
247
247
237
237
237
248
248
248
254
254
254
247
247
247
246
246
246
210
210
210
141
141
141
49
44
50
12
7
13
3
0
0
15
13
1
32
35
8
25
27
3
14
14
4
14
12
17
33
31
68
24
20
55
11
4
38
4
0
26
7
0
21
13
0
21
18
0
23
22
0
23
22
0
0
45
25
1
80
63
19
116
104
28
142
135
28
153
151
14
154
156
0
151
155
0
153
150
17
155
152
23
155
150
32
147
140
36
130
120
31
104
92
18
79
65
2
64
49
0
14
0
0
14
0
0
13
1
5
10
1
6
8
2
12
10
8
19
18
17
31
23
25
40
24
18
0
16
8
0
23
14
17
35
27
40
25
18
34
1
0
5
1
2
0
22
24
10
77
75
76
171
169
170
248
246
247
255
253
254
241
239
240
249
247
248
254
252
253
244
242
243
255
255
255
251
251
251
247
247
247
249
249
249
253
253
253
253
253
253
245
245
245
238
238
238
244
244
244
244
244
244
244
244
244
244
244
244
244
244
244
244
244
244
244
244
244
244
244
244
244
244
244
244
244
244
244
244
244
244
244
244
244
244
244
244
244
244
244
244
244
244
244
244
244
244
244
244
244
244
244
244
244
244
244
244
244
244
244
244
244
244
244
244
244
244
244
244
244
244
244
244
244
244
244
244
244
244
244
244
244
244
244
244
244
244
244
244
244
244
244
244
244
244
244
244
244
244
243
243
243
243
243
243
243
243
243
242
242
242
242
242
242
242
242
242
244
244
244
244
244
244
244
244
244
244
244
244
244
244
244
244
244
244
244
244
244
244
244
244
243
243
243
243
243
243
243
243
243
243
243
243
243
243
243
243
243
243
243
243
243
243
243
243
244
244
244
244
244
244
243
243
243
243
243
243
243
243
243
242
242
242
242
242
242
242
242
242
242
242
242
242
242
242
242
242
242
242
242
242
242
242
242
242
242
242
242
242
242
242
242
242
242
242
242
247
247
247
247
247
247
248
248
248
248
248
248
249
249
249
249
249
249
249
249
249
249
249
249
248
248
248
248
248
248
248
248
248
249
249
249
249
249
249
249
249
249
250
250
250
250
250
250
249
249
249
249
249
249
248
248
248
248
248
248
247
247
247
247
247
247
247
247
247
247
247
247
245
245
245
245
245
245
245
245
245
245
245
245
245
245
245
245
245
245
245
245
245
245
245
245
245
245
245
245
245
245
245
245
245
245
245
245
245
245
245
245
245
245
245
245
245
245
245
245
245
245
245
245
245
245
244
244
244
244
244
244
244
244
244
243
243
243
243
243
243
243
243
243
244
244
244
244
244
244
244
244
244
244
244
244
244
244
244
244
244
244
244
244
244
244
244
244
244
244
244
244
244
244
244
244
244
244
244
244
244
244
244
244
244
244
244
244
244
244
244
244
242
242
242
242
242
242
242
242
242
243
243
243
243
243
243
243
243
243
244
244
244
244
244
244
241
241
241
247
247
247
248
248
248
242
242
242
240
240
240
242
242
242
240
240
240
234
234
234
235
235
235
235
235
235
238
238
238
237
237
237
237
237
237
248
248
248
255
255
255
252
252
252
251
245
247
211
208
191
147
146
118
74
70
58
12
3
20
4
0
21
4
0
5
24
21
6
12
22
24
7
17
18
6
14
16
13
19
17
23
28
24
30
31
26
29
28
23
24
23
18
30
25
32
23
17
29
13
6
22
4
0
19
3
0
23
3
0
28
4
0
35
7
0
39
4
0
28
6
0
28
9
0
29
11
2
29
12
4
27
12
5
23
11
4
20
10
4
18
19
19
17
25
25
23
29
31
30
23
29
29
13
21
24
7
16
21
7
18
24
10
21
27
47
29
71
22
5
39
7
0
12
6
0
2
28
21
15
87
83
74
163
159
150
218
215
208
254
254
254
242
242
242
238
238
238
246
246
246
248
248
248
242
242
242
239
239
239
244
244
244
244
244
244
242
242
242
240
240
240
239
239
239
241
241
241
242
242
242
243
243
243
243
243
243
244
244
244
244
244
244
244
244
244
244
244
244
244
244
244
244
244
244
244
244
244
244
244
244
244
244
244
244
244
244
244
244
244
244
244
244
244
244
244
244
244
244
244
244
244
244
244
244
244
244
244
244
244
244
244
244
244
244
244
244
244
244
244
244
244
244
244
244
244
244
244
244
244
244
244
244
244
244
244
244
244
244
244
244
244
244
244
244
244
244
244
244
244
244
244
244
244
244
244
244
244
244
243
243
243
243
243
243
243
243
243
242
242
242
242
242
242
242
242
242
244
244
244
244
244
244
244
244
244
244
244
244
244
244
244
244
244
244
244
244
244
244
244
244
243
243
243
243
243
243
243
243
243
243
243
243
243
243
243
243
243
243
243
243
243
243
243
243
244
244
244
244
244
244
243
243
243
243
243
243
243
243
243
242
242
242
242
242
242
242
242
242
242
242
242
242
242
242
242
242
242
242
242
242
242
242
242
242
242
242
242
242
242
242
242
242
242
242
242
247
247
247
247
247
247
248
248
248
248
248
248
249
249
249
249
249
249
249
249
249
249
249
249
247
247
247
248
248
248
248
248
248
248
248
248
249
249
249
249
249
249
249
249
249
250
250
250
248
248
248
248
248
248
248
248
248
248
248
248
247
247
247
247
247
247
246
246
246
246
246
246
245
245
245
245
245
245
245
245
245
245
245
245
245
245
245
245
245
245
245
245
245
245
245
245
245
245
245
245
245
245
245
245
245
245
245
245
245
245
245
245
245
245
245
245
245
245
245
245
245
245
245
245
245
245
244
244
244
244
244
244
244
244
244
243
243
243
243
243
243
243
243
243
244
244
244
244
244
244
244
244
244
244
244
244
244
244
244
244
244
244
244
244
244
244
244
244
244
244
244
244
244
244
244
244
244
244
244
244
244
244
244
244
244
244
244
244
244
244
244
244
242
242
242
242
242
242
242
242
242
243
243
243
243
243
243
243
243
243
244
244
244
244
244
244
255
255
255
252
252
252
244
244
244
238
238
238
241
241
241
248
248
248
250
250
250
247
247
247
227
227
227
253
253
253
248
248
248
243
243
243
255
255
255
249
249
249
233
233
233
248
248
248
234
241
223
251
251
255
254
250
255
238
233
255
218
216
219
185
183
168
123
121
109
64
58
62
1
5
0
1
5
0
3
7
0
8
11
2
14
15
10
19
19
19
21
21
23
22
21
26
27
32
0
24
28
1
20
23
2
17
19
8
17
17
15
19
18
26
23
21
35
25
22
41
33
36
15
29
32
13
23
25
11
19
20
12
19
19
17
23
22
27
29
27
38
33
31
44
20
22
34
19
22
31
17
20
27
11
15
18
5
9
8
0
4
0
0
2
0
0
3
0
4
0
9
66
61
67
148
144
143
197
194
189
226
222
219
247
244
251
254
250
255
245
239
255
232
232
232
249
249
249
252
252
252
235
235
235
231
231
231
246
246
246
255
255
255
250
250
250
248
248
248
246
246
246
243
243
243
241
241
241
239
239
239
239
239
239
240
240
240
241
241
241
244
244
244
244
244
244
244
244
244
244
244
244
244
244
244
244
244
244
244
244
244
244
244
244
244
244
244
244
244
244
244
244
244
244
244
244
244
244
244
244
244
244
244
244
244
244
244
244
244
244
244
244
244
244
244
244
244
244
244
244
244
244
244
244
244
244
244
244
244
244
244
244
244
244
244
244
244
244
244
244
244
244
244
244
244
244
244
244
244
244
244
244
244
244
244
244
244
244
244
244
244
244
243
243
243
243
243
243
243
243
243
242
242
242
242
242
242
242
242
242
244
244
244
244
244
244
244
244
244
244
244
244
244
244
244
244
244
244
244
244
244
244
244
244
243
243
243
243
243
243
243
243
243
243
243
243
243
243
243
243
243
243
243
243
243
243
243
243
244
244
244
244
244
244
243
243
243
243
243
243
243
243
243
242
242
242
242
242
242
242
242
242
242
242
242
242
242
242
242
242
242
242
242
242
242
242
242
242
242
242
242
242
242
242
242
242
242
242
242
247
247
247
247
247
247
248
248
248
248
248
248
249
249
249
249
249
249
249
249
249
249
249
249
247
247
247
247
247
247
248
248
248
248
248
248
248
248
248
249
249
249
249
249
249
249
249
249
248
248
248
248
248
248
248
248
248
247
247
247
247
247
247
247
247
247
246
246
246
246
246
246
245
245
245
245
245
245
245
245
245
245
245
245
245
245
245
245
245
245
245
245
245
245
245
245
245
245
245
245
245
245
245
245
245
245
245
245
245
245
245
245
245
245
245
245
245
245
245
245
245
245
245
245
245
245
244
244
244
244
244
244
244
244
244
243
243
243
243
243
243
243
243
243
244
244
244
244
244
244
244
244
244
244
244
244
244
244
244
244
244
244
244
244
244
244
244
244
244
244
244
244
244
244
244
244
244
244
244
244
244
244
244
244
244
244
244
244
244
244
244
244
242
242
242
242
242
242
242
242
242
243
243
243
243
243
243
243
243
243
244
244
244
244
244
244
233
233
233
241
241
241
250
250
250
253
253
253
248
248
248
241
241
241
240
240
240
243
243
243
236
236
236
241
241
241
252
252
252
247
247
247
233
233
233
244
244
244
251
251
251
233
233
233
241
255
251
238
252
239
234
247
229
235
245
236
243
246
253
248
247
255
246
243
255
242
239
250
226
212
229
197
185
199
149
137
151
90
80
91
39
32
40
11
4
11
3
0
2
5
1
2
1
0
14
1
0
12
4
1
12
9
7
12
14
13
11
19
19
11
22
23
9
24
25
9
9
6
17
11
8
17
13
10
19
14
11
18
11
9
14
7
5
8
1
0
2
1
0
0
3
5
0
0
2
0
1
1
0
13
10
5
57
53
50
116
110
110
169
160
161
199
190
193
229
235
209
235
242
226
241
246
242
240
243
250
236
239
248
236
240
239
244
250
236
251
255
236
244
244
244
243
243
243
245
245
245
248
248
248
246
246
246
242
242
242
244
244
244
249
249
249
253
253
253
248
248
248
242
242
242
239
239
239
240
240
240
243
243
243
247
247
247
249
249
249
244
244
244
244
244
244
244
244
244
244
244
244
244
244
244
244
244
244
244
244
244
244
244
244
244
244
244
244
244
244
244
244
244
244
244
244
244
244
244
244
244
244
244
244
244
244
244
244
244
244
244
244
244
244
244
244
244
244
244
244
244
244
244
244
244
244
244
244
244
244
244
244
244
244
244
244
244
244
244
244
244
244
244
244
244
244
244
244
244
244
244
244
244
244
244
244
244
244
244
244
244
244
243
243
243
243
243
243
243
243
243
242
242
242
242
242
242
242
242
242
244
244
244
244
244
244
244
244
244
244
244
244
244
244
244
244
244
244
244
244
244
244
244
244
243
243
243
243
243
243
243
243
243
243
243
243
243
243
243
243
243
243
243
243
243
243
243
243
244
244
244
244
244
244
243
243
243
243
243
243
243
243
243
242
242
242
242
242
242
242
242
242
242
242
242
242
242
242
242
242
242
242
242
242
242
242
242
242
242
242
242
242
242
242
242
242
242
242
242
245
245
245
245
245
245
246
246
246
246
246
246
246
246
246
247
247
247
247
247
247
247
247
247
247
247
247
247
247
247
247
247
247
247
247
247
247
247
247
247
247
247
247
247
247
247
247
247
247
247
247
247
247
247
247
247
247
246
246
246
246
246
246
246
246
246
245
245
245
245
245
245
245
245
245
245
245
245
245
245
245
245
245
245
245
245
245
245
245
245
245
245
245
245
245
245
245
245
245
245
245
245
245
245
245
245
245
245
245
245
245
245
245
245
245
245
245
245
245
245
244
244
244
244
244
244
244
244
244
244
244
244
244
244
244
244
244
244
244
244
244
244
244
244
243
243
243
243
243
243
243
243
243
243
243
243
243
243
243
243
243
243
243
243
243
243
243
243
243
243
243
243
243
243
243
243
243
243
243
243
243
243
243
243
243
243
243
243
243
243
243
243
243
243
243
243
243
243
243
243
243
243
243
243
243
243
243
243
243
243
243
243
243
243
243
243
244
244
244
244
244
244
244
244
244
244
244
244
244
244
244
244
244
244
244
244
244
244
244
244
244
244
244
244
244
244
244
244
244
244
244
244
244
244
244
244
244
244
244
244
244
244
244
244
244
244
244
244
244
244
244
244
244
244
244
244
244
244
244
244
244
244
244
244
244
244
244
244
238
238
238
245
245
245
254
254
254
255
255
255
248
248
248
228
228
228
205
205
205
191
191
191
156
156
156
142
142
142
119
119
119
93
93
93
71
71
71
55
55
55
47
47
47
43
43
43
44
44
44
40
40
40
39
39
39
48
48
48
68
68
68
99
99
99
129
129
129
148
148
148
174
174
174
191
191
191
216
216
216
240
240
240
253
253
253
254
254
254
248
248
248
242
242
242
244
244
244
244
244
244
244
244
244
244
244
244
244
244
244
244
244
244
244
244
244
244
244
244
244
244
244
244
244
244
244
244
244
244
244
244
244
244
244
244
244
244
244
244
244
244
244
244
244
244
244
244
244
244
244
244
244
244
244
244
244
244
244
244
244
244
244
244
244
244
244
244
246
246
246
246
246
246
246
246
246
245
245
245
245
245
245
244
244
244
244
244
244
244
244
244
245
245
245
245
245
245
245
245
245
245
245
245
245
245
245
245
245
245
245
245
245
245
245
245
245
245
245
245
245
245
246
246
246
246
246
246
246
246
246
247
247
247
247
247
247
247
247
247
245
245
245
245
245
245
245
245
245
245
245
245
245
245
245
245
245
245
245
245
245
245
245
245
243
243
243
243
243
243
243
243
243
243
243
243
243
243
243
243
243
243
243
243
243
243
243
243
244
244
244
244
244
244
244
244
244
244
244
244
244
244
244
244
244
244
244
244
244
244
244
244
243
243
243
243
243
243
243
243
243
243
243
243
243
243
243
243
243
243
243
243
243
243
243
243
243
243
243
243
243
243
243
243
243
243
243
243
243
243
243
243
243
243
243
243
243
243
243
243
244
244
244
244
244
244
243
243
243
243
243
243
243
243
243
242
242
242
242
242
242
242
242
242
240
240
240
245
245
245
245
245
245
245
245
245
246
246
246
246
246
246
247
247
247
247
247
247
247
247
247
247
247
247
247
247
247
247
247
247
247
247
247
247
247
247
247
247
247
247
247
247
247
247
247
247
247
247
247
247
247
247
247
247
246
246
246
246
246
246
245
245
245
245
245
245
245
245
245
245
245
245
245
245
245
245
245
245
245
245
245
245
245
245
245
245
245
245
245
245
245
245
245
245
245
245
245
245
245
245
245
245
245
245
245
245
245
245
245
245
245
245
245
245
245
245
245
244
244
244
244
244
244
244
244
244
244
244
244
244
244
244
244
244
244
244
244
244
244
244
244
243
243
243
243
243
243
243
243
243
243
243
243
243
243
243
243
243
243
243
243
243
243
243
243
243
243
243
243
243
243
243
243
243
243
243
243
243
243
243
243
243
243
243
243
243
243
243
243
243
243
243
243
243
243
243
243
243
243
243
243
243
243
243
243
243
243
243
243
243
243
243
243
244
244
244
244
244
244
244
244
244
244
244
244
244
244
244
244
244
244
244
244
244
244
244
244
244
244
244
244
244
244
244
244
244
244
244
244
244
244
244
244
244
244
244
244
244
244
244
244
244
244
244
244
244
244
244
244
244
244
244
244
244
244
244
244
244
244
244
244
244
244
244
244
232
232
232
236
236
236
241
241
241
246
246
246
249
249
249
250
250
250
249
249
249
248
248
248
255
255
255
252
252
252
248
248
248
246
246
246
246
246
246
250
250
250
255
255
255
255
255
255
255
255
255
253
253
253
250
250
250
249
249
249
250
250
250
253
253
253
255
255
255
255
255
255
245
245
245
247
247
247
251
251
251
253
253
253
253
253
253
250
250
250
247
247
247
245
245
245
244
244
244
244
244
244
244
244
244
244
244
244
244
244
244
244
244
244
244
244
244
244
244
244
244
244
244
244
244
244
244
244
244
244
244
244
244
244
244
244
244
244
244
244
244
244
244
244
244
244
244
244
244
244
244
244
244
244
244
244
244
244
244
244
244
244
244
244
244
244
244
244
246
246
246
246
246
246
246
246
246
245
245
245
245
245
245
244
244
244
244
244
244
244
244
244
245
245
245
245
245
245
245
245
245
245
245
245
245
245
245
245
245
245
245
245
245
245
245
245
245
245
245
245
245
245
246
246
246
246
246
246
246
246
246
247
247
247
247
247
247
247
247
247
245
245
245
245
245
245
245
245
245
245
245
245
245
245
245
245
245
245
245
245
245
245
245
245
243
243
243
243
243
243
243
243
243
243
243
243
243
243
243
243
243
243
243
243
243
243
243
243
244
244
244
244
244
244
244
244
244
244
244
244
244
244
244
244
244
244
244
244
244
244
244
244
243
243
243
243
243
243
243
243
243
243
243
243
243
243
243
243
243
243
243
243
243
243
243
243
243
243
243
243
243
243
243
243
243
243
243
243
243
243
243
243
243
243
243
243
243
243
243
243
244
244
244
244
244
244
243
243
243
243
243
243
243
243
243
242
242
242
242
242
242
242
242
242
241
241
241
245
245
245
245
245
245
245
245
245
245
245
245
246
246
246
246
246
246
247
247
247
247
247
247
247
247
247
247
247
247
247
247
247
247
247
247
247
247
247
247
247
247
247
247
247
247
247
247
247
247
247
247
247
247
246
246
246
246
246
246
245
245
245
245
245
245
245
245
245
245
245
245
245
245
245
245
245
245
245
245
245
245
245
245
245
245
245
245
245
245
245
245
245
245
245
245
245
245
245
245
245
245
245
245
245
245
245
245
245
245
245
245
245
245
245
245
245
245
245
245
244
244
244
244
244
244
244
244
244
244
244
244
244
244
244
244
244
244
244
244
244
244
244
244
243
243
243
243
243
243
243
243
243
243
243
243
243
243
243
243
243
243
243
243
243
243
243
243
243
243
243
243
243
243
243
243
243
243
243
243
243
243
243
243
243
243
243
243
243
243
243
243
243
243
243
243
243
243
243
243
243
243
243
243
243
243
243
243
243
243
243
243
243
243
243
243
244
244
244
244
244
244
244
244
244
244
244
244
244
244
244
244
244
244
244
244
244
244
244
244
244
244
244
244
244
244
244
244
244
244
244
244
244
244
244
244
244
244
244
244
244
244
244
244
244
244
244
244
244
244
244
244
244
244
244
244
244
244
244
244
244
244
244
244
244
244
244
244
255
255
255
252
252
252
248
248
248
245
245
245
245
245
245
247
247
247
251
251
251
254
254
254
245
245
245
245
245
245
245
245
245
245
245
245
245
245
245
245
245
245
246
246
246
246
246
246
240
240
240
242
242
242
245
245
245
247
247
247
246
246
246
243
243
243
238
238
238
235
235
235
245
245
245
243
243
243
240
240
240
238
238
238
240
240
240
244
244
244
249
249
249
252
252
252
244
244
244
244
244
244
244
244
244
244
244
244
244
244
244
244
244
244
244
244
244
244
244
244
244
244
244
244
244
244
244
244
244
244
244
244
244
244
244
244
244
244
244
244
244
244
244
244
244
244
244
244
244
244
244
244
244
244
244
244
244
244
244
244
244
244
244
244
244
244
244
244
246
246
246
246
246
246
246
246
246
245
245
245
245
245
245
244
244
244
244
244
244
244
244
244
245
245
245
245
245
245
245
245
245
245
245
245
245
245
245
245
245
245
245
245
245
245
245
245
245
245
245
245
245
245
246
246
246
246
246
246
246
246
246
247
247
247
247
247
247
247
247
247
245
245
245
245
245
245
245
245
245
245
245
245
245
245
245
245
245
245
245
245
245
245
245
245
243
243
243
243
243
243
243
243
243
243
243
243
243
243
243
243
243
243
243
243
243
243
243
243
244
244
244
244
244
244
244
244
244
244
244
244
244
244
244
244
244
244
244
244
244
244
244
244
243
243
243
243
243
243
243
243
243
243
243
243
243
243
243
243
243
243
243
243
243
243
243
243
243
243
243
243
243
243
243
243
243
243
243
243
243
243
243
243
243
243
243
243
243
243
243
243
244
244
244
244
244
244
243
243
243
243
243
243
243
243
243
242
242
242
242
242
242
242
242
242
241
241
241
244
244
244
244
244
244
245
245
245
245
245
245
245
245
245
246
246
246
246
246
246
246
246
246
246
246
246
246
246
246
246
246
246
246
246
246
246
246
246
246
246
246
246
246
246
246
246
246
246
246
246
246
246
246
246
246
246
245
245
245
245
245
245
245
245
245
244
244
244
244
244
244
244
244
244
244
244
244
244
244
244
244
244
244
244
244
244
244
244
244
244
244
244
244
244
244
245
245
245
245
245
245
245
245
245
245
245
245
245
245
245
245
245
245
245
245
245
245
245
245
244
244
244
244
244
244
244
244
244
244
244
244
244
244
244
244
244
244
244
244
244
244
244
244
243
243
243
243
243
243
243
243
243
243
243
243
243
243
243
243
243
243
243
243
243
243
243
243
243
243
243
243
243
243
243
243
243
243
243
243
243
243
243
243
243
243
243
243
243
243
243
243
243
243
243
243
243
243
243
243
243
243
243
243
243
243
243
243
243
243
243
243
243
243
243
243
244
244
244
244
244
244
244
244
244
244
244
244
244
244
244
244
244
244
244
244
244
244
244
244
244
244
244
244
244
244
244
244
244
244
244
244
244
244
244
244
244
244
244
244
244
244
244
244
244
244
244
244
244
244
244
244
244
244
244
244
244
244
244
244
244
244
244
244
244
244
244
244
247
247
247
247
247
247
246
246
246
246
246
246
245
245
245
245
245
245
244
244
244
244
244
244
248
248
248
249
249
249
251
251
251
251
251
251
249
249
249
244
244
244
240
240
240
237
237
237
246
246
246
246
246
246
246
246
246
246
246
246
246
246
246
246
246
246
246
246
246
246
246
246
243
243
243
243
243
243
243
243
243
243
243
243
243
243
243
244
244
244
244
244
244
244
244
244
245
245
245
245
245
245
245
245
245
245
245
245
245
245
245
245
245
245
245
245
245
245
245
245
245
245
245
245
245
245
245
245
245
245
245
245
245
245
245
245
245
245
245
245
245
245
245
245
245
245
245
245
245
245
245
245
245
245
245
245
245
245
245
245
245
245
245
245
245
245
245
245
246
246
246
246
246
246
246
246
246
245
245
245
245
245
245
244
244
244
244
244
244
244
244
244
245
245
245
245
245
245
245
245
245
245
245
245
245
245
245
245
245
245
245
245
245
245
245
245
245
245
245
245
245
245
246
246
246
246
246
246
246
246
246
247
247
247
247
247
247
247
247
247
245
245
245
245
245
245
245
245
245
245
245
245
245
245
245
245
245
245
245
245
245
245
245
245
244
244
244
244
244
244
244
244
244
244
244
244
244
244
244
244
244
244
244
244
244
244
244
244
244
244
244
244
244
244
244
244
244
244
244
244
244
244
244
244
244
244
244
244
244
244
244
244
243
243
243
243
243
243
243
243
243
243
243
243
243
243
243
243
243
243
243
243
243
243
243
243
243
243
243
243
243
243
243
243
243
243
243
243
243
243
243
243
243
243
243
243
243
243
243
243
244
244
244
244
244
244
243
243
243
243
243
243
243
243
243
242
242
242
242
242
242
242
242
242
241
241
241
244
244
244
244
244
244
244
244
244
245
245
245
245
245
245
245
245
245
246
246
246
246
246
246
246
246
246
246
246
246
246
246
246
246
246
246
246
246
246
246
246
246
246
246
246
246
246
246
246
246
246
246
246
246
245
245
245
245
245
245
245
245
245
244
244
244
244
244
244
244
244
244
244
244
244
244
244
244
244
244
244
244
244
244
244
244
244
244
244
244
244
244
244
244
244
244
245
245
245
245
245
245
245
245
245
245
245
245
245
245
245
245
245
245
245
245
245
245
245
245
244
244
244
244
244
244
244
244
244
244
244
244
244
244
244
244
244
244
244
244
244
244
244
244
243
243
243
243
243
243
243
243
243
243
243
243
243
243
243
243
243
243
243
243
243
243
243
243
243
243
243
243
243
243
243
243
243
243
243
243
243
243
243
243
243
243
243
243
243
243
243
243
243
243
243
243
243
243
243
243
243
243
243
243
243
243
243
243
243
243
243
243
243
243
243
243
244
244
244
244
244
244
244
244
244
244
244
244
244
244
244
244
244
244
244
244
244
244
244
244
244
244
244
244
244
244
244
244
244
244
244
244
244
244
244
244
244
244
244
244
244
244
244
244
244
244
244
244
244
244
244
244
244
244
244
244
244
244
244
244
244
244
244
244
244
244
244
244
236
236
236
239
239
239
243
243
243
246
246
246
247
247
247
246
246
246
244
244
244
242
242
242
231
231
231
235
235
235
241
241
241
246
246
246
248
248
248
247
247
247
244
244
244
242
242
242
252
252
252
249
249
249
246
246
246
243
243
243
242
242
242
243
243
243
246
246
246
248
248
248
250
250
250
251
251
251
253
253
253
253
253
253
251
251
251
246
246
246
241
241
241
238
238
238
245
245
245
245
245
245
245
245
245
245
245
245
245
245
245
245
245
245
245
245
245
245
245
245
245
245
245
245
245
245
245
245
245
245
245
245
245
245
245
245
245
245
245
245
245
245
245
245
245
245
245
245
245
245
245
245
245
245
245
245
245
245
245
245
245
245
245
245
245
245
245
245
246
246
246
246
246
246
246
246
246
245
245
245
245
245
245
244
244
244
244
244
244
244
244
244
245
245
245
245
245
245
245
245
245
245
245
245
245
245
245
245
245
245
245
245
245
245
245
245
245
245
245
245
245
245
246
246
246
246
246
246
246
246
246
247
247
247
247
247
247
247
247
247
245
245
245
245
245
245
245
245
245
245
245
245
245
245
245
245
245
245
245
245
245
245
245
245
244
244
244
244
244
244
244
244
244
244
244
244
244
244
244
244
244
244
244
244
244
244
244
244
244
244
244
244
244
244
244
244
244
244
244
244
244
244
244
244
244
244
244
244
244
244
244
244
243
243
243
243
243
243
243
243
243
243
243
243
243
243
243
243
243
243
243
243
243
243
243
243
243
243
243
243
243
243
243
243
243
243
243
243
243
243
243
243
243
243
243
243
243
243
243
243
244
244
244
244
244
244
243
243
243
243
243
243
243
243
243
242
242
242
242
242
242
242
242
242
242
242
242
243
243
243
243
243
243
244
244
244
244
244
244
245
245
245
245
245
245
245
245
245
245
245
245
245
245
245
245
245
245
245
245
245
245
245
245
245
245
245
245
245
245
245
245
245
245
245
245
245
245
245
245
245
245
245
245
245
245
245
245
244
244
244
244
244
244
243
243
243
243
243
243
243
243
243
243
243
243
243
243
243
243
243
243
243
243
243
243
243
243
243
243
243
243
243
243
245
245
245
245
245
245
245
245
245
245
245
245
245
245
245
245
245
245
245
245
245
245
245
245
244
244
244
244
244
244
244
244
244
244
244
244
244
244
244
244
244
244
244
244
244
244
244
244
243
243
243
243
243
243
243
243
243
243
243
243
243
243
243
243
243
243
243
243
243
243
243
243
243
243
243
243
243
243
243
243
243
243
243
243
243
243
243
243
243
243
243
243
243
243
243
243
243
243
243
243
243
243
243
243
243
243
243
243
243
243
243
243
243
243
243
243
243
243
243
243
244
244
244
244
244
244
244
244
244
244
244
244
244
244
244
244
244
244
244
244
244
244
244
244
244
244
244
244
244
244
244
244
244
244
244
244
244
244
244
244
244
244
244
244
244
244
244
244
244
244
244
244
244
244
244
244
244
244
244
244
244
244
244
244
244
244
244
244
244
244
244
244
250
250
250
249
249
249
248
248
248
247
247
247
245
245
245
244
244
244
243
243
243
242
242
242
247
247
247
249
249
249
252
252
252
254
254
254
254
254
254
251
251
251
247
247
247
245
245
245
244
244
244
244
244
244
244
244
244
244
244
244
245
245
245
245
245
245
245
245
245
246
246
246
243
243
243
243
243
243
244
244
244
244
244
244
245
245
245
246
246
246
246
246
246
246
246
246
246
246
246
246
246
246
246
246
246
246
246
246
246
246
246
246
246
246
246
246
246
246
246
246
246
246
246
246
246
246
246
246
246
246
246
246
246
246
246
246
246
246
246
246
246
246
246
246
246
246
246
246
246
246
246
246
246
246
246
246
246
246
246
246
246
246
246
246
246
246
246
246
246
246
246
246
246
246
246
246
246
245
245
245
245
245
245
244
244
244
244
244
244
244
244
244
245
245
245
245
245
245
245
245
245
245
245
245
245
245
245
245
245
245
245
245
245
245
245
245
245
245
245
245
245
245
246
246
246
246
246
246
246
246
246
247
247
247
247
247
247
247
247
247
245
245
245
245
245
245
245
245
245
245
245
245
245
245
245
245
245
245
245
245
245
245
245
245
245
245
245
245
245
245
245
245
245
245
245
245
245
245
245
245
245
245
245
245
245
245
245
245
244
244
244
244
244
244
244
244
244
244
244
244
244
244
244
244
244
244
244
244
244
244
244
244
243
243
243
243
243
243
243
243
243
243
243
243
243
243
243
243
243
243
243
243
243
243
243
243
243
243
243
243
243
243
243
243
243
243
243
243
243
243
243
243
243
243
243
243
243
243
243
243
244
244
244
244
244
244
243
243
243
243
243
243
243
243
243
242
242
242
242
242
242
242
242
242
242
242
242
243
243
243
243
243
243
243
243
243
244
244
244
244
244
244
245
245
245
245
245
245
245
245
245
245
245
245
245
245
245
245
245
245
245
245
245
245
245
245
245
245
245
245
245
245
245
245
245
245
245
245
245
245
245
245
245
245
244
244
244
244
244
244
243
243
243
243
243
243
243
243
243
243
243
243
243
243
243
243
243
243
243
243
243
243
243
243
243
243
243
243
243
243
243
243
243
245
245
245
245
245
245
245
245
245
245
245
245
245
245
245
245
245
245
245
245
245
245
245
245
244
244
244
244
244
244
244
244
244
244
244
244
244
244
244
244
244
244
244
244
244
244
244
244
243
243
243
243
243
243
243
243
243
243
243
243
243
243
243
243
243
243
243
243
243
243
243
243
243
243
243
243
243
243
243
243
243
243
243
243
243
243
243
243
243
243
243
243
243
243
243
243
243
243
243
243
243
243
243
243
243
243
243
243
243
243
243
243
243
243
243
243
243
243
243
243
244
244
244
244
244
244
244
244
244
244
244
244
244
244
244
244
244
244
244
244
244
244
244
244
244
244
244
244
244
244
244
244
244
244
244
244
244
244
244
244
244
244
244
244
244
244
244
244
244
244
244
244
244
244
244
244
244
244
244
244
244
244
244
244
244
244
244
244
244
244
244
244
245
245
245
245
245
245
245
245
245
245
245
245
246
246
246
248
248
248
250
250
250
251
251
251
245
245
245
245
245
245
247
247
247
247
247
247
247
247
247
246
246
246
244
244
244
243
243
243
247
247
247
247
247
247
247
247
247
245
245
245
243
243
243
241
241
241
238
238
238
237
237
237
253
253
253
251
251
251
250
250
250
248
248
248
247
247
247
246
246
246
247
247
247
247
247
247
246
246
246
246
246
246
246
246
246
246
246
246
246
246
246
246
246
246
246
246
246
246
246
246
246
246
246
246
246
246
246
246
246
246
246
246
246
246
246
246
246
246
246
246
246
246
246
246
246
246
246
246
246
246
246
246
246
246
246
246
246
246
246
246
246
246
246
246
246
246
246
246
246
246
246
246
246
246
246
246
246
245
245
245
245
245
245
244
244
244
244
244
244
244
244
244
245
245
245
245
245
245
245
245
245
245
245
245
245
245
245
245
245
245
245
245
245
245
245
245
245
245
245
245
245
245
246
246
246
246
246
246
246
246
246
247
247
247
247
247
247
247
247
247
245
245
245
245
245
245
245
245
245
245
245
245
245
245
245
245
245
245
245
245
245
245
245
245
245
245
245
245
245
245
245
245
245
245
245
245
245
245
245
245
245
245
245
245
245
245
245
245
244
244
244
244
244
244
244
244
244
244
244
244
244
244
244
244
244
244
244
244
244
244
244
244
243
243
243
243
243
243
243
243
243
243
243
243
243
243
243
243
243
243
243
243
243
243
243
243
243
243
243
243
243
243
243
243
243
243
243
243
243
243
243
243
243
243
243
243
243
243
243
243
244
244
244
244
244
244
243
243
243
243
243
243
243
243
243
242
242
242
242
242
242
242
242
242
243
243
243
243
243
243
243
243
243
243
243
243
244
244
244
244
244
244
244
244
244
245
245
245
245
245
245
245
245
245
245
245
245
245
245
245
245
245
245
245
245
245
245
245
245
245
245
245
245
245
245
245
245
245
245
245
245
244
244
244
244
244
244
244
244
244
243
243
243
243
243
243
243
243
243
243
243
243
243
243
243
243
243
243
243
243
243
243
243
243
243
243
243
243
243
243
243
243
243
245
245
245
245
245
245
245
245
245
245
245
245
245
245
245
245
245
245
245
245
245
245
245
245
244
244
244
244
244
244
244
244
244
244
244
244
244
244
244
244
244
244
244
244
244
244
244
244
243
243
243
243
243
243
243
243
243
243
243
243
243
243
243
243
243
243
243
243
243
243
243
243
243
243
243
243
243
243
243
243
243
243
243
243
243
243
243
243
243
243
243
243
243
243
243
243
243
243
243
243
243
243
243
243
243
243
243
243
243
243
243
243
243
243
243
243
243
243
243
243
244
244
244
244
244
244
244
244
244
244
244
244
244
244
244
244
244
244
244
244
244
244
244
244
244
244
244
244
244
244
244
244
244
244
244
244
244
244
244
244
244
244
244
244
244
244
244
244
244
244
244
244
244
244
244
244
244
244
244
244
244
244
244
244
244
244
244
244
244
244
244
244
241
241
241
243
243
243
245
245
245
246
246
246
246
246
246
244
244
244
242
242
242
240
240
240
247
247
247
247
247
247
246
246
246
245
245
245
244
244
244
244
244
244
244
244
244
244
244
244
245
245
245
244
244
244
243
243
243
242
242
242
244
244
244
247
247
247
250
250
250
252
252
252
241
241
241
243
243
243
246
246
246
249
249
249
250
250
250
249
249
249
247
247
247
246
246
246
246
246
246
246
246
246
246
246
246
246
246
246
246
246
246
246
246
246
246
246
246
246
246
246
246
246
246
246
246
246
246
246
246
246
246
246
246
246
246
246
246
246
246
246
246
246
246
246
246
246
246
246
246
246
246
246
246
246
246
246
246
246
246
246
246
246
246
246
246
246
246
246
246
246
246
246
246
246
246
246
246
245
245
245
245
245
245
244
244
244
244
244
244
244
244
244
245
245
245
245
245
245
245
245
245
245
245
245
245
245
245
245
245
245
245
245
245
245
245
245
245
245
245
245
245
245
246
246
246
246
246
246
246
246
246
247
247
247
247
247
247
247
247
247
245
245
245
245
245
245
245
245
245
245
245
245
245
245
245
245
245
245
245
245
245
245
245
245
245
245
245
245
245
245
245
245
245
245
245
245
245
245
245
245
245
245
245
245
245
245
245
245
244
244
244
244
244
244
244
244
244
244
244
244
244
244
244
244
244
244
244
244
244
244
244
244
243
243
243
243
243
243
243
243
243
243
243
243
243
243
243
243
243
243
243
243
243
243
243
243
243
243
243
243
243
243
243
243
243
243
243
243
243
243
243
243
243
243
243
243
243
243
243
243
244
244
244
244
244
244
243
243
243
243
243
243
243
243
243
242
242
242
242
242
242
242
242
242
243
243
243
244
244
244
244
244
244
244
244
244
244
244
244
244
244
244
244
244
244
244
244
244
244
244
244
245
245
245
245
245
245
245
245
245
245
245
245
245
245
245
245
245
245
245
245
245
245
245
245
246
246
246
246
246
246
245
245
245
244
244
244
243
243
243
243
243
243
242
242
242
242
242
242
243
243
243
243
243
243
243
243
243
243
243
243
243
243
243
243
243
243
243
243
243
243
243
243
244
244
244
244
244
244
243
243
243
243
243
243
243
243
243
242
242
242
242
242
242
242
242
242
244
244
244
244
244
244
243
243
243
243
243
243
243
243
243
242
242
242
242
242
242
242
242
242
243
243
243
243
243
243
243
243
243
243
243
243
243
243
243
243
243
243
243
243
243
243
243
243
243
243
243
243
243
243
243
243
243
243
243
243
243
243
243
243
243
243
243
243
243
243
243
243
243
243
243
243
243
243
243
243
243
243
243
243
243
243
243
243
243
243
243
243
243
243
243
243
244
244
244
244
244
244
244
244
244
244
244
244
244
244
244
244
244
244
244
244
244
244
244
244
244
244
244
244
244
244
244
244
244
244
244
244
244
244
244
244
244
244
244
244
244
244
244
244
244
244
244
244
244
244
244
244
244
244
244
244
244
244
244
244
244
244
244
244
244
244
244
244
244
244
244
244
244
244
244
244
244
245
245
245
245
245
245
246
246
246
246
246
246
246
246
246
245
245
245
245
245
245
245
245
245
246
246
246
246
246
246
247
247
247
247
247
247
247
247
247
247
247
247
247
247
247
247
247
247
247
247
247
247
247
247
247
247
247
247
247
247
247
247
247
247
247
247
247
247
247
247
247
247
247
247
247
247
247
247
247
247
247
247
247
247
247
247
247
247
247
247
247
247
247
246
246
246
245
245
245
244
244
244
244
244
244
243
243
243
243
243
243
246
246
246
246
246
246
246
246
246
246
246
246
246
246
246
246
246
246
246
246
246
246
246
246
246
246
246
246
246
246
246
246
246
246
246
246
246
246
246
246
246
246
246
246
246
246
246
246
244
244
244
244
244
244
244
244
244
244
244
244
244
244
244
244
244
244
244
244
244
244
244
244
244
244
244
244
244
244
244
244
244
244
244
244
244
244
244
244
244
244
244
244
244
244
244
244
245
245
245
245
245
245
245
245
245
245
245
245
245
245
245
245
245
245
245
245
245
245
245
245
246
246
246
246
246
246
246
246
246
245
245
245
245
245
245
244
244
244
244
244
244
244
244
244
244
244
244
244
244
244
244
244
244
244
244
244
244
244
244
244
244
244
244
244
244
244
244
244
244
244
244
244
244
244
244
244
244
244
244
244
244
244
244
244
244
244
244
244
244
244
244
244
244
244
244
244
244
244
243
243
243
243
243
243
242
242
242
242
242
242
242
242
242
242
242
242
243
243
243
243
243
243
243
243
243
243
243
243
243
243
243
243
243
243
243
243
243
243
243
243
243
243
243
243
243
243
243
243
243
243
243
243
243
243
243
243
243
243
243
243
243
243
243
243
242
242
242
244
244
244
244
244
244
244
244
244
244
244
244
244
244
244
244
244
244
244
244
244
244
244
244
245
245
245
245
245
245
245
245
245
245
245
245
245
245
245
245
245
245
245
245
245
245
245
245
246
246
246
246
246
246
245
245
245
244
244
244
243
243
243
243
243
243
242
242
242
242
242
242
243
243
243
243
243
243
243
243
243
243
243
243
243
243
243
243
243
243
243
243
243
243
243
243
244
244
244
244
244
244
243
243
243
243
243
243
243
243
243
242
242
242
242
242
242
242
242
242
244
244
244
244
244
244
243
243
243
243
243
243
243
243
243
242
242
242
242
242
242
242
242
242
243
243
243
243
243
243
243
243
243
243
243
243
243
243
243
243
243
243
243
243
243
243
243
243
243
243
243
243
243
243
243
243
243
243
243
243
243
243
243
243
243
243
243
243
243
243
243
243
243
243
243
243
243
243
243
243
243
243
243
243
243
243
243
243
243
243
243
243
243
243
243
243
244
244
244
244
244
244
244
244
244
244
244
244
244
244
244
244
244
244
244
244
244
244
244
244
244
244
244
244
244
244
244
244
244
244
244
244
244
244
244
244
244
244
244
244
244
244
244
244
244
244
244
244
244
244
244
244
244
244
244
244
244
244
244
244
244
244
244
244
244
244
244
244
244
244
244
244
244
244
244
244
244
245
245
245
245
245
245
246
246
246
246
246
246
246
246
246
245
245
245
245
245
245
246
246
246
246
246
246
246
246
246
247
247
247
247
247
247
247
247
247
247
247
247
247
247
247
247
247
247
247
247
247
247
247
247
247
247
247
247
247
247
247
247
247
247
247
247
247
247
247
247
247
247
247
247
247
247
247
247
247
247
247
247
247
247
247
247
247
247
247
247
247
247
247
246
246
246
246
246
246
245
245
245
244
244
244
243
243
243
243
243
243
246
246
246
246
246
246
246
246
246
246
246
246
246
246
246
246
246
246
246
246
246
246
246
246
246
246
246
246
246
246
246
246
246
246
246
246
246
246
246
246
246
246
246
246
246
246
246
246
244
244
244
244
244
244
244
244
244
244
244
244
244
244
244
244
244
244
244
244
244
244
244
244
244
244
244
244
244
244
244
244
244
244
244
244
244
244
244
244
244
244
244
244
244
244
244
244
245
245
245
245
245
245
245
245
245
245
245
245
245
245
245
245
245
245
245
245
245
245
245
245
246
246
246
246
246
246
246
246
246
245
245
245
245
245
245
244
244
244
244
244
244
244
244
244
244
244
244
244
244
244
244
244
244
244
244
244
244
244
244
244
244
244
244
244
244
244
244
244
244
244
244
244
244
244
244
244
244
244
244
244
244
244
244
244
244
244
244
244
244
244
244
244
244
244
244
244
244
244
243
243
243
243
243
243
243
243
243
242
242
242
242
242
242
242
242
242
243
243
243
243
243
243
243
243
243
243
243
243
243
243
243
243
243
243
243
243
243
243
243
243
243
243
243
243
243
243
243
243
243
243
243
243
243
243
243
243
243
243
243
243
243
243
243
243
242
242
242
244
244
244
244
244
244
244
244
244
244
244
244
244
244
244
244
244
244
244
244
244
244
244
244
245
245
245
245
245
245
245
245
245
245
245
245
245
245
245
245
245
245
245
245
245
245
245
245
246
246
246
246
246
246
245
245
245
244
244
244
243
243
243
243
243
243
242
242
242
242
242
242
243
243
243
243
243
243
243
243
243
243
243
243
243
243
243
243
243
243
243
243
243
243
243
243
244
244
244
244
244
244
243
243
243
243
243
243
243
243
243
242
242
242
242
242
242
242
242
242
244
244
244
244
244
244
243
243
243
243
243
243
243
243
243
242
242
242
242
242
242
242
242
242
243
243
243
243
243
243
243
243
243
243
243
243
243
243
243
243
243
243
243
243
243
243
243
243
243
243
243
243
243
243
243
243
243
243
243
243
243
243
243
243
243
243
243
243
243
243
243
243
243
243
243
243
243
243
243
243
243
243
243
243
243
243
243
243
243
243
243
243
243
243
243
243
244
244
244
244
244
244
244
244
244
244
244
244
244
244
244
244
244
244
244
244
244
244
244
244
244
244
244
244
244
244
244
244
244
244
244
244
244
244
244
244
244
244
244
244
244
244
244
244
244
244
244
244
244
244
244
244
244
244
244
244
244
244
244
244
244
244
244
244
244
244
244
244
244
244
244
244
244
244
244
244
244
245
245
245
245
245
245
246
246
246
246
246
246
246
246
246
246
246
246
246
246
246
246
246
246
246
246
246
247
247
247
247
247
247
247
247
247
248
248
248
248
248
248
248
248
248
248
248
248
248
248
248
248
248
248
248
248
248
248
248
248
248
248
248
248
248
248
248
248
248
248
248
248
248
248
248
248
248
248
248
248
248
248
248
248
248
248
248
248
248
248
247
247
247
247
247
247
246
246
246
245
245
245
244
244
244
244
244
244
243
243
243
247
247
247
247
247
247
247
247
247
247
247
247
247
247
247
247
247
247
247
247
247
247
247
247
247
247
247
247
247
247
247
247
247
247
247
247
247
247
247
247
247
247
247
247
247
247
247
247
245
245
245
245
245
245
245
245
245
245
245
245
245
245
245
245
245
245
245
245
245
245
245
245
245
245
245
245
245
245
245
245
245
245
245
245
245
245
245
245
245
245
245
245
245
245
245
245
245
245
245
245
245
245
245
245
245
245
245
245
245
245
245
245
245
245
245
245
245
245
245
245
246
246
246
246
246
246
246
246
246
245
245
245
245
245
245
244
244
244
244
244
244
244
244
244
244
244
244
244
244
244
244
244
244
244
244
244
244
244
244
244
244
244
244
244
244
244
244
244
244
244
244
244
244
244
244
244
244
244
244
244
244
244
244
244
244
244
244
244
244
244
244
244
244
244
244
244
244
244
244
244
244
243
243
243
243
243
243
243
243
243
242
242
242
242
242
242
243
243
243
243
243
243
243
243
243
243
243
243
243
243
243
243
243
243
243
243
243
243
243
243
243
243
243
243
243
243
243
243
243
243
243
243
243
243
243
243
243
243
243
243
243
243
243
243
242
242
242
244
244
244
244
244
244
244
244
244
244
244
244
244
244
244
244
244
244
244
244
244
244
244
244
245
245
245
245
245
245
245
245
245
245
245
245
245
245
245
245
245
245
245
245
245
245
245
245
246
246
246
246
246
246
245
245
245
244
244
244
243
243
243
243
243
243
242
242
242
242
242
242
243
243
243
243
243
243
243
243
243
243
243
243
243
243
243
243
243
243
243
243
243
243
243
243
244
244
244
244
244
244
243
243
243
243
243
243
243
243
243
242
242
242
242
242
242
242
242
242
244
244
244
244
244
244
243
243
243
243
243
243
243
243
243
242
242
242
242
242
242
242
242
242
243
243
243
243
243
243
243
243
243
243
243
243
243
243
243
243
243
243
243
243
243
243
243
243
243
243
243
243
243
243
243
243
243
243
243
243
243
243
243
243
243
243
243
243
243
243
243
243
243
243
243
243
243
243
243
243
243
243
243
243
243
243
243
243
243
243
243
243
243
243
243
243
244
244
244
244
244
244
244
244
244
244
244
244
244
244
244
244
244
244
244
244
244
244
244
244
244
244
244
244
244
244
244
244
244
244
244
244
244
244
244
244
244
244
244
244
244
244
244
244
245
245
245
245
245
245
245
245
245
245
245
245
245
245
245
245
245
245
245
245
245
245
245
245
244
244
244
244
244
244
244
244
244
245
245
245
245
245
245
246
246
246
246
246
246
246
246
246
246
246
246
246
246
246
246
246
246
247
247
247
247
247
247
248
248
248
248
248
248
248
248
248
249
249
249
249
249
249
249
249
249
249
249
249
249
249
249
249
249
249
249
249
249
249
249
249
248
248
248
248
248
248
248
248
248
248
248
248
248
248
248
248
248
248
248
248
248
248
248
248
248
248
248
248
248
248
247
247
247
246
246
246
245
245
245
245
245
245
244
244
244
244
244
244
247
247
247
247
247
247
247
247
247
247
247
247
247
247
247
247
247
247
247
247
247
247
247
247
247
247
247
247
247
247
247
247
247
247
247
247
247
247
247
247
247
247
247
247
247
247
247
247
246
246
246
246
246
246
246
246
246
246
246
246
246
246
246
246
246
246
246
246
246
246
246
246
246
246
246
246
246
246
246
246
246
246
246
246
246
246
246
246
246
246
246
246
246
246
246
246
245
245
245
245
245
245
245
245
245
245
245
245
245
245
245
245
245
245
245
245
245
245
245
245
246
246
246
246
246
246
246
246
246
245
245
245
245
245
245
244
244
244
244
244
244
244
244
244
244
244
244
244
244
244
244
244
244
244
244
244
244
244
244
244
244
244
244
244
244
244
244
244
244
244
244
244
244
244
244
244
244
244
244
244
244
244
244
244
244
244
244
244
244
244
244
244
245
245
245
245
245
245
244
244
244
244
244
244
243
243
243
243
243
243
243
243
243
243
243
243
243
243
243
243
243
243
243
243
243
243
243
243
243
243
243
243
243
243
243
243
243
243
243
243
243
243
243
243
243
243
243
243
243
243
243
243
243
243
243
243
243
243
243
243
243
243
243
243
242
242
242
244
244
244
244
244
244
244
244
244
244
244
244
244
244
244
244
244
244
244
244
244
244
244
244
245
245
245
245
245
245
245
245
245
245
245
245
245
245
245
245
245
245
245
245
245
245
245
245
246
246
246
246
246
246
245
245
245
244
244
244
243
243
243
243
243
243
242
242
242
242
242
242
243
243
243
243
243
243
243
243
243
243
243
243
243
243
243
243
243
243
243
243
243
243
243
243
244
244
244
244
244
244
243
243
243
243
243
243
243
243
243
242
242
242
242
242
242
242
242
242
244
244
244
244
244
244
243
243
243
243
243
243
243
243
243
242
242
242
242
242
242
242
242
242
243
243
243
243
243
243
243
243
243
243
243
243
243
243
243
243
243
243
243
243
243
243
243
243
243
243
243
243
243
243
243
243
243
243
243
243
243
243
243
243
243
243
243
243
243
243
243
243
243
243
243
243
243
243
243
243
243
243
243
243
243
243
243
243
243
243
243
243
243
243
243
243
244
244
244
244
244
244
244
244
244
244
244
244
244
244
244
244
244
244
244
244
244
244
244
244
244
244
244
244
244
244
244
244
244
244
244
244
244
244
244
244
244
244
244
244
244
244
244
244
245
245
245
245
245
245
245
245
245
245
245
245
245
245
245
245
245
245
245
245
245
245
245
245
244
244
244
244
244
244
244
244
244
245
245
245
245
245
245
246
246
246
246
246
246
246
246
246
246
246
246
247
247
247
247
247
247
247
247
247
248
248
248
248
248
248
248
248
248
249
249
249
250
250
250
250
250
250
250
250
250
250
250
250
250
250
250
250
250
250
250
250
250
250
250
250
249
249
249
249
249
249
249
249
249
249
249
249
249
249
249
249
249
249
249
249
249
249
249
249
248
248
248
248
248
248
248
248
248
247
247
247
246
246
246
245
245
245
245
245
245
244
244
244
247
247
247
247
247
247
247
247
247
247
247
247
247
247
247
247
247
247
247
247
247
247
247
247
247
247
247
247
247
247
247
247
247
247
247
247
247
247
247
247
247
247
247
247
247
247
247
247
247
247
247
247
247
247
247
247
247
247
247
247
247
247
247
247
247
247
247
247
247
247
247
247
247
247
247
247
247
247
247
247
247
247
247
247
247
247
247
247
247
247
247
247
247
247
247
247
245
245
245
245
245
245
245
245
245
245
245
245
245
245
245
245
245
245
245
245
245
245
245
245
246
246
246
246
246
246
246
246
246
245
245
245
245
245
245
244
244
244
244
244
244
244
244
244
244
244
244
244
244
244
244
244
244
244
244
244
244
244
244
244
244
244
244
244
244
244
244
244
244
244
244
244
244
244
244
244
244
244
244
244
244
244
244
244
244
244
244
244
244
244
244
244
245
245
245
245
245
245
245
245
245
244
244
244
244
244
244
244
244
244
243
243
243
243
243
243
243
243
243
243
243
243
243
243
243
243
243
243
243
243
243
243
243
243
243
243
243
243
243
243
243
243
243
243
243
243
243
243
243
243
243
243
243
243
243
243
243
243
243
243
243
243
243
243
242
242
242
244
244
244
244
244
244
244
244
244
244
244
244
244
244
244
244
244
244
244
244
244
244
244
244
245
245
245
245
245
245
245
245
245
245
245
245
245
245
245
245
245
245
245
245
245
245
245
245
246
246
246
246
246
246
245
245
245
244
244
244
243
243
243
243
243
243
242
242
242
242
242
242
243
243
243
243
243
243
243
243
243
243
243
243
243
243
243
243
243
243
243
243
243
243
243
243
244
244
244
244
244
244
243
243
243
243
243
243
243
243
243
242
242
242
242
242
242
242
242
242
244
244
244
244
244
244
243
243
243
243
243
243
243
243
243
242
242
242
242
242
242
242
242
242
243
243
243
243
243
243
243
243
243
243
243
243
243
243
243
243
243
243
243
243
243
243
243
243
243
243
243
243
243
243
243
243
243
243
243
243
243
243
243
243
243
243
243
243
243
243
243
243
243
243
243
243
243
243
243
243
243
243
243
243
243
243
243
243
243
243
243
243
243
243
243
243
244
244
244
244
244
244
244
244
244
244
244
244
244
244
244
244
244
244
244
244
244
244
244
244
244
244
244
244
244
244
244
244
244
244
244
244
244
244
244
244
244
244
244
244
244
244
244
244
246
246
246
246
246
246
246
246
246
246
246
246
246
246
246
246
246
246
246
246
246
246
246
246
244
244
244
244
244
244
244
244
244
245
245
245
245
245
245
246
246
246
246
246
246
246
246
246
247
247
247
247
247
247
247
247
247
248
248
248
248
248
248
249
249
249
249
249
249
249
249
249
251
251
251
251
251
251
251
251
251
251
251
251
251
251
251
251
251
251
251
251
251
251
251
251
249
249
249
249
249
249
249
249
249
249
249
249
249
249
249
249
249
249
249
249
249
249
249
249
249
249
249
249
249
249
248
248
248
247
247
247
246
246
246
246
246
246
245
245
245
245
245
245
248
248
248
248
248
248
248
248
248
248
248
248
248
248
248
248
248
248
248
248
248
248
248
248
248
248
248
248
248
248
248
248
248
248
248
248
248
248
248
248
248
248
248
248
248
248
248
248
247
247
247
247
247
247
247
247
247
247
247
247
247
247
247
247
247
247
247
247
247
247
247
247
247
247
247
247
247
247
247
247
247
247
247
247
247
247
247
247
247
247
247
247
247
247
247
247
245
245
245
245
245
245
245
245
245
245
245
245
245
245
245
245
245
245
245
245
245
245
245
245
246
246
246
246
246
246
246
246
246
245
245
245
245
245
245
244
244
244
244
244
244
244
244
244
244
244
244
244
244
244
244
244
244
244
244
244
244
244
244
244
244
244
244
244
244
244
244
244
244
244
244
244
244
244
244
244
244
244
244
244
244
244
244
244
244
244
244
244
244
244
244
244
246
246
246
245
245
245
245
245
245
245
245
245
244
244
244
244
244
244
244
244
244
244
244
244
243
243
243
243
243
243
243
243
243
243
243
243
243
243
243
243
243
243
243
243
243
243
243
243
243
243
243
243
243
243
243
243
243
243
243
243
243
243
243
243
243
243
243
243
243
243
243
243
242
242
242
244
244
244
244
244
244
244
244
244
244
244
244
244
244
244
244
244
244
244
244
244
244
244
244
245
245
245
245
245
245
245
245
245
245
245
245
245
245
245
245
245
245
245
245
245
245
245
245
246
246
246
246
246
246
245
245
245
244
244
244
243
243
243
243
243
243
242
242
242
242
242
242
243
243
243
243
243
243
243
243
243
243
243
243
243
243
243
243
243
243
243
243
243
243
243
243
244
244
244
244
244
244
243
243
243
243
243
243
243
243
243
242
242
242
242
242
242
242
242
242
244
244
244
244
244
244
243
243
243
243
243
243
243
243
243
242
242
242
242
242
242
242
242
242
243
243
243
243
243
243
243
243
243
243
243
243
243
243
243
243
243
243
243
243
243
243
243
243
243
243
243
243
243
243
243
243
243
243
243
243
243
243
243
243
243
243
243
243
243
243
243
243
243
243
243
243
243
243
243
243
243
243
243
243
243
243
243
243
243
243
243
243
243
243
243
243
244
244
244
244
244
244
244
244
244
244
244
244
244
244
244
244
244
244
244
244
244
244
244
244
244
244
244
244
244
244
244
244
244
244
244
244
244
244
244
244
244
244
244
244
244
244
244
244
246
246
246
246
246
246
246
246
246
246
246
246
246
246
246
246
246
246
246
246
246
246
246
246
244
244
244
244
244
244
244
244
244
245
245
245
245
245
245
246
246
246
246
246
246
246
246
246
247
247
247
247
247
247
248
248
248
248
248
248
248
248
248
249
249
249
249
249
249
249
249
249
252
252
252
252
252
252
252
252
252
252
252
252
252
252
252
252
252
252
252
252
252
252
252
252
249
249
249
249
249
249
249
249
249
249
249
249
249
249
249
249
249
249
249
249
249
249
249
249
249
249
249
249
249
249
248
248
248
248
248
248
247
247
247
246
246
246
245
245
245
245
245
245
248
248
248
248
248
248
248
248
248
248
248
248
248
248
248
248
248
248
248
248
248
248
248
248
248
248
248
248
248
248
248
248
248
248
248
248
248
248
248
248
248
248
248
248
248
248
248
248
248
248
248
248
248
248
248
248
248
248
248
248
248
248
248
248
248
248
248
248
248
248
248
248
248
248
248
248
248
248
248
248
248
248
248
248
248
248
248
248
248
248
248
248
248
248
248
248
245
245
245
245
245
245
245
245
245
245
245
245
245
245
245
245
245
245
245
245
245
245
245
245
246
246
246
246
246
246
246
246
246
245
245
245
245
245
245
244
244
244
244
244
244
244
244
244
244
244
244
244
244
244
244
244
244
244
244
244
244
244
244
244
244
244
244
244
244
244
244
244
244
244
244
244
244
244
244
244
244
244
244
244
244
244
244
244
244
244
244
244
244
244
244
244
246
246
246
246
246
246
245
245
245
245
245
245
245
245
245
244
244
244
244
244
244
244
244
244
243
243
243
243
243
243
243
243
243
243
243
243
243
243
243
243
243
243
243
243
243
243
243
243
243
243
243
243
243
243
243
243
243
243
243
243
243
243
243
243
243
243
243
243
243
243
243
243
242
242
242
244
244
244
244
244
244
244
244
244
244
244
244
244
244
244
244
244
244
244
244
244
244
244
244
245
245
245
245
245
245
245
245
245
245
245
245
245
245
245
245
245
245
245
245
245
245
245
245
246
246
246
246
246
246
245
245
245
244
244
244
243
243
243
243
243
243
242
242
242
242
242
242
243
243
243
243
243
243
243
243
243
243
243
243
243
243
243
243
243
243
243
243
243
243
243
243
244
244
244
244
244
244
243
243
243
243
243
243
243
243
243
242
242
242
242
242
242
242
242
242
244
244
244
244
244
244
243
243
243
243
243
243
243
243
243
242
242
242
242
242
242
242
242
242
243
243
243
243
243
243
243
243
243
243
243
243
243
243
243
243
243
243
243
243
243
243
243
243
243
243
243
243
243
243
243
243
243
243
243
243
243
243
243
243
243
243
243
243
243
243
243
243
243
243
243
243
243
243
243
243
243
243
243
243
243
243
243
243
243
243
243
243
243
243
243
243
244
244
244
244
244
244
244
244
244
244
244
244
244
244
244
244
244
244
244
244
244
244
244
244
244
244
244
244
244
244
244
244
244
244
244
244
244
244
244
244
244
244
244
244
244
244
244
244
246
246
246
246
246
246
246
246
246
246
246
246
246
246
246
246
246
246
246
246
246
246
246
246
244
244
244
244
244
244
244
244
244
245
245
245
245
245
245
246
246
246
246
246
246
246
246
246
247
247
247
248
248
248
248
248
248
248
248
248
249
249
249
249
249
249
249
249
249
250
250
250
252
252
252
252
252
252
252
252
252
252
252
252
252
252
252
252
252
252
252
252
252
252
252
252
250
250
250
250
250
250
250
250
250
250
250
250
250
250
250
250
250
250
250
250
250
250
250
250
249
249
249
249
249
249
249
249
249
248
248
248
247
247
247
246
246
246
246
246
246
245
245
245
248
248
248
248
248
248
248
248
248
248
248
248
248
248
248
248
248
248
248
248
248
248
248
248
248
248
248
248
248
248
248
248
248
248
248
248
248
248
248
248
248
248
248
248
248
248
248
248
249
249
249
249
249
249
249
249
249
249
249
249
249
249
249
249
249
249
249
249
249
249
249
249
249
249
249
249
249
249
249
249
249
249
249
249
249
249
249
249
249
249
249
249
249
249
249
249
245
245
245
245
245
245
245
245
245
245
245
245
245
245
245
245
245
245
245
245
245
245
245
245
246
246
246
246
246
246
246
246
246
245
245
245
245
245
245
244
244
244
244
244
244
244
244
244
244
244
244
244
244
244
244
244
244
244
244
244
244
244
244
244
244
244
244
244
244
244
244
244
244
244
244
244
244
244
244
244
244
244
244
244
244
244
244
244
244
244
244
244
244
244
244
244
246
246
246
246
246
246
246
246
246
245
245
245
245
245
245
244
244
244
244
244
244
244
244
244
243
243
243
243
243
243
243
243
243
243
243
243
243
243
243
243
243
243
243
243
243
243
243
243
243
243
243
243
243
243
243
243
243
243
243
243
243
243
243
243
243
243
243
243
243
243
243
243
242
242
242
245
245
245
245
245
245
245
245
245
245
245
245
245
245
245
245
245
245
245
245
245
245
245
245
245
245
245
245
245
245
245
245
245
245
245
245
245
245
245
245
245
245
245
245
245
245
245
245
245
245
245
245
245
245
244
244
244
244
244
244
244
244
244
243
243
243
243
243
243
243
243
243
243
243
243
243
243
243
243
243
243
243
243
243
243
243
243
243
243
243
243
243
243
243
243
243
243
243
243
243
243
243
243
243
243
243
243
243
243
243
243
243
243
243
243
243
243
243
243
243
244
244
244
244
244
244
244
244
244
244
244
244
244
244
244
244
244
244
244
244
244
244
244
244
240
240
240
241
241
241
241
241
241
241
241
241
242
242
242
242
242
242
242
242
242
243
243
243
245
245
245
245
245
245
244
244
244
244
244
244
244
244
244
243
243
243
243
243
243
243
243
243
243
243
243
243
243
243
243
243
243
244
244
244
244
244
244
244
244
244
245
245
245
245
245
245
245
245
245
245
245
245
245
245
245
245
245
245
245
245
245
245
245
245
245
245
245
245
245
245
242
242
242
242
242
242
242
242
242
242
242
242
243
243
243
243
243
243
244
244
244
244
244
244
245
245
245
245
245
245
246
246
246
246
246
246
246
246
246
247
247
247
247
247
247
247
247
247
247
247
247
247
247
247
247
247
247
247
247
247
247
247
247
247
247
247
247
247
247
247
247
247
247
247
247
247
247
247
247
247
247
247
247
247
247
247
247
247
247
247
247
247
247
247
247
247
249
249
249
249
249
249
249
249
249
249
249
249
250
250
250
250
250
250
250
250
250
251
251
251
251
251
251
251
251
251
251
251
251
251
251
251
251
251
251
251
251
251
251
251
251
251
251
251
250
250
250
250
250
250
250
250
250
250
250
250
250
250
250
250
250
250
250
250
250
250
250
250
248
248
248
248
248
248
248
248
248
248
248
248
248
248
248
248
248
248
248
248
248
248
248
248
250
250
250
250
250
250
250
250
250
250
250
250
250
250
250
250
250
250
250
250
250
250
250
250
249
249
249
249
249
249
249
249
249
249
249
249
248
248
248
248
248
248
247
247
247
247
247
247
246
246
246
246
246
246
247
247
247
247
247
247
247
247
247
248
248
248
248
248
248
248
248
248
245
245
245
245
245
245
245
245
245
245
245
245
245
245
245
245
245
245
245
245
245
245
245
245
246
246
246
246
246
246
246
246
246
245
245
245
245
245
245
244
244
244
244
244
244
244
244
244
244
244
244
244
244
244
244
244
244
244
244
244
244
244
244
244
244
244
244
244
244
244
244
244
244
244
244
244
244
244
244
244
244
244
244
244
244
244
244
244
244
244
244
244
244
244
244
244
244
244
244
244
244
244
244
244
244
244
244
244
244
244
244
244
244
244
244
244
244
244
244
244
243
243
243
243
243
243
243
243
243
243
243
243
243
243
243
243
243
243
243
243
243
243
243
243
243
243
243
243
243
243
243
243
243
243
243
243
243
243
243
243
243
243
243
243
243
243
243
243
242
242
242
245
245
245
245
245
245
245
245
245
245
245
245
245
245
245
245
245
245
245
245
245
245
245
245
245
245
245
245
245
245
245
245
245
245
245
245
245
245
245
245
245
245
245
245
245
245
245
245
245
245
245
245
245
245
244
244
244
244
244
244
244
244
244
243
243
243
243
243
243
243
243
243
243
243
243
243
243
243
243
243
243
243
243
243
243
243
243
243
243
243
243
243
243
243
243
243
243
243
243
243
243
243
243
243
243
243
243
243
243
243
243
243
243
243
243
243
243
243
243
243
244
244
244
244
244
244
244
244
244
244
244
244
244
244
244
244
244
244
244
244
244
244
244
244
241
241
241
241
241
241
241
241
241
242
242
242
242
242
242
242
242
242
243
243
243
243
243
243
245
245
245
245
245
245
245
245
245
244
244
244
244
244
244
243
243
243
243
243
243
243
243
243
243
243
243
243
243
243
243
243
243
244
244
244
244
244
244
244
244
244
245
245
245
245
245
245
245
245
245
245
245
245
245
245
245
245
245
245
245
245
245
245
245
245
245
245
245
245
245
245
242
242
242
242
242
242
242
242
242
243
243
243
243
243
243
243
243
243
244
244
244
244
244
244
245
245
245
245
245
245
246
246
246
246
246
246
246
246
246
247
247
247
247
247
247
247
247
247
247
247
247
247
247
247
247
247
247
247
247
247
247
247
247
247
247
247
247
247
247
247
247
247
247
247
247
247
247
247
247
247
247
247
247
247
247
247
247
247
247
247
247
247
247
247
247
247
248
248
248
249
249
249
249
249
249
249
249
249
250
250
250
250
250
250
250
250
250
250
250
250
251
251
251
251
251
251
251
251
251
251
251
251
251
251
251
251
251
251
251
251
251
251
251
251
250
250
250
250
250
250
250
250
250
250
250
250
250
250
250
250
250
250
250
250
250
250
250
250
248
248
248
248
248
248
248
248
248
248
248
248
248
248
248
248
248
248
248
248
248
248
248
248
250
250
250
250
250
250
250
250
250
250
250
250
250
250
250
250
250
250
250
250
250
250
250
250
249
249
249
249
249
249
249
249
249
249
249
249
248
248
248
248
248
248
247
247
247
247
247
247
246
246
246
246
246
246
247
247
247
247
247
247
247
247
247
248
248
248
248
248
248
248
248
248
245
245
245
245
245
245
245
245
245
245
245
245
245
245
245
245
245
245
245
245
245
245
245
245
246
246
246
246
246
246
246
246
246
245
245
245
245
245
245
244
244
244
244
244
244
244
244
244
244
244
244
244
244
244
244
244
244
244
244
244
244
244
244
244
244
244
244
244
244
244
244
244
244
244
244
244
244
244
244
244
244
244
244
244
244
244
244
244
244
244
244
244
244
244
244
244
244
244
244
244
244
244
244
244
244
244
244
244
244
244
244
244
244
244
244
244
244
244
244
244
243
243
243
243
243
243
243
243
243
243
243
243
243
243
243
243
243
243
243
243
243
243
243
243
243
243
243
243
243
243
243
243
243
243
243
243
243
243
243
243
243
243
243
243
243
243
243
243
242
242
242
245
245
245
245
245
245
245
245
245
245
245
245
245
245
245
245
245
245
245
245
245
245
245
245
245
245
245
245
245
245
245
245
245
245
245
245
245
245
245
245
245
245
245
245
245
245
245
245
245
245
245
245
245
245
244
244
244
244
244
244
244
244
244
243
243
243
243
243
243
243
243
243
243
243
243
243
243
243
243
243
243
243
243
243
243
243
243
243
243
243
243
243
243
243
243
243
243
243
243
243
243
243
243
243
243
243
243
243
243
243
243
243
243
243
243
243
243
243
243
243
244
244
244
244
244
244
244
244
244
244
244
244
244
244
244
244
244
244
244
244
244
244
244
244
241
241
241
241
241
241
241
241
241
242
242
242
242
242
242
243
243
243
243
243
243
243
243
243
245
245
245
245
245
245
245
245
245
245
245
245
244
244
244
244
244
244
243
243
243
243
243
243
243
243
243
243
243
243
243
243
243
244
244
244
244
244
244
244
244
244
245
245
245
245
245
245
245
245
245
245
245
245
245
245
245
245
245
245
245
245
245
245
245
245
245
245
245
245
245
245
242
242
242
242
242
242
243
243
243
243
243
243
243
243
243
244
244
244
244
244
244
244
244
244
245
245
245
245
245
245
246
246
246
246
246
246
246
246
246
247
247
247
247
247
247
247
247
247
247
247
247
247
247
247
247
247
247
247
247
247
247
247
247
247
247
247
247
247
247
247
247
247
247
247
247
247
247
247
247
247
247
247
247
247
247
247
247
247
247
247
247
247
247
247
247
247
248
248
248
248
248
248
248
248
248
249
249
249
249
249
249
250
250
250
250
250
250
250
250
250
251
251
251
251
251
251
251
251
251
251
251
251
251
251
251
251
251
251
251
251
251
251
251
251
250
250
250
250
250
250
250
250
250
250
250
250
250
250
250
250
250
250
250
250
250
250
250
250
248
248
248
248
248
248
248
248
248
248
248
248
248
248
248
248
248
248
248
248
248
248
248
248
250
250
250
250
250
250
250
250
250
250
250
250
250
250
250
250
250
250
250
250
250
250
250
250
249
249
249
249
249
249
249
249
249
249
249
249
248
248
248
248
248
248
247
247
247
247
247
247
246
246
246
246
246
246
247
247
247
247
247
247
247
247
247
248
248
248
248
248
248
248
248
248
245
245
245
245
245
245
245
245
245
245
245
245
245
245
245
245
245
245
245
245
245
245
245
245
246
246
246
246
246
246
246
246
246
245
245
245
245
245
245
244
244
244
244
244
244
244
244
244
244
244
244
244
244
244
244
244
244
244
244
244
244
244
244
244
244
244
244
244
244
244
244
244
244
244
244
244
244
244
244
244
244
244
244
244
244
244
244
244
244
244
244
244
244
244
244
244
244
244
244
244
244
244
244
244
244
244
244
244
244
244
244
244
244
244
244
244
244
244
244
244
243
243
243
243
243
243
243
243
243
243
243
243
243
243
243
243
243
243
243
243
243
243
243
243
243
243
243
243
243
243
243
243
243
243
243
243
243
243
243
243
243
243
243
243
243
243
243
243
242
242
242
245
245
245
245
245
245
245
245
245
245
245
245
245
245
245
245
245
245
245
245
245
245
245
245
245
245
245
245
245
245
245
245
245
245
245
245
245
245
245
245
245
245
245
245
245
245
245
245
245
245
245
245
245
245
244
244
244
244
244
244
244
244
244
243
243
243
243
243
243
243
243
243
243
243
243
243
243
243
243
243
243
243
243
243
243
243
243
243
243
243
243
243
243
243
243
243
243
243
243
243
243
243
243
243
243
243
243
243
243
243
243
243
243
243
243
243
243
243
243
243
244
244
244
244
244
244
244
244
244
244
244
244
244
244
244
244
244
244
244
244
244
244
244
244
241
241
241
242
242
242
242
242
242
242
242
242
243
243
243
243
243
243
243
243
243
244
244
244
246
246
246
246
246
246
245
245
245
245
245
245
245
245
245
244
244
244
244
244
244
244
244
244
243
243
243
243
243
243
243
243
243
244
244
244
244
244
244
244
244
244
245
245
245
245
245
245
245
245
245
245
245
245
245
245
245
245
245
245
245
245
245
245
245
245
245
245
245
245
245
245
243
243
243
243
243
243
243
243
243
243
243
243
244
244
244
244
244
244
245
245
245
245
245
245
245
245
245
245
245
245
246
246
246
246
246
246
246
246
246
247
247
247
247
247
247
247
247
247
247
247
247
247
247
247
247
247
247
247
247
247
247
247
247
247
247
247
247
247
247
247
247
247
247
247
247
247
247
247
247
247
247
247
247
247
247
247
247
247
247
247
247
247
247
247
247
247
248
248
248
248
248
248
248
248
248
248
248
248
249
249
249
249
249
249
249
249
249
250
250
250
251
251
251
251
251
251
251
251
251
251
251
251
251
251
251
251
251
251
251
251
251
251
251
251
250
250
250
250
250
250
250
250
250
250
250
250
250
250
250
250
250
250
250
250
250
250
250
250
248
248
248
248
248
248
248
248
248
248
248
248
248
248
248
248
248
248
248
248
248
248
248
248
250
250
250
250
250
250
250
250
250
250
250
250
250
250
250
250
250
250
250
250
250
250
250
250
249
249
249
249
249
249
249
249
249
249
249
249
248
248
248
248
248
248
247
247
247
247
247
247
246
246
246
246
246
246
247
247
247
247
247
247
247
247
247
248
248
248
248
248
248
248
248
248
245
245
245
245
245
245
245
245
245
245
245
245
245
245
245
245
245
245
245
245
245
245
245
245
246
246
246
246
246
246
246
246
246
245
245
245
245
245
245
244
244
244
244
244
244
244
244
244
244
244
244
244
244
244
244
244
244
244
244
244
244
244
244
244
244
244
244
244
244
244
244
244
244
244
244
244
244
244
244
244
244
244
244
244
244
244
244
244
244
244
244
244
244
244
244
244
244
244
244
244
244
244
244
244
244
244
244
244
244
244
244
244
244
244
244
244
244
244
244
244
243
243
243
243
243
243
243
243
243
243
243
243
243
243
243
243
243
243
243
243
243
243
243
243
243
243
243
243
243
243
243
243
243
243
243
243
243
243
243
243
243
243
243
243
243
243
243
243
243
243
243
245
245
245
245
245
245
245
245
245
245
245
245
245
245
245
245
245
245
245
245
245
245
245
245
245
245
245
245
245
245
245
245
245
245
245
245
245
245
245
245
245
245
245
245
245
245
245
245
245
245
245
245
245
245
244
244
244
244
244
244
244
244
244
243
243
243
243
243
243
243
243
243
243
243
243
243
243
243
243
243
243
243
243
243
243
243
243
243
243
243
243
243
243
243
243
243
243
243
243
243
243
243
243
243
243
243
243
243
243
243
243
243
243
243
243
243
243
243
243
243
244
244
244
244
244
244
244
244
244
244
244
244
244
244
244
244
244
244
244
244
244
244
244
244
242
242
242
242
242
242
242
242
242
243
243
243
243
243
243
244
244
244
244
244
244
244
244
244
246
246
246
246
246
246
246
246
246
245
245
245
245
245
245
245
245
245
244
244
244
244
244
244
243
243
243
243
243
243
243
243
243
244
244
244
244
244
244
244
244
244
245
245
245
245
245
245
245
245
245
245
245
245
245
245
245
245
245
245
245
245
245
245
245
245
245
245
245
245
245
245
243
243
243
243
243
243
244
244
244
244
244
244
244
244
244
245
245
245
245
245
245
245
245
245
245
245
245
245
245
245
246
246
246
246
246
246
246
246
246
247
247
247
247
247
247
247
247
247
247
247
247
247
247
247
247
247
247
247
247
247
247
247
247
247
247
247
247
247
247
247
247
247
247
247
247
247
247
247
247
247
247
247
247
247
247
247
247
247
247
247
247
247
247
247
247
247
247
247
247
247
247
247
248
248
248
248
248
248
248
248
248
249
249
249
249
249
249
249
249
249
251
251
251
251
251
251
251
251
251
251
251
251
251
251
251
251
251
251
251
251
251
251
251
251
250
250
250
250
250
250
250
250
250
250
250
250
250
250
250
250
250
250
250
250
250
250
250
250
248
248
248
248
248
248
248
248
248
248
248
248
248
248
248
248
248
248
248
248
248
248
248
248
250
250
250
250
250
250
250
250
250
250
250
250
250
250
250
250
250
250
250
250
250
250
250
250
249
249
249
249
249
249
249
249
249
249
249
249
248
248
248
248
248
248
247
247
247
247
247
247
246
246
246
246
246
246
247
247
247
247
247
247
247
247
247
248
248
248
248
248
248
248
248
248
245
245
245
245
245
245
245
245
245
245
245
245
245
245
245
245
245
245
245
245
245
245
245
245
246
246
246
246
246
246
246
246
246
245
245
245
245
245
245
244
244
244
244
244
244
244
244
244
244
244
244
244
244
244
244
244
244
244
244
244
244
244
244
244
244
244
244
244
244
244
244
244
244
244
244
244
244
244
244
244
244
244
244
244
244
244
244
244
244
244
244
244
244
244
244
244
244
244
244
244
244
244
244
244
244
244
244
244
244
244
244
244
244
244
244
244
244
244
244
244
243
243
243
243
243
243
243
243
243
243
243
243
243
243
243
243
243
243
243
243
243
243
243
243
243
243
243
243
243
243
243
243
243
243
243
243
243
243
243
243
243
243
243
243
243
243
243
243
243
243
243
245
245
245
245
245
245
245
245
245
245
245
245
245
245
245
245
245
245
245
245
245
245
245
245
245
245
245
245
245
245
245
245
245
245
245
245
245
245
245
245
245
245
245
245
245
245
245
245
245
245
245
245
245
245
244
244
244
244
244
244
244
244
244
243
243
243
243
243
243
243
243
243
243
243
243
243
243
243
243
243
243
243
243
243
243
243
243
243
243
243
243
243
243
243
243
243
243
243
243
243
243
243
243
243
243
243
243
243
243
243
243
243
243
243
243
243
243
243
243
243
244
244
244
244
244
244
244
244
244
244
244
244
244
244
244
244
244
244
244
244
244
244
244
244
242
242
242
243
243
243
243
243
243
243
243
243
244
244
244
244
244
244
244
244
244
244
244
244
247
247
247
247
247
247
246
246
246
246
246
246
245
245
245
245
245
245
245
245
245
245
245
245
243
243
243
243
243
243
243
243
243
244
244
244
244
244
244
244
244
244
245
245
245
245
245
245
245
245
245
245
245
245
245
245
245
245
245
245
245
245
245
245
245
245
245
245
245
245
245
245
244
244
244
244
244
244
244
244
244
244
244
244
245
245
245
245
245
245
245
245
245
246
246
246
245
245
245
245
245
245
246
246
246
246
246
246
246
246
246
247
247
247
247
247
247
247
247
247
247
247
247
247
247
247
247
247
247
247
247
247
247
247
247
247
247
247
247
247
247
247
247
247
247
247
247
247
247
247
247
247
247
247
247
247
247
247
247
247
247
247
247
247
247
247
247
247
247
247
247
247
247
247
247
247
247
247
247
247
248
248
248
248
248
248
249
249
249
249
249
249
251
251
251
251
251
251
251
251
251
251
251
251
251
251
251
251
251
251
251
251
251
251
251
251
250
250
250
250
250
250
250
250
250
250
250
250
250
250
250
250
250
250
250
250
250
250
250
250
248
248
248
248
248
248
248
248
248
248
248
248
248
248
248
248
248
248
248
248
248
248
248
248
250
250
250
250
250
250
250
250
250
250
250
250
250
250
250
250
250
250
250
250
250
250
250
250
249
249
249
249
249
249
249
249
249
249
249
249
248
248
248
248
248
248
247
247
247
247
247
247
246
246
246
246
246
246
247
247
247
247
247
247
247
247
247
248
248
248
248
248
248
248
248
248
245
245
245
245
245
245
245
245
245
245
245
245
245
245
245
245
245
245
245
245
245
245
245
245
246
246
246
246
246
246
246
246
246
245
245
245
245
245
245
244
244
244
244
244
244
244
244
244
244
244
244
244
244
244
244
244
244
244
244
244
244
244
244
244
244
244
244
244
244
244
244
244
244
244
244
244
244
244
244
244
244
244
244
244
244
244
244
244
244
244
244
244
244
244
244
244
244
244
244
244
244
244
244
244
244
244
244
244
244
244
244
244
244
244
244
244
244
244
244
244
243
243
243
243
243
243
243
243
243
243
243
243
243
243
243
243
243
243
243
243
243
243
243
243
243
243
243
243
243
243
243
243
243
243
243
243
243
243
243
243
243
243
243
243
243
243
243
243
243
243
243
245
245
245
245
245
245
245
245
245
245
245
245
245
245
245
245
245
245
245
245
245
245
245
245
245
245
245
245
245
245
245
245
245
245
245
245
245
245
245
245
245
245
245
245
245
245
245
245
245
245
245
245
245
245
244
244
244
244
244
244
244
244
244
243
243
243
243
243
243
243
243
243
243
243
243
243
243
243
243
243
243
243
243
243
243
243
243
243
243
243
243
243
243
243
243
243
243
243
243
243
243
243
243
243
243
243
243
243
243
243
243
243
243
243
243
243
243
243
243
243
244
244
244
244
244
244
244
244
244
244
244
244
244
244
244
244
244
244
244
244
244
244
244
244
243
243
243
243
243
243
243
243
243
244
244
244
244
244
244
244
244
244
245
245
245
245
245
245
247
247
247
247
247
247
247
247
247
246
246
246
246
246
246
245
245
245
245
245
245
245
245
245
243
243
243
243
243
243
243
243
243
244
244
244
244
244
244
244
244
244
245
245
245
245
245
245
245
245
245
245
245
245
245
245
245
245
245
245
245
245
245
245
245
245
245
245
245
245
245
245
244
244
244
244
244
244
244
244
244
245
245
245
245
245
245
245
245
245
246
246
246
246
246
246
245
245
245
245
245
245
246
246
246
246
246
246
246
246
246
247
247
247
247
247
247
247
247
247
247
247
247
247
247
247
247
247
247
247
247
247
247
247
247
247
247
247
247
247
247
247
247
247
247
247
247
247
247
247
247
247
247
247
247
247
247
247
247
247
247
247
247
247
247
247
247
247
246
246
246
246
246
246
247
247
247
247
247
247
248
248
248
248
248
248
248
248
248
248
248
248
251
251
251
251
251
251
251
251
251
251
251
251
251
251
251
251
251
251
251
251
251
251
251
251
250
250
250
250
250
250
250
250
250
250
250
250
250
250
250
250
250
250
250
250
250
250
250
250
248
248
248
248
248
248
248
248
248
248
248
248
248
248
248
248
248
248
248
248
248
248
248
248
250
250
250
250
250
250
250
250
250
250
250
250
250
250
250
250
250
250
250
250
250
250
250
250
249
249
249
249
249
249
249
249
249
249
249
249
248
248
248
248
248
248
247
247
247
247
247
247
246
246
246
246
246
246
247
247
247
247
247
247
247
247
247
248
248
248
248
248
248
248
248
248
245
245
245
245
245
245
245
245
245
245
245
245
245
245
245
245
245
245
245
245
245
245
245
245
246
246
246
246
246
246
246
246
246
245
245
245
245
245
245
244
244
244
244
244
244
244
244
244
244
244
244
244
244
244
244
244
244
244
244
244
244
244
244
244
244
244
244
244
244
244
244
244
244
244
244
244
244
244
244
244
244
244
244
244
244
244
244
244
244
244
244
244
244
244
244
244
244
244
244
244
244
244
244
244
244
244
244
244
244
244
244
244
244
244
244
244
244
244
244
244
243
243
243
243
243
243
243
243
243
243
243
243
243
243
243
243
243
243
243
243
243
243
243
243
243
243
243
243
243
243
243
243
243
243
243
243
243
243
243
243
243
243
243
243
243
243
243
243
244
244
244
245
245
245
245
245
245
245
245
245
245
245
245
245
245
245
245
245
245
245
245
245
245
245
245
245
245
245
245
245
245
245
245
245
245
245
245
245
245
245
245
245
245
245
245
245
245
245
245
245
245
245
245
245
245
244
244
244
244
244
244
244
244
244
243
243
243
243
243
243
243
243
243
243
243
243
243
243
243
243
243
243
243
243
243
243
243
243
243
243
243
243
243
243
243
243
243
243
243
243
243
243
243
243
243
243
243
243
243
243
243
243
243
243
243
243
243
243
243
243
243
244
244
244
244
244
244
244
244
244
244
244
244
244
244
244
244
244
244
244
244
244
244
244
244
243
243
243
243
243
243
243
243
243
244
244
244
244
244
244
245
245
245
245
245
245
245
245
245
247
247
247
247
247
247
247
247
247
246
246
246
246
246
246
246
246
246
245
245
245
245
245
245
243
243
243
243
243
243
243
243
243
244
244
244
244
244
244
244
244
244
245
245
245
245
245
245
245
245
245
245
245
245
245
245
245
245
245
245
245
245
245
245
245
245
245
245
245
245
245
245
244
244
244
244
244
244
244
244
244
245
245
245
245
245
245
246
246
246
246
246
246
246
246
246
245
245
245
245
245
245
246
246
246
246
246
246
246
246
246
247
247
247
247
247
247
247
247
247
247
247
247
247
247
247
247
247
247
247
247
247
247
247
247
247
247
247
247
247
247
247
247
247
247
247
247
247
247
247
247
247
247
247
247
247
247
247
247
247
247
247
247
247
247
247
247
247
246
246
246
246
246
246
247
247
247
247
247
247
247
247
247
248
248
248
248
248
248
248
248
248
251
251
251
251
251
251
251
251
251
251
251
251
251
251
251
251
251
251
251
251
251
251
251
251
250
250
250
250
250
250
250
250
250
250
250
250
250
250
250
250
250
250
250
250
250
250
250
250
248
248
248
248
248
248
248
248
248
248
248
248
248
248
248
248
248
248
248
248
248
248
248
248
250
250
250
250
250
250
250
250
250
250
250
250
250
250
250
250
250
250
250
250
250
250
250
250
249
249
249
249
249
249
249
249
249
249
249
249
248
248
248
248
248
248
247
247
247
247
247
247
246
246
246
246
246
246
247
247
247
247
247
247
247
247
247
248
248
248
248
248
248
248
248
248
245
245
245
245
245
245
245
245
245
245
245
245
245
245
245
245
245
245
245
245
245
245
245
245
246
246
246
246
246
246
246
246
246
245
245
245
245
245
245
244
244
244
244
244
244
244
244
244
244
244
244
244
244
244
244
244
244
244
244
244
244
244
244
244
244
244
244
244
244
244
244
244
244
244
244
244
244
244
244
244
244
244
244
244
244
244
244
244
244
244
244
244
244
244
244
244
244
244
244
244
244
244
244
244
244
244
244
244
244
244
244
244
244
244
244
244
244
244
244
244
243
243
243
243
243
243
243
243
243
243
243
243
243
243
243
243
243
243
243
243
243
243
243
243
243
243
243
243
243
243
243
243
243
243
243
243
243
243
243
243
243
243
243
243
243
243
243
243
244
244
244
245
245
245
245
245
245
245
245
245
245
245
245
245
245
245
245
245
245
245
245
245
245
245
245
245
245
245
245
245
245
245
245
245
245
245
245
245
245
245
245
245
245
245
245
245
245
245
245
245
245
245
245
245
245
244
244
244
244
244
244
244
244
244
243
243
243
243
243
243
243
243
243
244
244
244
244
244
244
243
243
243
243
243
243
243
243
243
242
242
242
242
242
242
242
242
242
244
244
244
244
244
244
243
243
243
243
243
243
243
243
243
242
242
242
242
242
242
242
242
242
243
243
243
243
243
243
243
243
243
244
244
244
244
244
244
244
244
244
245
245
245
245
245
245
244
244
244
244
244
244
244
244
244
245
245
245
245
245
245
246
246
246
246
246
246
246
246
246
245
245
245
245
245
245
245
245
245
245
245
245
245
245
245
245
245
245
245
245
245
245
245
245
245
245
245
245
245
245
245
245
245
245
245
245
245
245
245
245
245
245
245
245
245
245
245
245
245
245
245
245
245
245
245
245
245
245
245
245
245
245
245
245
245
245
245
245
245
245
245
245
246
246
246
246
246
246
246
246
246
246
246
246
246
246
246
246
246
246
246
246
246
246
246
246
246
246
246
246
246
246
246
246
246
246
246
246
246
246
246
246
246
246
246
246
246
246
246
246
247
247
247
247
247
247
247
247
247
247
247
247
247
247
247
247
247
247
247
247
247
247
247
247
246
246
246
246
246
246
247
247
247
247
247
247
247
247
247
248
248
248
248
248
248
248
248
248
250
250
250
250
250
250
250
250
250
250
250
250
250
250
250
250
250
250
250
250
250
250
250
250
249
249
249
249
249
249
249
249
249
249
249
249
249
249
249
249
249
249
249
249
249
249
249
249
248
248
248
248
248
248
248
248
248
248
248
248
248
248
248
248
248
248
248
248
248
248
248
248
248
248
248
248
248
248
248
248
248
248
248
248
248
248
248
248
248
248
248
248
248
248
248
248
251
251
251
250
250
250
250
250
250
250
250
250
249
249
249
249
249
249
249
249
249
248
248
248
248
248
248
248
248
248
248
248
248
247
247
247
247
247
247
247
247
247
246
246
246
246
246
246
247
247
247
247
247
247
247
247
247
247
247
247
247
247
247
247
247
247
247
247
247
247
247
247
245
245
245
245
245
245
245
245
245
245
245
245
245
245
245
245
245
245
245
245
245
245
245
245
245
245
245
245
245
245
245
245
245
245
245
245
245
245
245
245
245
245
245
245
245
245
245
245
246
246
246
246
246
246
246
246
246
246
246
246
246
246
246
246
246
246
246
246
246
246
246
246
245
245
245
245
245
245
246
246
246
246
246
246
246
246
246
247
247
247
247
247
247
247
247
247
245
245
245
245
245
245
245
245
245
245
245
245
245
245
245
245
245
245
245
245
245
245
245
245
243
243
243
243
243
243
243
243
243
244
244
244
244
244
244
244
244
244
245
245
245
245
245
245
244
244
244
244
244
244
243
243
243
243
243
243
242
242
242
242
242
242
242
242
242
242
242
242
244
244
244
245
245
245
245
245
245
245
245
245
245
245
245
245
245
245
245
245
245
245
245
245
245
245
245
245
245
245
245
245
245
245
245
245
245
245
245
245
245
245
245
245
245
245
245
245
245
245
245
245
245
245
245
245
245
244
244
244
244
244
244
244
244
244
243
243
243
243
243
243
243
243
243
244
244
244
244
244
244
243
243
243
243
243
243
243
243
243
242
242
242
242
242
242
242
242
242
244
244
244
244
244
244
243
243
243
243
243
243
243
243
243
242
242
242
242
242
242
242
242
242
243
243
243
243
243
243
243
243
243
244
244
244
244
244
244
244
244
244
245
245
245
245
245
245
244
244
244
244
244
244
244
244
244
245
245
245
245
245
245
246
246
246
246
246
246
246
246
246
245
245
245
245
245
245
245
245
245
245
245
245
245
245
245
245
245
245
245
245
245
245
245
245
245
245
245
245
245
245
245
245
245
245
245
245
245
245
245
245
245
245
245
245
245
245
245
245
245
245
245
245
245
245
245
245
245
245
245
245
245
245
245
245
245
245
245
245
245
245
245
245
246
246
246
246
246
246
246
246
246
246
246
246
246
246
246
246
246
246
246
246
246
246
246
246
246
246
246
246
246
246
246
246
246
246
246
246
246
246
246
246
246
246
246
246
246
246
246
246
247
247
247
247
247
247
247
247
247
247
247
247
247
247
247
247
247
247
247
247
247
247
247
247
246
246
246
246
246
246
247
247
247
247
247
247
247
247
247
248
248
248
248
248
248
248
248
248
250
250
250
250
250
250
250
250
250
250
250
250
250
250
250
250
250
250
250
250
250
250
250
250
250
250
250
250
250
250
250
250
250
250
250
250
250
250
250
250
250
250
250
250
250
250
250
250
248
248
248
248
248
248
248
248
248
248
248
248
248
248
248
248
248
248
248
248
248
248
248
248
248
248
248
248
248
248
248
248
248
248
248
248
248
248
248
248
248
248
248
248
248
248
248
248
251
251
251
250
250
250
250
250
250
250
250
250
249
249
249
249
249
249
249
249
249
248
248
248
248
248
248
248
248
248
248
248
248
247
247
247
247
247
247
247
247
247
246
246
246
246
246
246
247
247
247
247
247
247
247
247
247
247
247
247
247
247
247
247
247
247
247
247
247
247
247
247
245
245
245
245
245
245
245
245
245
245
245
245
245
245
245
245
245
245
245
245
245
245
245
245
245
245
245
245
245
245
245
245
245
245
245
245
245
245
245
245
245
245
245
245
245
245
245
245
246
246
246
246
246
246
246
246
246
246
246
246
246
246
246
246
246
246
246
246
246
246
246
246
245
245
245
245
245
245
246
246
246
246
246
246
246
246
246
247
247
247
247
247
247
247
247
247
245
245
245
245
245
245
245
245
245
245
245
245
245
245
245
245
245
245
245
245
245
245
245
245
243
243
243
243
243
243
243
243
243
244
244
244
244
244
244
245
245
245
245
245
245
245
245
245
244
244
244
244
244
244
243
243
243
243
243
243
243
243
243
242
242
242
242
242
242
242
242
242
244
244
244
245
245
245
245
245
245
245
245
245
245
245
245
245
245
245
245
245
245
245
245
245
245
245
245
245
245
245
245
245
245
245
245
245
245
245
245
245
245
245
245
245
245
245
245
245
245
245
245
245
245
245
245
245
245
244
244
244
244
244
244
244
244
244
243
243
243
243
243
243
243
243
243
244
244
244
244
244
244
243
243
243
243
243
243
243
243
243
242
242
242
242
242
242
242
242
242
244
244
244
244
244
244
243
243
243
243
243
243
243
243
243
242
242
242
242
242
242
242
242
242
243
243
243
243
243
243
243
243
243
244
244
244
244
244
244
244
244
244
245
245
245
245
245
245
244
244
244
244
244
244
244
244
244
245
245
245
245
245
245
246
246
246
246
246
246
246
246
246
245
245
245
245
245
245
245
245
245
245
245
245
245
245
245
245
245
245
245
245
245
245
245
245
245
245
245
245
245
245
245
245
245
245
245
245
245
245
245
245
245
245
245
245
245
245
245
245
245
245
245
245
245
245
245
245
245
245
245
245
245
245
245
245
245
245
245
245
245
245
245
245
246
246
246
246
246
246
246
246
246
246
246
246
246
246
246
246
246
246
246
246
246
246
246
246
246
246
246
246
246
246
246
246
246
246
246
246
246
246
246
246
246
246
246
246
246
246
246
246
247
247
247
247
247
247
247
247
247
247
247
247
247
247
247
247
247
247
247
247
247
247
247
247
246
246
246
246
246
246
247
247
247
247
247
247
247
247
247
248
248
248
248
248
248
248
248
248
250
250
250
250
250
250
250
250
250
250
250
250
250
250
250
250
250
250
250
250
250
250
250
250
250
250
250
250
250
250
250
250
250
250
250
250
250
250
250
250
250
250
250
250
250
250
250
250
249
249
249
249
249
249
249
249
249
249
249
249
249
249
249
249
249
249
249
249
249
249
249
249
248
248
248
248
248
248
248
248
248
248
248
248
248
248
248
248
248
248
248
248
248
248
248
248
251
251
251
250
250
250
250
250
250
250
250
250
249
249
249
249
249
249
249
249
249
248
248
248
248
248
248
248
248
248
248
248
248
247
247
247
247
247
247
247
247
247
246
246
246
246
246
246
247
247
247
247
247
247
247
247
247
247
247
247
247
247
247
247
247
247
247
247
247
247
247
247
245
245
245
245
245
245
245
245
245
245
245
245
245
245
245
245
245
245
245
245
245
245
245
245
245
245
245
245
245
245
245
245
245
245
245
245
245
245
245
245
245
245
245
245
245
245
245
245
246
246
246
246
246
246
246
246
246
246
246
246
246
246
246
246
246
246
246
246
246
246
246
246
245
245
245
245
245
245
246
246
246
246
246
246
246
246
246
247
247
247
247
247
247
247
247
247
245
245
245
245
245
245
245
245
245
245
245
245
245
245
245
245
245
245
245
245
245
245
245
245
243
243
243
243
243
243
244
244
244
244
244
244
245
245
245
245
245
245
245
245
245
245
245
245
244
244
244
244
244
244
244
244
244
243
243
243
243
243
243
243
243
243
242
242
242
242
242
242
244
244
244
245
245
245
245
245
245
245
245
245
245
245
245
245
245
245
245
245
245
245
245
245
245
245
245
245
245
245
245
245
245
245
245
245
245
245
245
245
245
245
245
245
245
245
245
245
245
245
245
245
245
245
245
245
245
244
244
244
244
244
244
244
244
244
243
243
243
243
243
243
243
243
243
244
244
244
244
244
244
243
243
243
243
243
243
243
243
243
242
242
242
242
242
242
242
242
242
244
244
244
244
244
244
243
243
243
243
243
243
243
243
243
242
242
242
242
242
242
242
242
242
243
243
243
243
243
243
243
243
243
244
244
244
244
244
244
244
244
244
245
245
245
245
245
245
244
244
244
244
244
244
244
244
244
245
245
245
245
245
245
246
246
246
246
246
246
246
246
246
245
245
245
245
245
245
245
245
245
245
245
245
245
245
245
245
245
245
245
245
245
245
245
245
246
246
246
246
246
246
246
246
246
246
246
246
246
246
246
246
246
246
246
246
246
246
246
246
246
246
246
246
246
246
246
246
246
246
246
246
246
246
246
246
246
246
246
246
246
246
246
246
246
246
246
246
246
246
246
246
246
246
246
246
246
246
246
246
246
246
246
246
246
246
246
246
246
246
246
246
246
246
246
246
246
246
246
246
246
246
246
246
246
246
246
246
246
246
246
246
247
247
247
247
247
247
247
247
247
247
247
247
247
247
247
247
247
247
247
247
247
247
247
247
246
246
246
246
246
246
247
247
247
247
247
247
247
247
247
248
248
248
248
248
248
248
248
248
250
250
250
250
250
250
250
250
250
250
250
250
250
250
250
250
250
250
250
250
250
250
250
250
250
250
250
250
250
250
250
250
250
250
250
250
250
250
250
250
250
250
250
250
250
250
250
250
249
249
249
249
249
249
249
249
249
249
249
249
249
249
249
249
249
249
249
249
249
249
249
249
248
248
248
248
248
248
248
248
248
248
248
248
248
248
248
248
248
248
248
248
248
248
248
248
251
251
251
250
250
250
250
250
250
250
250
250
249
249
249
249
249
249
249
249
249
248
248
248
248
248
248
248
248
248
248
248
248
247
247
247
247
247
247
247
247
247
246
246
246
246
246
246
247
247
247
247
247
247
247
247
247
247
247
247
247
247
247
247
247
247
247
247
247
247
247
247
246
246
246
246
246
246
246
246
246
246
246
246
246
246
246
246
246
246
246
246
246
246
246
246
245
245
245
245
245
245
245
245
245
245
245
245
245
245
245
245
245
245
245
245
245
245
245
245
246
246
246
246
246
246
246
246
246
246
246
246
246
246
246
246
246
246
246
246
246
246
246
246
245
245
245
245
245
245
246
246
246
246
246
246
246
246
246
247
247
247
247
247
247
247
247
247
245
245
245
245
245
245
245
245
245
245
245
245
245
245
245
245
245
245
245
245
245
245
245
245
244
244
244
244
244
244
244
244
244
245
245
245
245
245
245
245
245
245
246
246
246
246
246
246
245
245
245
245
245
245
244
244
244
244
244
244
243
243
243
243
243
243
243
243
243
243
243
243
244
244
244
245
245
245
245
245
245
245
245
245
245
245
245
245
245
245
245
245
245
245
245
245
245
245
245
245
245
245
245
245
245
245
245
245
245
245
245
245
245
245
245
245
245
245
245
245
245
245
245
245
245
245
245
245
245
244
244
244
244
244
244
244
244
244
243
243
243
243
243
243
243
243
243
244
244
244
244
244
244
243
243
243
243
243
243
243
243
243
242
242
242
242
242
242
242
242
242
244
244
244
244
244
244
243
243
243
243
243
243
243
243
243
242
242
242
242
242
242
242
242
242
243
243
243
243
243
243
243
243
243
244
244
244
244
244
244
244
244
244
245
245
245
245
245
245
244
244
244
244
244
244
244
244
244
245
245
245
245
245
245
246
246
246
246
246
246
246
246
246
245
245
245
245
245
245
245
245
245
245
245
245
245
245
245
245
245
245
245
245
245
245
245
245
246
246
246
246
246
246
246
246
246
246
246
246
246
246
246
246
246
246
246
246
246
246
246
246
246
246
246
246
246
246
246
246
246
246
246
246
246
246
246
246
246
246
246
246
246
246
246
246
246
246
246
246
246
246
246
246
246
246
246
246
246
246
246
246
246
246
246
246
246
246
246
246
246
246
246
246
246
246
246
246
246
246
246
246
246
246
246
246
246
246
246
246
246
246
246
246
247
247
247
247
247
247
247
247
247
247
247
247
247
247
247
247
247
247
247
247
247
247
247
247
246
246
246
246
246
246
247
247
247
247
247
247
247
247
247
248
248
248
248
248
248
248
248
248
250
250
250
250
250
250
250
250
250
250
250
250
250
250
250
250
250
250
250
250
250
250
250
250
251
251
251
251
251
251
251
251
251
251
251
251
251
251
251
251
251
251
251
251
251
251
251
251
250
250
250
250
250
250
250
250
250
250
250
250
250
250
250
250
250
250
250
250
250
250
250
250
248
248
248
248
248
248
248
248
248
248
248
248
248
248
248
248
248
248
248
248
248
248
248
248
251
251
251
250
250
250
250
250
250
250
250
250
249
249
249
249
249
249
249
249
249
248
248
248
248
248
248
248
248
248
248
248
248
247
247
247
247
247
247
247
247
247
246
246
246
246
246
246
247
247
247
247
247
247
247
247
247
247
247
247
247
247
247
247
247
247
247
247
247
247
247
247
246
246
246
246
246
246
246
246
246
246
246
246
246
246
246
246
246
246
246
246
246
246
246
246
245
245
245
245
245
245
245
245
245
245
245
245
245
245
245
245
245
245
245
245
245
245
245
245
246
246
246
246
246
246
246
246
246
246
246
246
246
246
246
246
246
246
246
246
246
246
246
246
245
245
245
245
245
245
246
246
246
246
246
246
246
246
246
247
247
247
247
247
247
247
247
247
245
245
245
245
245
245
245
245
245
245
245
245
245
245
245
245
245
245
245
245
245
245
245
245
244
244
244
244
244
244
245
245
245
245
245
245
245
245
245
246
246
246
246
246
246
246
246
246
245
245
245
245
245
245
245
245
245
244
244
244
244
244
244
244
244
244
243
243
243
243
243
243
244
244
244
245
245
245
245
245
245
245
245
245
245
245
245
245
245
245
245
245
245
245
245
245
245
245
245
245
245
245
245
245
245
245
245
245
245
245
245
245
245
245
245
245
245
245
245
245
245
245
245
245
245
245
245
245
245
244
244
244
244
244
244
244
244
244
243
243
243
243
243
243
243
243
243
244
244
244
244
244
244
243
243
243
243
243
243
243
243
243
242
242
242
242
242
242
242
242
242
244
244
244
244
244
244
243
243
243
243
243
243
243
243
243
242
242
242
242
242
242
242
242
242
243
243
243
243
243
243
243
243
243
244
244
244
244
244
244
244
244
244
245
245
245
245
245
245
244
244
244
244
244
244
244
244
244
245
245
245
245
245
245
246
246
246
246
246
246
246
246
246
245
245
245
245
245
245
245
245
245
245
245
245
245
245
245
245
245
245
245
245
245
245
245
245
247
247
247
247
247
247
247
247
247
247
247
247
247
247
247
247
247
247
247
247
247
247
247
247
247
247
247
247
247
247
247
247
247
247
247
247
247
247
247
247
247
247
247
247
247
247
247
247
246
246
246
246
246
246
246
246
246
246
246
246
246
246
246
246
246
246
246
246
246
246
246
246
246
246
246
246
246
246
246
246
246
246
246
246
246
246
246
246
246
246
246
246
246
246
246
246
247
247
247
247
247
247
247
247
247
247
247
247
247
247
247
247
247
247
247
247
247
247
247
247
246
246
246
246
246
246
247
247
247
247
247
247
247
247
247
248
248
248
248
248
248
248
248
248
250
250
250
250
250
250
250
250
250
250
250
250
250
250
250
250
250
250
250
250
250
250
250
250
251
251
251
251
251
251
251
251
251
251
251
251
251
251
251
251
251
251
251
251
251
251
251
251
250
250
250
250
250
250
250
250
250
250
250
250
250
250
250
250
250
250
250
250
250
250
250
250
248
248
248
248
248
248
248
248
248
248
248
248
248
248
248
248
248
248
248
248
248
248
248
248
251
251
251
250
250
250
250
250
250
250
250
250
249
249
249
249
249
249
249
249
249
248
248
248
248
248
248
248
248
248
248
248
248
247
247
247
247
247
247
247
247
247
246
246
246
246
246
246
247
247
247
247
247
247
247
247
247
247
247
247
247
247
247
247
247
247
247
247
247
247
247
247
247
247
247
247
247
247
247
247
247
247
247
247
247
247
247
247
247
247
247
247
247
247
247
247
245
245
245
245
245
245
245
245
245
245
245
245
245
245
245
245
245
245
245
245
245
245
245
245
246
246
246
246
246
246
246
246
246
246
246
246
246
246
246
246
246
246
246
246
246
246
246
246
245
245
245
245
245
245
246
246
246
246
246
246
246
246
246
247
247
247
247
247
247
247
247
247
245
245
245
245
245
245
245
245
245
245
245
245
245
245
245
245
245
245
245
245
245
245
245
245
245
245
245
245
245
245
245
245
245
245
245
245
246
246
246
246
246
246
247
247
247
247
247
247
246
246
246
245
245
245
245
245
245
245
245
245
244
244
244
244
244
244
244
244
244
244
244
244
244
244
244
245
245
245
245
245
245
245
245
245
245
245
245
245
245
245
245
245
245
245
245
245
245
245
245
245
245
245
245
245
245
245
245
245
245
245
245
245
245
245
245
245
245
245
245
245
245
245
245
245
245
245
245
245
245
244
244
244
244
244
244
244
244
244
243
243
243
243
243
243
243
243
243
244
244
244
244
244
244
243
243
243
243
243
243
243
243
243
242
242
242
242
242
242
242
242
242
244
244
244
244
244
244
243
243
243
243
243
243
243
243
243
242
242
242
242
242
242
242
242
242
243
243
243
243
243
243
243
243
243
244
244
244
244
244
244
244
244
244
245
245
245
245
245
245
244
244
244
244
244
244
244
244
244
245
245
245
245
245
245
246
246
246
246
246
246
246
246
246
245
245
245
245
245
245
245
245
245
245
245
245
245
245
245
245
245
245
245
245
245
245
245
245
247
247
247
247
247
247
247
247
247
247
247
247
247
247
247
247
247
247
247
247
247
247
247
247
247
247
247
247
247
247
247
247
247
247
247
247
247
247
247
247
247
247
247
247
247
247
247
247
246
246
246
246
246
246
246
246
246
246
246
246
246
246
246
246
246
246
246
246
246
246
246
246
246
246
246
246
246
246
246
246
246
246
246
246
246
246
246
246
246
246
246
246
246
246
246
246
247
247
247
247
247
247
247
247
247
247
247
247
247
247
247
247
247
247
247
247
247
247
247
247
246
246
246
246
246
246
247
247
247
247
247
247
247
247
247
248
248
248
248
248
248
248
248
248
250
250
250
250
250
250
250
250
250
250
250
250
250
250
250
250
250
250
250
250
250
250
250
250
252
252
252
252
252
252
252
252
252
252
252
252
252
252
252
252
252
252
252
252
252
252
252
252
251
251
251
251
251
251
251
251
251
251
251
251
251
251
251
251
251
251
251
251
251
251
251
251
248
248
248
248
248
248
248
248
248
248
248
248
248
248
248
248
248
248
248
248
248
248
248
248
251
251
251
250
250
250
250
250
250
250
250
250
249
249
249
249
249
249
249
249
249
248
248
248
248
248
248
248
248
248
248
248
248
247
247
247
247
247
247
247
247
247
246
246
246
246
246
246
247
247
247
247
247
247
247
247
247
247
247
247
247
247
247
247
247
247
247
247
247
247
247
247
247
247
247
247
247
247
247
247
247
247
247
247
247
247
247
247
247
247
247
247
247
247
247
247
245
245
245
245
245
245
245
245
245
245
245
245
245
245
245
245
245
245
245
245
245
245
245
245
246
246
246
246
246
246
246
246
246
246
246
246
246
246
246
246
246
246
246
246
246
246
246
246
245
245
245
245
245
245
246
246
246
246
246
246
246
246
246
247
247
247
247
247
247
247
247
247
245
245
245
245
245
245
245
245
245
245
245
245
245
245
245
245
245
245
245
245
245
245
245
245
245
245
245
245
245
245
245
245
245
246
246
246
246
246
246
247
247
247
247
247
247
247
247
247
246
246
246
246
246
246
245
245
245
245
245
245
245
245
245
244
244
244
244
244
244
244
244
244
244
244
244
245
245
245
245
245
245
245
245
245
245
245
245
245
245
245
245
245
245
245
245
245
245
245
245
245
245
245
245
245
245
245
245
245
245
245
245
245
245
245
245
245
245
245
245
245
245
245
245
245
245
245
245
245
245
244
244
244
244
244
244
244
244
244
243
243
243
243
243
243
243
243
243
244
244
244
244
244
244
243
243
243
243
243
243
243
243
243
242
242
242
242
242
242
242
242
242
244
244
244
244
244
244
243
243
243
243
243
243
243
243
243
242
242
242
242
242
242
242
242
242
243
243
243
243
243
243
243
243
243
244
244
244
244
244
244
244
244
244
245
245
245
245
245
245
244
244
244
244
244
244
244
244
244
245
245
245
245
245
245
246
246
246
246
246
246
246
246
246
245
245
245
245
245
245
245
245
245
245
245
245
245
245
245
245
245
245
245
245
245
245
245
245
247
247
247
247
247
247
247
247
247
247
247
247
247
247
247
247
247
247
247
247
247
247
247
247
247
247
247
247
247
247
247
247
247
247
247
247
247
247
247
247
247
247
247
247
247
247
247
247
246
246
246
246
246
246
246
246
246
246
246
246
246
246
246
246
246
246
246
246
246
246
246
246
246
246
246
246
246
246
246
246
246
246
246
246
246
246
246
246
246
246
246
246
246
246
246
246
247
247
247
247
247
247
247
247
247
247
247
247
247
247
247
247
247
247
247
247
247
247
247
247
246
246
246
246
246
246
247
247
247
247
247
247
247
247
247
248
248
248
248
248
248
248
248
248
250
250
250
250
250
250
250
250
250
250
250
250
250
250
250
250
250
250
250
250
250
250
250
250
252
252
252
252
252
252
252
252
252
252
252
252
252
252
252
252
252
252
252
252
252
252
252
252
251
251
251
251
251
251
251
251
251
251
251
251
251
251
251
251
251
251
251
251
251
251
251
251
248
248
248
248
248
248
248
248
248
248
248
248
248
248
248
248
248
248
248
248
248
248
248
248
251
251
251
250
250
250
250
250
250
250
250
250
249
249
249
249
249
249
249
249
249
248
248
248
248
248
248
248
248
248
248
248
248
247
247
247
247
247
247
247
247
247
246
246
246
246
246
246
247
247
247
247
247
247
247
247
247
247
247
247
247
247
247
247
247
247
247
247
247
247
247
247
247
247
247
247
247
247
247
247
247
247
247
247
247
247
247
247
247
247
247
247
247
247
247
247
245
245
245
245
245
245
245
245
245
245
245
245
245
245
245
245
245
245
245
245
245
245
245
245
246
246
246
246
246
246
246
246
246
246
246
246
246
246
246
246
246
246
246
246
246
246
246
246
245
245
245
245
245
245
246
246
246
246
246
246
246
246
246
247
247
247
247
247
247
247
247
247
245
245
245
245
245
245
245
245
245
245
245
245
245
245
245
245
245
245
245
245
245
245
245
245
245
245
245
245
245
245
246
246
246
246
246
246
246
246
246
247
247
247
247
247
247
247
247
247
246
246
246
246
246
246
246
246
246
245
245
245
245
245
245
244
244
244
244
244
244
244
244
244
244
244
244
244
244
244
244
244
244
244
244
244
244
244
244
244
244
244
244
244
244
244
244
244
244
244
244
245
245
245
245
245
245
245
245
245
245
245
245
245
245
245
245
245
245
245
245
245
245
245
245
244
244
244
244
244
244
244
244
244
244
244
244
244
244
244
244
244
244
244
244
244
244
244
244
243
243
243
243
243
243
243
243
243
244
244
244
244
244
244
244
244
244
245
245
245
245
245
245
244
244
244
244
244
244
244
244
244
244
244
244
244
244
244
244
244
244
244
244
244
244
244
244
245
245
245
245
245
245
245
245
245
245
245
245
245
245
245
245
245
245
245
245
245
245
245
245
245
245
245
245
245
245
245
245
245
245
245
245
245
245
245
245
245
245
245
245
245
245
245
245
246
246
246
246
246
246
246
246
246
246
246
246
246
246
246
246
246
246
246
246
246
246
246
246
247
247
247
247
247
247
247
247
247
247
247
247
247
247
247
247
247
247
247
247
247
247
247
247
245
245
245
245
245
245
246
246
246
246
246
246
246
246
246
247
247
247
247
247
247
247
247
247
246
246
246
246
246
246
246
246
246
246
246
246
246
246
246
246
246
246
246
246
246
246
246
246
247
247
247
247
247
247
247
247
247
247
247
247
247
247
247
247
247
247
247
247
247
247
247
247
248
248
248
248
248
248
248
248
248
247
247
247
247
247
247
247
247
247
246
246
246
246
246
246
246
246
246
246
246
246
247
247
247
247
247
247
247
247
247
248
248
248
248
248
248
248
248
248
248
248
248
249
249
249
249
249
249
249
249
249
250
250
250
250
250
250
250
250
250
251
251
251
252
252
252
252
252
252
251
251
251
251
251
251
250
250
250
250
250
250
250
250
250
250
250
250
250
250
250
250
250
250
250
250
250
250
250
250
250
250
250
250
250
250
250
250
250
250
250
250
250
250
250
250
250
250
250
250
250
250
250
250
250
250
250
250
250
250
250
250
250
250
250
250
251
251
251
250
250
250
250
250
250
250
250
250
249
249
249
249
249
249
249
249
249
248
248
248
248
248
248
248
248
248
248
248
248
247
247
247
247
247
247
247
247
247
246
246
246
246
246
246
247
247
247
247
247
247
247
247
247
247
247
247
247
247
247
247
247
247
247
247
247
247
247
247
248
248
248
248
248
248
248
248
248
248
248
248
248
248
248
248
248
248
248
248
248
248
248
248
249
249
249
249
249
249
248
248
248
248
248
248
247
247
247
246
246
246
245
245
245
245
245
245
245
245
245
245
245
245
245
245
245
246
246
246
246
246
246
247
247
247
247
247
247
247
247
247
246
246
246
246
246
246
246
246
246
246
246
246
246
246
246
246
246
246
246
246
246
246
246
246
247
247
247
247
247
247
247
247
247
246
246
246
246
246
246
246
246
246
245
245
245
245
245
245
245
245
245
245
245
245
246
246
246
246
246
246
246
246
246
247
247
247
247
247
247
247
247
247
246
246
246
246
246
246
246
246
246
245
245
245
245
245
245
244
244
244
244
244
244
244
244
244
242
242
242
244
244
244
244
244
244
244
244
244
244
244
244
244
244
244
244
244
244
244
244
244
244
244
244
245
245
245
245
245
245
245
245
245
245
245
245
245
245
245
245
245
245
245
245
245
245
245
245
244
244
244
244
244
244
244
244
244
244
244
244
244
244
244
244
244
244
244
244
244
244
244
244
243
243
243
243
243
243
243
243
243
244
244
244
244
244
244
244
244
244
245
245
245
245
245
245
244
244
244
244
244
244
244
244
244
244
244
244
244
244
244
244
244
244
244
244
244
244
244
244
245
245
245
245
245
245
245
245
245
245
245
245
245
245
245
245
245
245
245
245
245
245
245
245
245
245
245
245
245
245
245
245
245
245
245
245
245
245
245
245
245
245
245
245
245
245
245
245
246
246
246
246
246
246
246
246
246
246
246
246
246
246
246
246
246
246
246
246
246
246
246
246
247
247
247
247
247
247
247
247
247
247
247
247
247
247
247
247
247
247
247
247
247
247
247
247
245
245
245
245
245
245
246
246
246
246
246
246
246
246
246
247
247
247
247
247
247
247
247
247
246
246
246
246
246
246
246
246
246
246
246
246
246
246
246
246
246
246
246
246
246
246
246
246
247
247
247
247
247
247
247
247
247
247
247
247
247
247
247
247
247
247
247
247
247
247
247
247
248
248
248
248
248
248
248
248
248
247
247
247
247
247
247
247
247
247
246
246
246
246
246
246
246
246
246
246
246
246
247
247
247
247
247
247
248
248
248
248
248
248
248
248
248
248
248
248
248
248
248
249
249
249
249
249
249
249
249
249
250
250
250
250
250
250
250
250
250
251
251
251
252
252
252
252
252
252
251
251
251
251
251
251
250
250
250
250
250
250
250
250
250
250
250
250
250
250
250
250
250
250
250
250
250
250
250
250
250
250
250
250
250
250
250
250
250
250
250
250
249
249
249
249
249
249
249
249
249
249
249
249
249
249
249
249
249
249
249
249
249
249
249
249
251
251
251
250
250
250
250
250
250
250
250
250
249
249
249
249
249
249
249
249
249
248
248
248
248
248
248
248
248
248
248
248
248
247
247
247
247
247
247
247
247
247
246
246
246
246
246
246
247
247
247
247
247
247
247
247
247
247
247
247
247
247
247
247
247
247
247
247
247
247
247
247
248
248
248
248
248
248
248
248
248
248
248
248
248
248
248
248
248
248
248
248
248
248
248
248
249
249
249
249
249
249
249
249
249
248
248
248
247
247
247
246
246
246
246
246
246
245
245
245
245
245
245
245
245
245
246
246
246
246
246
246
246
246
246
247
247
247
247
247
247
247
247
247
246
246
246
246
246
246
246
246
246
246
246
246
246
246
246
246
246
246
246
246
246
246
246
246
247
247
247
247
247
247
247
247
247
246
246
246
246
246
246
246
246
246
245
245
245
245
245
245
245
245
245
245
245
245
246
246
246
246
246
246
246
246
246
247
247
247
247
247
247
247
247
247
246
246
246
246
246
246
246
246
246
245
245
245
245
245
245
244
244
244
244
244
244
244
244
244
242
242
242
243
243
243
243
243
243
243
243
243
243
243
243
243
243
243
243
243
243
243
243
243
243
243
243
245
245
245
245
245
245
245
245
245
245
245
245
245
245
245
245
245
245
245
245
245
245
245
245
243
243
243
243
243
243
243
243
243
243
243
243
243
243
243
243
243
243
243
243
243
243
243
243
243
243
243
243
243
243
243
243
243
244
244
244
244
244
244
244
244
244
245
245
245
245
245
245
244
244
244
244
244
244
244
244
244
244
244
244
244
244
244
244
244
244
244
244
244
244
244
244
245
245
245
245
245
245
245
245
245
245
245
245
245
245
245
245
245
245
245
245
245
245
245
245
245
245
245
245
245
245
245
245
245
245
245
245
245
245
245
245
245
245
245
245
245
245
245
245
246
246
246
246
246
246
246
246
246
246
246
246
246
246
246
246
246
246
246
246
246
246
246
246
247
247
247
247
247
247
247
247
247
247
247
247
247
247
247
247
247
247
247
247
247
247
247
247
245
245
245
245
245
245
246
246
246
246
246
246
246
246
246
247
247
247
247
247
247
247
247
247
246
246
246
246
246
246
246
246
246
246
246
246
246
246
246
246
246
246
246
246
246
246
246
246
247
247
247
247
247
247
247
247
247
247
247
247
247
247
247
247
247
247
247
247
247
247
247
247
248
248
248
248
248
248
248
248
248
247
247
247
247
247
247
247
247
247
246
246
246
246
246
246
247
247
247
247
247
247
247
247
247
247
247
247
248
248
248
248
248
248
249
249
249
249
249
249
248
248
248
249
249
249
249
249
249
249
249
249
250
250
250
250
250
250
250
250
250
251
251
251
252
252
252
252
252
252
251
251
251
251
251
251
250
250
250
250
250
250
250
250
250
250
250
250
250
250
250
250
250
250
250
250
250
250
250
250
250
250
250
250
250
250
250
250
250
250
250
250
249
249
249
249
249
249
249
249
249
249
249
249
249
249
249
249
249
249
249
249
249
249
249
249
251
251
251
250
250
250
250
250
250
250
250
250
249
249
249
249
249
249
249
249
249
248
248
248
248
248
248
248
248
248
248
248
248
247
247
247
247
247
247
247
247
247
246
246
246
246
246
246
247
247
247
247
247
247
247
247
247
247
247
247
247
247
247
247
247
247
247
247
247
247
247
247
248
248
248
248
248
248
248
248
248
248
248
248
248
248
248
248
248
248
248
248
248
248
248
248
250
250
250
249
249
249
249
249
249
248
248
248
247
247
247
247
247
247
246
246
246
246
246
246
246
246
246
246
246
246
246
246
246
246
246
246
247
247
247
247
247
247
247
247
247
248
248
248
246
246
246
246
246
246
246
246
246
246
246
246
246
246
246
246
246
246
246
246
246
246
246
246
247
247
247
247
247
247
247
247
247
246
246
246
246
246
246
246
246
246
245
245
245
245
245
245
245
245
245
245
245
245
246
246
246
246
246
246
246
246
246
247
247
247
247
247
247
247
247
247
246
246
246
246
246
246
246
246
246
245
245
245
245
245
245
244
244
244
244
244
244
244
244
244
241
241
241
243
243
243
243
243
243
243
243
243
243
243
243
243
243
243
243
243
243
243
243
243
243
243
243
244
244
244
244
244
244
244
244
244
244
244
244
244
244
244
244
244
244
244
244
244
244
244
244
243
243
243
243
243
243
243
243
243
243
243
243
243
243
243
243
243
243
243
243
243
243
243
243
243
243
243
243
243
243
243
243
243
244
244
244
244
244
244
244
244
244
245
245
245
245
245
245
244
244
244
244
244
244
244
244
244
244
244
244
244
244
244
244
244
244
244
244
244
244
244
244
245
245
245
245
245
245
245
245
245
245
245
245
245
245
245
245
245
245
245
245
245
245
245
245
245
245
245
245
245
245
245
245
245
245
245
245
245
245
245
245
245
245
245
245
245
245
245
245
246
246
246
246
246
246
246
246
246
246
246
246
246
246
246
246
246
246
246
246
246
246
246
246
246
246
246
246
246
246
246
246
246
246
246
246
246
246
246
246
246
246
246
246
246
246
246
246
245
245
245
245
245
245
246
246
246
246
246
246
246
246
246
247
247
247
247
247
247
247
247
247
246
246
246
246
246
246
246
246
246
246
246
246
246
246
246
246
246
246
246
246
246
246
246
246
247
247
247
247
247
247
247
247
247
247
247
247
247
247
247
247
247
247
247
247
247
247
247
247
248
248
248
248
248
248
248
248
248
247
247
247
247
247
247
247
247
247
246
246
246
246
246
246
247
247
247
247
247
247
248
248
248
248
248
248
248
248
248
249
249
249
249
249
249
249
249
249
248
248
248
249
249
249
249
249
249
249
249
249
250
250
250
250
250
250
250
250
250
251
251
251
252
252
252
252
252
252
251
251
251
251
251
251
250
250
250
250
250
250
250
250
250
250
250
250
250
250
250
250
250
250
250
250
250
250
250
250
250
250
250
250
250
250
250
250
250
250
250
250
249
249
249
249
249
249
249
249
249
249
249
249
249
249
249
249
249
249
249
249
249
249
249
249
251
251
251
250
250
250
250
250
250
250
250
250
249
249
249
249
249
249
249
249
249
248
248
248
248
248
248
248
248
248
248
248
248
247
247
247
247
247
247
247
247
247
246
246
246
246
246
246
246
246
246
246
246
246
246
246
246
246
246
246
246
246
246
246
246
246
246
246
246
246
246
246
248
248
248
248
248
248
248
248
248
248
248
248
248
248
248
248
248
248
248
248
248
248
248
248
250
250
250
250
250
250
249
249
249
249
249
249
248
248
248
247
247
247
246
246
246
246
246
246
246
246
246
246
246
246
246
246
246
247
247
247
247
247
247
248
248
248
248
248
248
248
248
248
246
246
246
246
246
246
246
246
246
246
246
246
246
246
246
246
246
246
246
246
246
246
246
246
247
247
247
247
247
247
247
247
247
246
246
246
246
246
246
246
246
246
245
245
245
245
245
245
245
245
245
245
245
245
246
246
246
246
246
246
246
246
246
247
247
247
247
247
247
247
247
247
246
246
246
246
246
246
246
246
246
245
245
245
245
245
245
244
244
244
244
244
244
244
244
244
241
241
241
243
243
243
243
243
243
243
243
243
243
243
243
243
243
243
243
243
243
243
243
243
243
243
243
244
244
244
244
244
244
244
244
244
244
244
244
244
244
244
244
244
244
244
244
244
244
244
244
243
243
243
243
243
243
243
243
243
243
243
243
243
243
243
243
243
243
243
243
243
243
243
243
243
243
243
243
243
243
243
243
243
244
244
244
244
244
244
244
244
244
245
245
245
245
245
245
244
244
244
244
244
244
244
244
244
244
244
244
244
244
244
244
244
244
244
244
244
244
244
244
245
245
245
245
245
245
245
245
245
245
245
245
245
245
245
245
245
245
245
245
245
245
245
245
245
245
245
245
245
245
245
245
245
245
245
245
245
245
245
245
245
245
245
245
245
245
245
245
246
246
246
246
246
246
246
246
246
246
246
246
246
246
246
246
246
246
246
246
246
246
246
246
246
246
246
246
246
246
246
246
246
246
246
246
246
246
246
246
246
246
246
246
246
246
246
246
245
245
245
245
245
245
246
246
246
246
246
246
246
246
246
247
247
247
247
247
247
247
247
247
246
246
246
246
246
246
246
246
246
246
246
246
246
246
246
246
246
246
246
246
246
246
246
246
247
247
247
247
247
247
247
247
247
247
247
247
247
247
247
247
247
247
247
247
247
247
247
247
248
248
248
248
248
248
248
248
248
247
247
247
247
247
247
247
247
247
246
246
246
246
246
246
248
248
248
248
248
248
248
248
248
248
248
248
249
249
249
249
249
249
249
249
249
250
250
250
248
248
248
249
249
249
249
249
249
249
249
249
250
250
250
250
250
250
250
250
250
251
251
251
252
252
252
252
252
252
251
251
251
251
251
251
250
250
250
250
250
250
250
250
250
250
250
250
250
250
250
250
250
250
250
250
250
250
250
250
250
250
250
250
250
250
250
250
250
250
250
250
248
248
248
248
248
248
248
248
248
248
248
248
248
248
248
248
248
248
248
248
248
248
248
248
251
251
251
250
250
250
250
250
250
250
250
250
249
249
249
249
249
249
249
249
249
248
248
248
248
248
248
248
248
248
248
248
248
247
247
247
247
247
247
247
247
247
246
246
246
246
246
246
246
246
246
246
246
246
246
246
246
246
246
246
246
246
246
246
246
246
246
246
246
246
246
246
248
248
248
248
248
248
248
248
248
248
248
248
248
248
248
248
248
248
248
248
248
248
248
248
251
251
251
250
250
250
250
250
250
249
249
249
248
248
248
247
247
247
247
247
247
247
247
247
246
246
246
247
247
247
247
247
247
247
247
247
248
248
248
248
248
248
248
248
248
249
249
249
246
246
246
246
246
246
246
246
246
246
246
246
246
246
246
246
246
246
246
246
246
246
246
246
247
247
247
247
247
247
247
247
247
246
246
246
246
246
246
246
246
246
245
245
245
245
245
245
245
245
245
245
245
245
246
246
246
246
246
246
246
246
246
247
247
247
247
247
247
247
247
247
246
246
246
246
246
246
246
246
246
245
245
245
245
245
245
244
244
244
244
244
244
244
244
244
240
240
240
242
242
242
242
242
242
242
242
242
242
242
242
242
242
242
242
242
242
242
242
242
242
242
242
243
243
243
243
243
243
243
243
243
243
243
243
243
243
243
243
243
243
243
243
243
243
243
243
242
242
242
242
242
242
242
242
242
242
242
242
242
242
242
242
242
242
242
242
242
242
242
242
243
243
243
243
243
243
243
243
243
244
244
244
244
244
244
244
244
244
245
245
245
245
245
245
244
244
244
244
244
244
244
244
244
244
244
244
244
244
244
244
244
244
244
244
244
244
244
244
245
245
245
245
245
245
245
245
245
245
245
245
245
245
245
245
245
245
245
245
245
245
245
245
245
245
245
245
245
245
245
245
245
245
245
245
245
245
245
245
245
245
245
245
245
245
245
245
246
246
246
246
246
246
246
246
246
246
246
246
246
246
246
246
246
246
246
246
246
246
246
246
245
245
245
245
245
245
245
245
245
245
245
245
245
245
245
245
245
245
245
245
245
245
245
245
245
245
245
245
245
245
246
246
246
246
246
246
246
246
246
247
247
247
247
247
247
247
247
247
246
246
246
246
246
246
246
246
246
246
246
246
246
246
246
246
246
246
246
246
246
246
246
246
247
247
247
247
247
247
247
247
247
247
247
247
247
247
247
247
247
247
247
247
247
247
247
247
248
248
248
248
248
248
248
248
248
247
247
247
247
247
247
247
247
247
246
246
246
246
246
246
248
248
248
248
248
248
248
248
248
249
249
249
249
249
249
250
250
250
250
250
250
250
250
250
248
248
248
249
249
249
249
249
249
249
249
249
250
250
250
250
250
250
250
250
250
251
251
251
252
252
252
252
252
252
251
251
251
251
251
251
250
250
250
250
250
250
250
250
250
250
250
250
250
250
250
250
250
250
250
250
250
250
250
250
250
250
250
250
250
250
250
250
250
250
250
250
248
248
248
248
248
248
248
248
248
248
248
248
248
248
248
248
248
248
248
248
248
248
248
248
251
251
251
250
250
250
250
250
250
250
250
250
249
249
249
249
249
249
249
249
249
248
248
248
248
248
248
248
248
248
248
248
248
247
247
247
247
247
247
247
247
247
246
246
246
246
246
246
245
245
245
245
245
245
245
245
245
245
245
245
245
245
245
245
245
245
245
245
245
245
245
245
248
248
248
248
248
248
248
248
248
248
248
248
248
248
248
248
248
248
248
248
248
248
248
248
251
251
251
251
251
251
250
250
250
249
249
249
249
249
249
248
248
248
247
247
247
247
247
247
247
247
247
247
247
247
247
247
247
248
248
248
248
248
248
249
249
249
249
249
249
249
249
249
246
246
246
246
246
246
246
246
246
246
246
246
246
246
246
246
246
246
246
246
246
246
246
246
247
247
247
247
247
247
247
247
247
246
246
246
246
246
246
246
246
246
245
245
245
245
245
245
245
245
245
245
245
245
246
246
246
246
246
246
246
246
246
247
247
247
247
247
247
247
247
247
246
246
246
246
246
246
246
246
246
245
245
245
245
245
245
244
244
244
244
244
244
244
244
244
240
240
240
242
242
242
242
242
242
242
242
242
242
242
242
242
242
242
242
242
242
242
242
242
242
242
242
243
243
243
243
243
243
243
243
243
243
243
243
243
243
243
243
243
243
243
243
243
243
243
243
242
242
242
242
242
242
242
242
242
242
242
242
242
242
242
242
242
242
242
242
242
242
242
242
243
243
243
243
243
243
243
243
243
244
244
244
244
244
244
244
244
244
245
245
245
245
245
245
244
244
244
244
244
244
244
244
244
244
244
244
244
244
244
244
244
244
244
244
244
244
244
244
245
245
245
245
245
245
245
245
245
245
245
245
245
245
245
245
245
245
245
245
245
245
245
245
245
245
245
245
245
245
245
245
245
245
245
245
245
245
245
245
245
245
245
245
245
245
245
245
246
246
246
246
246
246
246
246
246
246
246
246
246
246
246
246
246
246
246
246
246
246
246
246
245
245
245
245
245
245
245
245
245
245
245
245
245
245
245
245
245
245
245
245
245
245
245
245
245
245
245
245
245
245
246
246
246
246
246
246
246
246
246
247
247
247
247
247
247
247
247
247
246
246
246
246
246
246
246
246
246
246
246
246
246
246
246
246
246
246
246
246
246
246
246
246
247
247
247
247
247
247
247
247
247
247
247
247
247
247
247
247
247
247
247
247
247
247
247
247
248
248
248
248
248
248
248
248
248
247
247
247
247
247
247
247
247
247
246
246
246
246
246
246
248
248
248
249
249
249
249
249
249
249
249
249
250
250
250
250
250
250
250
250
250
250
250
250
248
248
248
249
249
249
249
249
249
249
249
249
250
250
250
250
250
250
250
250
250
251
251
251
252
252
252
252
252
252
251
251
251
251
251
251
250
250
250
250
250
250
250
250
250
250
250
250
250
250
250
250
250
250
250
250
250
250
250
250
250
250
250
250
250
250
250
250
250
250
250
250
247
247
247
247
247
247
247
247
247
247
247
247
247
247
247
247
247
247
247
247
247
247
247
247
251
251
251
250
250
250
250
250
250
250
250
250
249
249
249
249
249
249
249
249
249
248
248
248
248
248
248
248
248
248
248
248
248
247
247
247
247
247
247
247
247
247
246
246
246
246
246
246
245
245
245
245
245
245
245
245
245
245
245
245
245
245
245
245
245
245
245
245
245
245
245
245
248
248
248
248
248
248
248
248
248
248
248
248
248
248
248
248
248
248
248
248
248
248
248
248
251
251
251
251
251
251
251
251
251
250
250
250
249
249
249
248
248
248
248
248
248
247
247
247
247
247
247
247
247
247
248
248
248
248
248
248
248
248
248
249
249
249
249
249
249
249
249
249
246
246
246
246
246
246
246
246
246
246
246
246
246
246
246
246
246
246
246
246
246
246
246
246
247
247
247
247
247
247
247
247
247
246
246
246
246
246
246
246
246
246
245
245
245
245
245
245
245
245
245
245
245
245
246
246
246
246
246
246
246
246
246
247
247
247
247
247
247
247
247
247
246
246
246
246
246
246
246
246
246
245
245
245
245
245
245
244
244
244
244
244
244
244
244
244
239
239
239
242
242
242
242
242
242
242
242
242
242
242
242
242
242
242
242
242
242
242
242
242
242
242
242
243
243
243
243
243
243
243
243
243
243
243
243
243
243
243
243
243
243
243
243
243
243
243
243
242
242
242
242
242
242
242
242
242
242
242
242
242
242
242
242
242
242
242
242
242
242
242
242
243
243
243
243
243
243
243
243
243
244
244
244
244
244
244
244
244
244
245
245
245
245
245
245
244
244
244
244
244
244
244
244
244
244
244
244
244
244
244
244
244
244
244
244
244
244
244
244
245
245
245
245
245
245
245
245
245
245
245
245
245
245
245
245
245
245
245
245
245
245
245
245
245
245
245
245
245
245
245
245
245
245
245
245
245
245
245
245
245
245
245
245
245
245
245
245
246
246
246
246
246
246
246
246
246
246
246
246
246
246
246
246
246
246
246
246
246
246
246
246
245
245
245
245
245
245
245
245
245
245
245
245
245
245
245
245
245
245
245
245
245
245
245
245
245
245
245
245
245
245
246
246
246
246
246
246
246
246
246
247
247
247
247
247
247
247
247
247
246
246
246
246
246
246
246
246
246
246
246
246
246
246
246
246
246
246
246
246
246
246
246
246
247
247
247
247
247
247
247
247
247
247
247
247
247
247
247
247
247
247
247
247
247
247
247
247
248
248
248
248
248
248
248
248
248
247
247
247
247
247
247
247
247
247
246
246
246
246
246
246
249
249
249
249
249
249
249
249
249
249
249
249
250
250
250
250
250
250
250
250
250
251
251
251
248
248
248
249
249
249
249
249
249
249
249
249
250
250
250
250
250
250
250
250
250
251
251
251
252
252
252
252
252
252
251
251
251
251
251
251
250
250
250
250
250
250
250
250
250
250
250
250
250
250
250
250
250
250
250
250
250
250
250
250
250
250
250
250
250
250
250
250
250
250
250
250
247
247
247
247
247
247
247
247
247
247
247
247
247
247
247
247
247
247
247
247
247
247
247
247
251
251
251
250
250
250
250
250
250
250
250
250
249
249
249
249
249
249
249
249
249
248
248
248
248
248
248
248
248
248
248
248
248
247
247
247
247
247
247
247
247
247
246
246
246
246
246
246
245
245
245
245
245
245
245
245
245
245
245
245
245
245
245
245
245
245
245
245
245
245
245
245
248
248
248
248
248
248
248
248
248
248
248
248
248
248
248
248
248
248
248
248
248
248
248
248
252
252
252
251
251
251
251
251
251
250
250
250
249
249
249
248
248
248
248
248
248
248
248
248
247
247
247
248
248
248
248
248
248
248
248
248
249
249
249
249
249
249
249
249
249
250
250
250
246
246
246
246
246
246
246
246
246
246
246
246
246
246
246
246
246
246
246
246
246
246
246
246
247
247
247
247
247
247
247
247
247
246
246
246
246
246
246
246
246
246
245
245
245
245
245
245
245
245
245
245
245
245
246
246
246
246
246
246
246
246
246
247
247
247
247
247
247
247
247
247
246
246
246
246
246
246
246
246
246
245
245
245
245
245
245
244
244
244
244
244
244
244
244
244
239
239
239
242
242
242
242
242
242
242
242
242
242
242
242
242
242
242
242
242
242
242
242
242
242
242
242
242
242
242
242
242
242
242
242
242
242
242
242
242
242
242
242
242
242
242
242
242
242
242
242
242
242
242
242
242
242
242
242
242
242
242
242
242
242
242
242
242
242
242
242
242
242
242
242
244
244
244
244
244
244
244
244
244
244
244
244
244
244
244
244
244
244
244
244
244
244
244
244
244
244
244
244
244
244
244
244
244
244
244
244
244
244
244
244
244
244
244
244
244
244
244
244
245
245
245
245
245
245
245
245
245
245
245
245
245
245
245
245
245
245
245
245
245
245
245
245
244
244
244
244
244
244
244
244
244
245
245
245
245
245
245
246
246
246
246
246
246
246
246
246
245
245
245
245
245
245
246
246
246
246
246
246
246
246
246
247
247
247
247
247
247
247
247
247
246
246
246
246
246
246
246
246
246
246
246
246
246
246
246
246
246
246
246
246
246
246
246
246
244
244
244
244
244
244
244
244
244
245
245
245
245
245
245
246
246
246
246
246
246
246
246
246
247
247
247
247
247
247
247
247
247
247
247
247
247
247
247
247
247
247
247
247
247
247
247
247
247
247
247
247
247
247
247
247
247
247
247
247
247
247
247
247
247
247
247
247
247
247
247
247
248
248
248
248
248
248
248
248
248
247
247
247
247
247
247
247
247
247
246
246
246
246
246
246
247
247
247
247
247
247
248
248
248
248
248
248
249
249
249
249
249
249
249
249
249
249
249
249
252
252
252
252
252
252
252
252
252
252
252
252
252
252
252
252
252
252
252
252
252
252
252
252
251
251
251
250
250
250
250
250
250
250
250
250
249
249
249
249
249
249
249
249
249
248
248
248
247
247
247
247
247
247
248
248
248
248
248
248
249
249
249
249
249
249
249
249
249
249
249
249
248
248
248
248
248
248
248
248
248
248
248
248
248
248
248
248
248
248
248
248
248
248
248
248
248
248
248
248
248
248
248
248
248
248
248
248
248
248
248
248
248
248
248
248
248
248
248
248
246
246
246
246
246
246
246
246
246
246
246
246
246
246
246
246
246
246
246
246
246
246
246
246
244
244
244
244
244
244
244
244
244
245
245
245
245
245
245
246
246
246
246
246
246
246
246
246
251
251
251
248
248
248
245
245
245
246
246
246
250
250
250
252
252
252
249
249
249
245
245
245
249
249
249
249
249
249
249
249
249
249
249
249
248
248
248
248
248
248
247
247
247
247
247
247
248
248
248
249
249
249
247
247
247
243
243
243
248
248
248
255
255
255
253
253
253
244
244
244
247
247
247
247
247
247
247
247
247
247
247
247
247
247
247
247
247
247
247
247
247
247
247
247
247
247
247
247
247
247
247
247
247
246
246
246
246
246
246
246
246
246
245
245
245
245
245
245
245
245
245
245
245
245
246
246
246
246
246
246
246
246
246
247
247
247
247
247
247
247
247
247
247
247
247
247
247
247
247
247
247
246
246
246
246
246
246
246
246
246
245
245
245
245
245
245
239
239
239
